( pcb2gcode 1.1.4 )

( This file uses 3 drill bit sizes. )

G94     ( Inches per minute feed rate. )
G20     ( Units == INCHES.             )
G90     ( Absolute coordinates.        )
S30000  ( RPM spindle speed.           )

G00 Z0.98425 ( Retract )
T1
M5      ( Spindle stop.                )
M6      ( Tool change.                 )
(MSG, CHANGE TOOL BIT: to drill size 0.40000 mm)
M0      ( Temporary machine stop.      )
M3      ( Spindle on clockwise.        )

G81 R0.19685 Z-0.10236 F5.11811 X-5.32520 Y-3.58031
X-5.42402 Y-5.00709
X-5.66614 Y-4.66890
X-5.68031 Y-5.11063
X-5.72677 Y-4.97874
X-5.90709 Y-4.95866
X-6.12598 Y-4.63583
X-6.21063 Y-3.00748
X-6.22598 Y-4.82717
X-6.22638 Y-4.21063
X-6.44291 Y-5.00906
X-6.49016 Y-3.16496
X-6.57362 Y-4.10315


G00 Z0.98425 ( Retract )
T2
M5      ( Spindle stop.                )
M6      ( Tool change.                 )
(MSG, CHANGE TOOL BIT: to drill size 0.50000 mm)
M0      ( Temporary machine stop.      )
M3      ( Spindle on clockwise.        )

G81 R0.19685 Z-0.10236 F5.11811 X-5.51476 Y-3.94370
X-5.51476 Y-3.98307
X-5.51476 Y-4.02244
X-5.51476 Y-4.06181
X-5.51476 Y-4.10118
X-5.55413 Y-3.94370
X-5.55413 Y-3.98307
X-5.55413 Y-4.02244
X-5.55413 Y-4.06181
X-5.55413 Y-4.10118
X-5.59350 Y-3.94370
X-5.59350 Y-3.98307
X-5.59350 Y-4.02244
X-5.59350 Y-4.06181
X-5.59350 Y-4.10118
X-5.59409 Y-4.18386
X-5.59409 Y-4.22323
X-5.59409 Y-4.26260
X-5.59409 Y-4.30197
X-5.59409 Y-4.34134
X-5.63287 Y-3.94370
X-5.63287 Y-3.98307
X-5.63287 Y-4.02244
X-5.63287 Y-4.06181
X-5.63287 Y-4.10118
X-5.63346 Y-4.18386
X-5.63346 Y-4.22323
X-5.63346 Y-4.26260
X-5.63346 Y-4.30197
X-5.63346 Y-4.34134
X-5.67224 Y-3.94370
X-5.67224 Y-3.98307
X-5.67224 Y-4.02244
X-5.67224 Y-4.06181
X-5.67224 Y-4.10118
X-5.67283 Y-4.18386
X-5.67283 Y-4.22323
X-5.67283 Y-4.26260
X-5.67283 Y-4.30197
X-5.67283 Y-4.34134
X-5.71161 Y-3.94370
X-5.71161 Y-3.98307
X-5.71161 Y-4.02244
X-5.71161 Y-4.06181
X-5.71161 Y-4.10118
X-5.71220 Y-4.18386
X-5.71220 Y-4.22323
X-5.71220 Y-4.26260
X-5.71220 Y-4.30197
X-5.71220 Y-4.34134
X-5.75157 Y-4.18386
X-5.75157 Y-4.22323
X-5.75157 Y-4.26260
X-5.75157 Y-4.30197
X-5.75157 Y-4.34134
X-5.80276 Y-4.18386
X-5.80276 Y-4.22323
X-5.80276 Y-4.26260
X-5.80276 Y-4.30197
X-5.80276 Y-4.34134
X-5.84213 Y-4.18386
X-5.84213 Y-4.22323
X-5.84213 Y-4.26260
X-5.84213 Y-4.30197
X-5.84213 Y-4.34134
X-5.84272 Y-3.94370
X-5.84272 Y-3.98307
X-5.84272 Y-4.02244
X-5.84272 Y-4.06181
X-5.84272 Y-4.10118
X-5.88150 Y-4.18386
X-5.88150 Y-4.22323
X-5.88150 Y-4.26260
X-5.88150 Y-4.30197
X-5.88150 Y-4.34134
X-5.88209 Y-3.94370
X-5.88209 Y-3.98307
X-5.88209 Y-4.02244
X-5.88209 Y-4.06181
X-5.88209 Y-4.10118
X-5.92087 Y-4.18386
X-5.92087 Y-4.22323
X-5.92087 Y-4.26260
X-5.92087 Y-4.30197
X-5.92087 Y-4.34134
X-5.92146 Y-3.94370
X-5.92146 Y-3.98307
X-5.92146 Y-4.02244
X-5.92146 Y-4.06181
X-5.92146 Y-4.10118
X-5.96024 Y-4.18386
X-5.96024 Y-4.22323
X-5.96024 Y-4.26260
X-5.96024 Y-4.30197
X-5.96024 Y-4.34134
X-5.96083 Y-3.94370
X-5.96083 Y-3.98307
X-5.96083 Y-4.02244
X-5.96083 Y-4.06181
X-5.96083 Y-4.10118
X-6.00020 Y-3.94370
X-6.00020 Y-3.98307
X-6.00020 Y-4.02244
X-6.00020 Y-4.06181
X-6.00020 Y-4.10118
X-6.03957 Y-3.94370
X-6.03957 Y-3.98307
X-6.03957 Y-4.02244
X-6.03957 Y-4.06181
X-6.03957 Y-4.10118


G00 Z0.98425 ( Retract )
T3
M5      ( Spindle stop.                )
M6      ( Tool change.                 )
(MSG, CHANGE TOOL BIT: to drill size 1.00000 mm)
M0      ( Temporary machine stop.      )
M3      ( Spindle on clockwise.        )

G81 R0.19685 Z-0.10236 F5.11811 X-5.91496 Y-3.05787
X-6.05276 Y-3.05787
X-6.33740 Y-4.10433
X-6.33740 Y-4.20433
X-6.33740 Y-4.30433
X-6.33740 Y-4.40433
X-6.33740 Y-4.50433
X-6.33740 Y-4.60433
X-6.33740 Y-4.70433
X-6.33740 Y-4.80433
X-6.33740 Y-4.90433
X-6.39331 Y-3.29724
X-6.39331 Y-3.43504
X-6.43740 Y-4.10433
X-6.43740 Y-4.20433
X-6.43740 Y-4.30433
X-6.43740 Y-4.40433
X-6.43740 Y-4.50433
X-6.43740 Y-4.60433
X-6.43740 Y-4.70433
X-6.43740 Y-4.80433
X-6.43740 Y-4.90433


G00 Z0.98425 ( All done -- retract )

M9 ( Coolant off. )
M2 ( Program end. )

