( pcb2gcode 1.1.4 )

G94     ( Inches per minute feed rate. )
G20     ( Units == INCHES.             )
G90     ( Absolute coordinates.        )
S30000  ( RPM spindle speed.           )
M3      ( Spindle on clockwise.        )

G64 P0.00500 ( set maximum deviation from commanded toolpath )

G04 P0 ( dwell for no time -- G64 should not smooth over this point )
G00 Z0.19685 ( retract )

G00 X-8.27700 Y-3.26490 ( rapid move to begin. )
G01 Z-0.00394 F39.37008 ( plunge. )
G04 P0 ( dwell for no time -- G64 should not smooth over this point )
X-8.27700 Y-3.26490
X-8.27700 Y-3.26590
X-8.27800 Y-3.26590
X-8.27800 Y-3.26690
X-8.27900 Y-3.26690
X-8.27900 Y-3.69290
X-8.27800 Y-3.69290
X-8.27800 Y-4.29790
X-8.27700 Y-4.29790
X-8.27700 Y-4.90190
X-8.27600 Y-4.90190
X-8.27600 Y-5.50690
X-8.27500 Y-5.50690
X-8.27500 Y-5.62890
X-8.27400 Y-5.62890
X-8.27400 Y-5.63090
X-8.27300 Y-5.63090
X-8.27300 Y-5.63190
X-8.27200 Y-5.63190
X-8.27200 Y-5.63290
X-8.10400 Y-5.63290
X-8.10400 Y-5.63190
X-7.75900 Y-5.63190
X-7.75900 Y-5.63090
X-7.44700 Y-5.63090
X-7.44700 Y-5.62990
X-7.11100 Y-5.62990
X-7.11100 Y-5.62890
X-6.77500 Y-5.62890
X-6.77500 Y-5.62790
X-6.43900 Y-5.62790
X-6.43900 Y-5.62690
X-6.10000 Y-5.62690
X-6.10000 Y-5.62590
X-5.97000 Y-5.62590
X-5.97000 Y-5.62390
X-5.96900 Y-5.62390
X-5.96900 Y-5.62190
X-5.96800 Y-5.62190
X-5.96800 Y-5.44790
X-5.96700 Y-5.44790
X-5.96700 Y-4.57590
X-5.96600 Y-4.57590
X-5.96600 Y-3.70490
X-5.96500 Y-3.70490
X-5.96500 Y-3.26790
X-5.96600 Y-3.26790
X-5.96600 Y-3.26590
X-5.96700 Y-3.26590
X-5.96700 Y-3.26390
X-8.27700 Y-3.26390
X-8.27700 Y-3.26490
G04 P0 ( dwell for no time -- G64 should not smooth over this point )
G00 Z0.19685 ( retract )

G00 X-7.33900 Y-3.46790 ( rapid move to begin. )
G01 Z-0.00394 F39.37008 ( plunge. )
G04 P0 ( dwell for no time -- G64 should not smooth over this point )
X-7.33900 Y-3.46790
X-7.34500 Y-3.46790
X-7.34500 Y-3.46890
X-7.34800 Y-3.46890
X-7.34800 Y-3.46990
X-7.35000 Y-3.46990
X-7.35000 Y-3.47090
X-7.35200 Y-3.47090
X-7.35200 Y-3.47190
X-7.35300 Y-3.47190
X-7.35300 Y-3.47290
X-7.35500 Y-3.47290
X-7.35500 Y-3.47390
X-7.35600 Y-3.47390
X-7.35600 Y-3.47490
X-7.35700 Y-3.47490
X-7.35700 Y-3.47590
X-7.35800 Y-3.47590
X-7.35800 Y-3.47790
X-7.35900 Y-3.47790
X-7.35900 Y-3.47890
X-7.36000 Y-3.47890
X-7.36000 Y-3.47990
X-7.36100 Y-3.47990
X-7.36100 Y-3.48190
X-7.36200 Y-3.48190
X-7.36200 Y-3.48490
X-7.36300 Y-3.48490
X-7.36300 Y-3.48990
X-7.44500 Y-3.48990
X-7.44500 Y-3.48690
X-7.44600 Y-3.48690
X-7.44600 Y-3.48490
X-7.44700 Y-3.48490
X-7.44700 Y-3.48390
X-7.44800 Y-3.48390
X-7.44800 Y-3.48290
X-7.44900 Y-3.48290
X-7.44900 Y-3.48190
X-7.45000 Y-3.48190
X-7.45000 Y-3.48090
X-7.45200 Y-3.48090
X-7.45200 Y-3.47990
X-7.45400 Y-3.47990
X-7.45400 Y-3.47890
X-7.46600 Y-3.47890
X-7.46600 Y-3.47990
X-7.46800 Y-3.47990
X-7.46800 Y-3.48090
X-7.47000 Y-3.48090
X-7.47000 Y-3.48190
X-7.47100 Y-3.48190
X-7.47100 Y-3.48290
X-7.47200 Y-3.48290
X-7.47200 Y-3.48390
X-7.47300 Y-3.48390
X-7.47300 Y-3.48490
X-7.47400 Y-3.48490
X-7.47400 Y-3.48690
X-7.47500 Y-3.48690
X-7.47500 Y-3.48990
X-7.47600 Y-3.48990
X-7.47600 Y-3.49890
X-7.47500 Y-3.49890
X-7.47500 Y-3.50290
X-7.47400 Y-3.50290
X-7.47400 Y-3.50390
X-7.47300 Y-3.50390
X-7.47300 Y-3.50490
X-7.47200 Y-3.50490
X-7.47200 Y-3.50690
X-7.47100 Y-3.50690
X-7.47100 Y-3.50790
X-7.46900 Y-3.50790
X-7.46900 Y-3.50890
X-7.46700 Y-3.50890
X-7.46700 Y-3.50990
X-7.46400 Y-3.50990
X-7.46400 Y-3.51090
X-7.45600 Y-3.51090
X-7.45600 Y-3.50990
X-7.45300 Y-3.50990
X-7.45300 Y-3.50890
X-7.45100 Y-3.50890
X-7.45100 Y-3.50790
X-7.44900 Y-3.50790
X-7.44900 Y-3.50690
X-7.44800 Y-3.50690
X-7.44800 Y-3.50490
X-7.44700 Y-3.50490
X-7.44700 Y-3.50390
X-7.44600 Y-3.50390
X-7.44600 Y-3.50290
X-7.44500 Y-3.50290
X-7.44500 Y-3.50090
X-7.36300 Y-3.50090
X-7.36300 Y-3.50490
X-7.36200 Y-3.50490
X-7.36200 Y-3.50790
X-7.36100 Y-3.50790
X-7.36100 Y-3.50990
X-7.36000 Y-3.50990
X-7.36000 Y-3.51090
X-7.35900 Y-3.51090
X-7.35900 Y-3.51290
X-7.35800 Y-3.51290
X-7.35800 Y-3.51390
X-7.35700 Y-3.51390
X-7.35700 Y-3.51490
X-7.35600 Y-3.51490
X-7.35600 Y-3.51590
X-7.35500 Y-3.51590
X-7.35500 Y-3.51690
X-7.35400 Y-3.51690
X-7.35400 Y-3.51790
X-7.35200 Y-3.51790
X-7.35200 Y-3.51890
X-7.35000 Y-3.51890
X-7.35000 Y-3.51990
X-7.34800 Y-3.51990
X-7.34800 Y-3.52090
X-7.34600 Y-3.52090
X-7.34600 Y-3.52190
X-7.34000 Y-3.52190
X-7.34000 Y-3.52290
X-7.33200 Y-3.52290
X-7.33200 Y-3.52190
X-7.32700 Y-3.52190
X-7.32700 Y-3.52090
X-7.32400 Y-3.52090
X-7.32400 Y-3.51990
X-7.32300 Y-3.51990
X-7.32300 Y-3.51890
X-7.32100 Y-3.51890
X-7.32100 Y-3.51790
X-7.31900 Y-3.51790
X-7.31900 Y-3.51690
X-7.31700 Y-3.51690
X-7.31700 Y-3.51590
X-7.31600 Y-3.51590
X-7.31600 Y-3.51390
X-7.31500 Y-3.51390
X-7.31500 Y-3.51290
X-7.31400 Y-3.51290
X-7.31400 Y-3.51090
X-7.31300 Y-3.51090
X-7.31300 Y-3.50990
X-7.31200 Y-3.50990
X-7.31200 Y-3.50890
X-7.31100 Y-3.50890
X-7.31100 Y-3.50590
X-7.31000 Y-3.50590
X-7.31000 Y-3.50090
X-7.30900 Y-3.50090
X-7.30900 Y-3.49590
X-7.30800 Y-3.49590
X-7.30800 Y-3.49390
X-7.30900 Y-3.49390
X-7.30900 Y-3.48890
X-7.31000 Y-3.48890
X-7.31000 Y-3.48390
X-7.31100 Y-3.48390
X-7.31100 Y-3.48190
X-7.31200 Y-3.48190
X-7.31200 Y-3.47990
X-7.31300 Y-3.47990
X-7.31300 Y-3.47890
X-7.31400 Y-3.47890
X-7.31400 Y-3.47690
X-7.31500 Y-3.47690
X-7.31500 Y-3.47590
X-7.31600 Y-3.47590
X-7.31600 Y-3.47490
X-7.31700 Y-3.47490
X-7.31700 Y-3.47390
X-7.31800 Y-3.47390
X-7.31800 Y-3.47290
X-7.32000 Y-3.47290
X-7.32000 Y-3.47190
X-7.32100 Y-3.47190
X-7.32100 Y-3.47090
X-7.32300 Y-3.47090
X-7.32300 Y-3.46990
X-7.32500 Y-3.46990
X-7.32500 Y-3.46890
X-7.32800 Y-3.46890
X-7.32800 Y-3.46790
X-7.33400 Y-3.46790
X-7.33400 Y-3.46690
X-7.33900 Y-3.46690
X-7.33900 Y-3.46790
G04 P0 ( dwell for no time -- G64 should not smooth over this point )
G00 Z0.19685 ( retract )

G00 X-7.06500 Y-3.47090 ( rapid move to begin. )
G01 Z-0.00394 F39.37008 ( plunge. )
G04 P0 ( dwell for no time -- G64 should not smooth over this point )
X-7.06500 Y-3.47090
X-7.06500 Y-3.48090
X-7.14700 Y-3.48090
X-7.14700 Y-3.48190
X-7.15200 Y-3.48190
X-7.15200 Y-3.48290
X-7.15300 Y-3.48290
X-7.15300 Y-3.48390
X-7.15500 Y-3.48390
X-7.15500 Y-3.48490
X-7.15700 Y-3.48490
X-7.15700 Y-3.48590
X-7.15800 Y-3.48590
X-7.15800 Y-3.48690
X-7.15900 Y-3.48690
X-7.15900 Y-3.48790
X-7.16000 Y-3.48790
X-7.16000 Y-3.48890
X-7.16100 Y-3.48890
X-7.16100 Y-3.48990
X-7.16200 Y-3.48990
X-7.16200 Y-3.49090
X-7.16300 Y-3.49090
X-7.16300 Y-3.49190
X-7.16400 Y-3.49190
X-7.16400 Y-3.49290
X-7.16500 Y-3.49290
X-7.16500 Y-3.49390
X-7.16600 Y-3.49390
X-7.16600 Y-3.49490
X-7.16700 Y-3.49490
X-7.16700 Y-3.49590
X-7.16800 Y-3.49590
X-7.16800 Y-3.49690
X-7.16900 Y-3.49690
X-7.16900 Y-3.49790
X-7.17000 Y-3.49790
X-7.17000 Y-3.49890
X-7.17100 Y-3.49890
X-7.17100 Y-3.49990
X-7.17200 Y-3.49990
X-7.17200 Y-3.50090
X-7.17300 Y-3.50090
X-7.17300 Y-3.50190
X-7.17400 Y-3.50190
X-7.17400 Y-3.50290
X-7.17500 Y-3.50290
X-7.17500 Y-3.50390
X-7.17600 Y-3.50390
X-7.17600 Y-3.50490
X-7.17700 Y-3.50490
X-7.17700 Y-3.50590
X-7.17800 Y-3.50590
X-7.17800 Y-3.50690
X-7.17900 Y-3.50690
X-7.17900 Y-3.50790
X-7.18000 Y-3.50790
X-7.18000 Y-3.50890
X-7.18100 Y-3.50890
X-7.18100 Y-3.50990
X-7.18200 Y-3.50990
X-7.18200 Y-3.51090
X-7.18300 Y-3.51090
X-7.18300 Y-3.51190
X-7.18400 Y-3.51190
X-7.18400 Y-3.51290
X-7.18500 Y-3.51290
X-7.18500 Y-3.51390
X-7.18600 Y-3.51390
X-7.18600 Y-3.51490
X-7.18700 Y-3.51490
X-7.18700 Y-3.51590
X-7.18800 Y-3.51590
X-7.18800 Y-3.51690
X-7.18900 Y-3.51690
X-7.18900 Y-3.51790
X-7.19000 Y-3.51790
X-7.19000 Y-3.51890
X-7.19100 Y-3.51890
X-7.19100 Y-3.51990
X-7.19200 Y-3.51990
X-7.19200 Y-3.52090
X-7.19300 Y-3.52090
X-7.19300 Y-3.52190
X-7.19400 Y-3.52190
X-7.19400 Y-3.52290
X-7.19500 Y-3.52290
X-7.19500 Y-3.52390
X-7.19600 Y-3.52390
X-7.19600 Y-3.52490
X-7.19700 Y-3.52490
X-7.19700 Y-3.52590
X-7.19800 Y-3.52590
X-7.19800 Y-3.52690
X-7.19900 Y-3.52690
X-7.19900 Y-3.52790
X-7.20000 Y-3.52790
X-7.20000 Y-3.52890
X-7.20100 Y-3.52890
X-7.20100 Y-3.52990
X-7.20200 Y-3.52990
X-7.20200 Y-3.53090
X-7.20300 Y-3.53090
X-7.20300 Y-3.53190
X-7.20400 Y-3.53190
X-7.20400 Y-3.53290
X-7.20500 Y-3.53290
X-7.20500 Y-3.53390
X-7.20600 Y-3.53390
X-7.20600 Y-3.53490
X-7.20700 Y-3.53490
X-7.20700 Y-3.53690
X-7.20800 Y-3.53690
X-7.20800 Y-3.53990
X-7.20900 Y-3.53990
X-7.20900 Y-3.54290
X-7.21000 Y-3.54290
X-7.21000 Y-4.17490
X-7.21100 Y-4.17490
X-7.21100 Y-4.17590
X-7.21200 Y-4.17590
X-7.21200 Y-4.17690
X-7.21300 Y-4.17690
X-7.21300 Y-4.17790
X-7.21400 Y-4.17790
X-7.21400 Y-4.17890
X-7.21500 Y-4.17890
X-7.21500 Y-4.17990
X-7.21600 Y-4.17990
X-7.21600 Y-4.18090
X-7.21700 Y-4.18090
X-7.21700 Y-4.18190
X-7.21800 Y-4.18190
X-7.21800 Y-4.18290
X-7.21900 Y-4.18290
X-7.21900 Y-4.18390
X-7.22000 Y-4.18390
X-7.22000 Y-4.18490
X-7.22100 Y-4.18490
X-7.22100 Y-4.18590
X-7.22200 Y-4.18590
X-7.22200 Y-4.18690
X-7.22300 Y-4.18690
X-7.22300 Y-4.18790
X-7.22400 Y-4.18790
X-7.22400 Y-4.18890
X-7.22500 Y-4.18890
X-7.22500 Y-4.18990
X-7.22600 Y-4.18990
X-7.22600 Y-4.19090
X-7.22700 Y-4.19090
X-7.22700 Y-4.19190
X-7.22800 Y-4.19190
X-7.22800 Y-4.19290
X-7.22900 Y-4.19290
X-7.22900 Y-4.19390
X-7.23000 Y-4.19390
X-7.23000 Y-4.19490
X-7.23100 Y-4.19490
X-7.23100 Y-4.19590
X-7.23200 Y-4.19590
X-7.23200 Y-4.19690
X-7.23300 Y-4.19690
X-7.23300 Y-4.19790
X-7.23400 Y-4.19790
X-7.23400 Y-4.19890
X-7.23500 Y-4.19890
X-7.23500 Y-4.19990
X-7.23600 Y-4.19990
X-7.23600 Y-4.20090
X-7.23700 Y-4.20090
X-7.23700 Y-4.20190
X-7.23800 Y-4.20190
X-7.23800 Y-4.20290
X-7.23900 Y-4.20290
X-7.23900 Y-4.20390
X-7.24000 Y-4.20390
X-7.24000 Y-4.20490
X-7.24100 Y-4.20490
X-7.24100 Y-4.20590
X-7.24200 Y-4.20590
X-7.24200 Y-4.20690
X-7.24300 Y-4.20690
X-7.24300 Y-4.20790
X-7.24400 Y-4.20790
X-7.24400 Y-4.20890
X-7.24500 Y-4.20890
X-7.24500 Y-4.20990
X-7.24600 Y-4.20990
X-7.24600 Y-4.21090
X-7.24700 Y-4.21090
X-7.24700 Y-4.21190
X-7.24800 Y-4.21190
X-7.24800 Y-4.21290
X-7.24900 Y-4.21290
X-7.24900 Y-4.21390
X-7.25000 Y-4.21390
X-7.25000 Y-4.21490
X-7.25100 Y-4.21490
X-7.25100 Y-4.21590
X-7.25200 Y-4.21590
X-7.25200 Y-4.21690
X-7.25300 Y-4.21690
X-7.25300 Y-4.21790
X-7.25400 Y-4.21790
X-7.25400 Y-4.21890
X-7.25500 Y-4.21890
X-7.25500 Y-4.21990
X-7.25600 Y-4.21990
X-7.25600 Y-4.22090
X-7.25700 Y-4.22090
X-7.25700 Y-4.22190
X-7.25800 Y-4.22190
X-7.25800 Y-4.22290
X-7.25900 Y-4.22290
X-7.25900 Y-4.22390
X-7.26000 Y-4.22390
X-7.26000 Y-4.22490
X-7.26100 Y-4.22490
X-7.26100 Y-4.22590
X-7.26200 Y-4.22590
X-7.26200 Y-4.22690
X-7.26300 Y-4.22690
X-7.26300 Y-4.22790
X-7.26400 Y-4.22790
X-7.26400 Y-4.22890
X-7.26500 Y-4.22890
X-7.26500 Y-4.22990
X-7.26600 Y-4.22990
X-7.26600 Y-4.23090
X-7.26700 Y-4.23090
X-7.26700 Y-4.23190
X-7.26800 Y-4.23190
X-7.26800 Y-4.23290
X-7.26900 Y-4.23290
X-7.26900 Y-4.23390
X-7.27000 Y-4.23390
X-7.27000 Y-4.23490
X-7.27100 Y-4.23490
X-7.27100 Y-4.23590
X-7.27200 Y-4.23590
X-7.27200 Y-4.23690
X-7.27300 Y-4.23690
X-7.27300 Y-4.23790
X-7.27400 Y-4.23790
X-7.27400 Y-4.23890
X-7.27500 Y-4.23890
X-7.27500 Y-4.23990
X-7.27600 Y-4.23990
X-7.27600 Y-4.24090
X-7.27700 Y-4.24090
X-7.27700 Y-4.24190
X-7.27800 Y-4.24190
X-7.27800 Y-4.24290
X-7.27900 Y-4.24290
X-7.27900 Y-4.24390
X-7.28000 Y-4.24390
X-7.28000 Y-4.24490
X-7.28100 Y-4.24490
X-7.28100 Y-4.24590
X-7.28200 Y-4.24590
X-7.28200 Y-4.24690
X-7.28300 Y-4.24690
X-7.28300 Y-4.24790
X-7.28400 Y-4.24790
X-7.28400 Y-4.24890
X-7.28500 Y-4.24890
X-7.28500 Y-4.24990
X-7.28600 Y-4.24990
X-7.28600 Y-4.25090
X-7.28700 Y-4.25090
X-7.28700 Y-4.25190
X-7.28800 Y-4.25190
X-7.28800 Y-4.25290
X-7.28900 Y-4.25290
X-7.28900 Y-4.25390
X-7.29000 Y-4.25390
X-7.29000 Y-4.25490
X-7.29100 Y-4.25490
X-7.29100 Y-4.25590
X-7.29200 Y-4.25590
X-7.29200 Y-4.25690
X-7.29300 Y-4.25690
X-7.29300 Y-4.25790
X-7.29400 Y-4.25790
X-7.29400 Y-4.25890
X-7.29500 Y-4.25890
X-7.29500 Y-4.25990
X-7.29600 Y-4.25990
X-7.29600 Y-4.26090
X-7.29700 Y-4.26090
X-7.29700 Y-4.26190
X-7.29800 Y-4.26190
X-7.29800 Y-4.26290
X-7.29900 Y-4.26290
X-7.29900 Y-4.26390
X-7.30000 Y-4.26390
X-7.30000 Y-4.26490
X-7.30100 Y-4.26490
X-7.30100 Y-4.26590
X-7.30200 Y-4.26590
X-7.30200 Y-4.26690
X-7.30300 Y-4.26690
X-7.30300 Y-4.26790
X-7.30400 Y-4.26790
X-7.30400 Y-4.26890
X-7.30500 Y-4.26890
X-7.30500 Y-4.26990
X-7.30600 Y-4.26990
X-7.30600 Y-4.27090
X-7.30700 Y-4.27090
X-7.30700 Y-4.27190
X-7.30800 Y-4.27190
X-7.30800 Y-4.27290
X-7.30900 Y-4.27290
X-7.30900 Y-4.27390
X-7.31000 Y-4.27390
X-7.31000 Y-4.27490
X-7.31100 Y-4.27490
X-7.31100 Y-4.27590
X-7.31200 Y-4.27590
X-7.31200 Y-4.27690
X-7.31300 Y-4.27690
X-7.31300 Y-4.27790
X-7.31400 Y-4.27790
X-7.31400 Y-4.27790
X-7.31500 Y-4.27790
X-7.31500 Y-4.27690
X-7.31600 Y-4.27690
X-7.31600 Y-4.27590
X-7.31700 Y-4.27590
X-7.31700 Y-4.27390
X-7.31900 Y-4.27390
X-7.31900 Y-4.27290
X-7.32100 Y-4.27290
X-7.32100 Y-4.27190
X-7.32200 Y-4.27190
X-7.32200 Y-4.27090
X-7.32400 Y-4.27090
X-7.32400 Y-4.26990
X-7.32600 Y-4.26990
X-7.32600 Y-4.26890
X-7.33000 Y-4.26890
X-7.33000 Y-4.26790
X-7.34300 Y-4.26790
X-7.34300 Y-4.26890
X-7.34800 Y-4.26890
X-7.34800 Y-4.26990
X-7.35000 Y-4.26990
X-7.35000 Y-4.27090
X-7.35100 Y-4.27090
X-7.35100 Y-4.27190
X-7.35300 Y-4.27190
X-7.35300 Y-4.27290
X-7.35500 Y-4.27290
X-7.35500 Y-4.27390
X-7.35600 Y-4.27390
X-7.35600 Y-4.27490
X-7.45800 Y-4.27490
X-7.45800 Y-4.27390
X-7.45900 Y-4.27390
X-7.45900 Y-4.27290
X-7.46000 Y-4.27290
X-7.46000 Y-4.27190
X-7.46200 Y-4.27190
X-7.46200 Y-4.27090
X-7.46300 Y-4.27090
X-7.46300 Y-4.26990
X-7.47700 Y-4.26990
X-7.47700 Y-4.27090
X-7.47800 Y-4.27090
X-7.47800 Y-4.27190
X-7.47900 Y-4.27190
X-7.47900 Y-4.27290
X-7.48100 Y-4.27290
X-7.48100 Y-4.27390
X-7.48200 Y-4.27390
X-7.48200 Y-4.27490
X-7.48300 Y-4.27490
X-7.48300 Y-4.27590
X-7.48500 Y-4.27590
X-7.48500 Y-4.27690
X-7.48600 Y-4.27690
X-7.48600 Y-4.27790
X-7.48700 Y-4.27790
X-7.48700 Y-4.28090
X-7.48800 Y-4.28090
X-7.48800 Y-4.28390
X-7.48900 Y-4.28390
X-7.48900 Y-4.28790
X-7.49000 Y-4.28790
X-7.49000 Y-4.29090
X-7.48900 Y-4.29090
X-7.48900 Y-4.29390
X-7.48800 Y-4.29390
X-7.48800 Y-4.29590
X-7.48700 Y-4.29590
X-7.48700 Y-4.29890
X-7.48600 Y-4.29890
X-7.48600 Y-4.30090
X-7.48500 Y-4.30090
X-7.48500 Y-4.30290
X-7.48400 Y-4.30290
X-7.48400 Y-4.30490
X-7.48300 Y-4.30490
X-7.48300 Y-4.30590
X-7.48200 Y-4.30590
X-7.48200 Y-4.30690
X-7.48100 Y-4.30690
X-7.48100 Y-4.30790
X-7.48000 Y-4.30790
X-7.48000 Y-4.30890
X-7.47900 Y-4.30890
X-7.47900 Y-4.30990
X-7.47600 Y-4.30990
X-7.47600 Y-4.31090
X-7.47500 Y-4.31090
X-7.47500 Y-4.31190
X-7.47400 Y-4.31190
X-7.47400 Y-4.31290
X-7.47200 Y-4.31290
X-7.47200 Y-4.31390
X-7.47100 Y-4.31390
X-7.47100 Y-4.31490
X-7.46600 Y-4.31490
X-7.46600 Y-4.31590
X-7.35600 Y-4.31590
X-7.35600 Y-4.31690
X-7.35500 Y-4.31690
X-7.35500 Y-4.31790
X-7.35300 Y-4.31790
X-7.35300 Y-4.31890
X-7.35100 Y-4.31890
X-7.35100 Y-4.31990
X-7.35000 Y-4.31990
X-7.35000 Y-4.32090
X-7.34800 Y-4.32090
X-7.34800 Y-4.32190
X-7.34300 Y-4.32190
X-7.34300 Y-4.32290
X-7.33000 Y-4.32290
X-7.33000 Y-4.32190
X-7.32600 Y-4.32190
X-7.32600 Y-4.32090
X-7.32400 Y-4.32090
X-7.32400 Y-4.31990
X-7.32200 Y-4.31990
X-7.32200 Y-4.31890
X-7.32100 Y-4.31890
X-7.32100 Y-4.31790
X-7.31900 Y-4.31790
X-7.31900 Y-4.31690
X-7.31700 Y-4.31690
X-7.31700 Y-4.31490
X-7.31600 Y-4.31490
X-7.31600 Y-4.31390
X-7.31500 Y-4.31390
X-7.31500 Y-4.31290
X-7.31400 Y-4.31290
X-7.31400 Y-4.31190
X-7.30600 Y-4.31190
X-7.30600 Y-4.31090
X-7.30200 Y-4.31090
X-7.30200 Y-4.30990
X-7.30000 Y-4.30990
X-7.30000 Y-4.30890
X-7.29800 Y-4.30890
X-7.29800 Y-4.30790
X-7.29700 Y-4.30790
X-7.29700 Y-4.30690
X-7.29500 Y-4.30690
X-7.29500 Y-4.30590
X-7.29400 Y-4.30590
X-7.29400 Y-4.30490
X-7.29300 Y-4.30490
X-7.29300 Y-4.30390
X-7.29200 Y-4.30390
X-7.29200 Y-4.30290
X-7.29100 Y-4.30290
X-7.29100 Y-4.30190
X-7.29000 Y-4.30190
X-7.29000 Y-4.30090
X-7.28900 Y-4.30090
X-7.28900 Y-4.29990
X-7.28800 Y-4.29990
X-7.28800 Y-4.29890
X-7.28700 Y-4.29890
X-7.28700 Y-4.29790
X-7.28600 Y-4.29790
X-7.28600 Y-4.29690
X-7.28500 Y-4.29690
X-7.28500 Y-4.29590
X-7.28400 Y-4.29590
X-7.28400 Y-4.29490
X-7.28300 Y-4.29490
X-7.28300 Y-4.29390
X-7.28200 Y-4.29390
X-7.28200 Y-4.29290
X-7.28100 Y-4.29290
X-7.28100 Y-4.29190
X-7.28000 Y-4.29190
X-7.28000 Y-4.29090
X-7.27900 Y-4.29090
X-7.27900 Y-4.28990
X-7.27800 Y-4.28990
X-7.27800 Y-4.28890
X-7.27700 Y-4.28890
X-7.27700 Y-4.28790
X-7.27600 Y-4.28790
X-7.27600 Y-4.28690
X-7.27500 Y-4.28690
X-7.27500 Y-4.28590
X-7.27400 Y-4.28590
X-7.27400 Y-4.28490
X-7.27300 Y-4.28490
X-7.27300 Y-4.28390
X-7.27200 Y-4.28390
X-7.27200 Y-4.28290
X-7.27100 Y-4.28290
X-7.27100 Y-4.28190
X-7.27000 Y-4.28190
X-7.27000 Y-4.28090
X-7.26900 Y-4.28090
X-7.26900 Y-4.27990
X-7.26800 Y-4.27990
X-7.26800 Y-4.27890
X-7.26700 Y-4.27890
X-7.26700 Y-4.27790
X-7.26600 Y-4.27790
X-7.26600 Y-4.27690
X-7.26500 Y-4.27690
X-7.26500 Y-4.27590
X-7.26400 Y-4.27590
X-7.26400 Y-4.27490
X-7.26300 Y-4.27490
X-7.26300 Y-4.27390
X-7.26200 Y-4.27390
X-7.26200 Y-4.27290
X-7.26100 Y-4.27290
X-7.26100 Y-4.27190
X-7.26000 Y-4.27190
X-7.26000 Y-4.27090
X-7.25900 Y-4.27090
X-7.25900 Y-4.26990
X-7.25800 Y-4.26990
X-7.25800 Y-4.26890
X-7.25700 Y-4.26890
X-7.25700 Y-4.26790
X-7.25600 Y-4.26790
X-7.25600 Y-4.26690
X-7.25500 Y-4.26690
X-7.25500 Y-4.26590
X-7.25400 Y-4.26590
X-7.25400 Y-4.26490
X-7.25300 Y-4.26490
X-7.25300 Y-4.26390
X-7.25200 Y-4.26390
X-7.25200 Y-4.26290
X-7.25100 Y-4.26290
X-7.25100 Y-4.26190
X-7.25000 Y-4.26190
X-7.25000 Y-4.26090
X-7.24900 Y-4.26090
X-7.24900 Y-4.25990
X-7.24800 Y-4.25990
X-7.24800 Y-4.25890
X-7.24700 Y-4.25890
X-7.24700 Y-4.25790
X-7.24600 Y-4.25790
X-7.24600 Y-4.25690
X-7.24500 Y-4.25690
X-7.24500 Y-4.25590
X-7.24400 Y-4.25590
X-7.24400 Y-4.25490
X-7.24300 Y-4.25490
X-7.24300 Y-4.25390
X-7.24200 Y-4.25390
X-7.24200 Y-4.25290
X-7.24100 Y-4.25290
X-7.24100 Y-4.25190
X-7.24000 Y-4.25190
X-7.24000 Y-4.25090
X-7.23900 Y-4.25090
X-7.23900 Y-4.24990
X-7.23800 Y-4.24990
X-7.23800 Y-4.24890
X-7.23700 Y-4.24890
X-7.23700 Y-4.24790
X-7.23600 Y-4.24790
X-7.23600 Y-4.24690
X-7.23500 Y-4.24690
X-7.23500 Y-4.24590
X-7.23400 Y-4.24590
X-7.23400 Y-4.24490
X-7.23300 Y-4.24490
X-7.23300 Y-4.24390
X-7.23200 Y-4.24390
X-7.23200 Y-4.24290
X-7.23100 Y-4.24290
X-7.23100 Y-4.24190
X-7.23000 Y-4.24190
X-7.23000 Y-4.24090
X-7.22900 Y-4.24090
X-7.22900 Y-4.23990
X-7.22800 Y-4.23990
X-7.22800 Y-4.23890
X-7.22700 Y-4.23890
X-7.22700 Y-4.23790
X-7.22600 Y-4.23790
X-7.22600 Y-4.23690
X-7.22500 Y-4.23690
X-7.22500 Y-4.23590
X-7.22400 Y-4.23590
X-7.22400 Y-4.23490
X-7.22300 Y-4.23490
X-7.22300 Y-4.23390
X-7.22200 Y-4.23390
X-7.22200 Y-4.23290
X-7.22100 Y-4.23290
X-7.22100 Y-4.23190
X-7.22000 Y-4.23190
X-7.22000 Y-4.23090
X-7.21900 Y-4.23090
X-7.21900 Y-4.22990
X-7.21800 Y-4.22990
X-7.21800 Y-4.22890
X-7.21700 Y-4.22890
X-7.21700 Y-4.22790
X-7.21600 Y-4.22790
X-7.21600 Y-4.22690
X-7.21500 Y-4.22690
X-7.21500 Y-4.22590
X-7.21400 Y-4.22590
X-7.21400 Y-4.22490
X-7.21300 Y-4.22490
X-7.21300 Y-4.22390
X-7.21200 Y-4.22390
X-7.21200 Y-4.22290
X-7.21100 Y-4.22290
X-7.21100 Y-4.22190
X-7.21000 Y-4.22190
X-7.21000 Y-4.22090
X-7.20900 Y-4.22090
X-7.20900 Y-4.21990
X-7.20800 Y-4.21990
X-7.20800 Y-4.21890
X-7.20700 Y-4.21890
X-7.20700 Y-4.21790
X-7.20600 Y-4.21790
X-7.20600 Y-4.21690
X-7.20500 Y-4.21690
X-7.20500 Y-4.21590
X-7.20400 Y-4.21590
X-7.20400 Y-4.21490
X-7.20300 Y-4.21490
X-7.20300 Y-4.21390
X-7.20200 Y-4.21390
X-7.20200 Y-4.21290
X-7.20100 Y-4.21290
X-7.20100 Y-4.21190
X-7.20000 Y-4.21190
X-7.20000 Y-4.21090
X-7.19900 Y-4.21090
X-7.19900 Y-4.20990
X-7.19800 Y-4.20990
X-7.19800 Y-4.20890
X-7.19700 Y-4.20890
X-7.19700 Y-4.20790
X-7.19600 Y-4.20790
X-7.19600 Y-4.20690
X-7.19500 Y-4.20690
X-7.19500 Y-4.20590
X-7.19400 Y-4.20590
X-7.19400 Y-4.20490
X-7.19300 Y-4.20490
X-7.19300 Y-4.20390
X-7.19200 Y-4.20390
X-7.19200 Y-4.20290
X-7.19100 Y-4.20290
X-7.19100 Y-4.20190
X-7.19000 Y-4.20190
X-7.19000 Y-4.20090
X-7.18900 Y-4.20090
X-7.18900 Y-4.19990
X-7.18800 Y-4.19990
X-7.18800 Y-4.19890
X-7.18700 Y-4.19890
X-7.18700 Y-4.19790
X-7.18600 Y-4.19790
X-7.18600 Y-4.19690
X-7.18500 Y-4.19690
X-7.18500 Y-4.19590
X-7.18400 Y-4.19590
X-7.18400 Y-4.19490
X-7.18300 Y-4.19490
X-7.18300 Y-4.19390
X-7.18200 Y-4.19390
X-7.18200 Y-4.19190
X-7.18100 Y-4.19190
X-7.18100 Y-4.19090
X-7.18000 Y-4.19090
X-7.18000 Y-4.18790
X-7.17900 Y-4.18790
X-7.17900 Y-4.18490
X-7.17800 Y-4.18490
X-7.17800 Y-3.55290
X-7.17700 Y-3.55290
X-7.17700 Y-3.55190
X-7.17600 Y-3.55190
X-7.17600 Y-3.55090
X-7.17500 Y-3.55090
X-7.17500 Y-3.54990
X-7.17400 Y-3.54990
X-7.17400 Y-3.54890
X-7.17300 Y-3.54890
X-7.17300 Y-3.54790
X-7.17200 Y-3.54790
X-7.17200 Y-3.54690
X-7.17100 Y-3.54690
X-7.17100 Y-3.54590
X-7.17000 Y-3.54590
X-7.17000 Y-3.54490
X-7.16900 Y-3.54490
X-7.16900 Y-3.54390
X-7.16800 Y-3.54390
X-7.16800 Y-3.54290
X-7.16700 Y-3.54290
X-7.16700 Y-3.54190
X-7.16600 Y-3.54190
X-7.16600 Y-3.54090
X-7.16500 Y-3.54090
X-7.16500 Y-3.53990
X-7.16400 Y-3.53990
X-7.16400 Y-3.53890
X-7.16300 Y-3.53890
X-7.16300 Y-3.53790
X-7.16200 Y-3.53790
X-7.16200 Y-3.53690
X-7.16100 Y-3.53690
X-7.16100 Y-3.53590
X-7.16000 Y-3.53590
X-7.16000 Y-3.53490
X-7.15900 Y-3.53490
X-7.15900 Y-3.53390
X-7.15800 Y-3.53390
X-7.15800 Y-3.53290
X-7.15700 Y-3.53290
X-7.15700 Y-3.53190
X-7.15600 Y-3.53190
X-7.15600 Y-3.53090
X-7.15500 Y-3.53090
X-7.15500 Y-3.52990
X-7.15400 Y-3.52990
X-7.15400 Y-3.52890
X-7.15300 Y-3.52890
X-7.15300 Y-3.52790
X-7.15200 Y-3.52790
X-7.15200 Y-3.52690
X-7.15100 Y-3.52690
X-7.15100 Y-3.52590
X-7.15000 Y-3.52590
X-7.15000 Y-3.52490
X-7.14900 Y-3.52490
X-7.14900 Y-3.52390
X-7.14800 Y-3.52390
X-7.14800 Y-3.52290
X-7.14700 Y-3.52290
X-7.14700 Y-3.52190
X-7.14600 Y-3.52190
X-7.14600 Y-3.52090
X-7.14500 Y-3.52090
X-7.14500 Y-3.51990
X-7.14400 Y-3.51990
X-7.14400 Y-3.51890
X-7.14300 Y-3.51890
X-7.14300 Y-3.51790
X-7.14200 Y-3.51790
X-7.14200 Y-3.51690
X-7.14100 Y-3.51690
X-7.14100 Y-3.51590
X-7.14000 Y-3.51590
X-7.14000 Y-3.51490
X-7.13900 Y-3.51490
X-7.13900 Y-3.51390
X-7.06500 Y-3.51390
X-7.06500 Y-3.52590
X-7.00900 Y-3.52590
X-7.00900 Y-3.51790
X-6.53600 Y-3.51790
X-6.53600 Y-3.51690
X-6.53200 Y-3.51690
X-6.53200 Y-3.51590
X-6.53000 Y-3.51590
X-6.53000 Y-3.51490
X-6.52800 Y-3.51490
X-6.52800 Y-3.51390
X-6.52700 Y-3.51390
X-6.52700 Y-3.51290
X-6.52500 Y-3.51290
X-6.52500 Y-3.51190
X-6.52400 Y-3.51190
X-6.52400 Y-3.51090
X-6.52300 Y-3.51090
X-6.52300 Y-3.50990
X-6.52200 Y-3.50990
X-6.52200 Y-3.50690
X-6.52100 Y-3.50690
X-6.52100 Y-3.50390
X-6.52000 Y-3.50390
X-6.52000 Y-3.50090
X-6.51900 Y-3.50090
X-6.51900 Y-3.49390
X-6.52000 Y-3.49390
X-6.52000 Y-3.49090
X-6.52100 Y-3.49090
X-6.52100 Y-3.48790
X-6.52200 Y-3.48790
X-6.52200 Y-3.48490
X-6.52400 Y-3.48490
X-6.52400 Y-3.48390
X-6.52500 Y-3.48390
X-6.52500 Y-3.48290
X-6.52700 Y-3.48290
X-6.52700 Y-3.48190
X-6.52800 Y-3.48190
X-6.52800 Y-3.48090
X-6.52900 Y-3.48090
X-6.52900 Y-3.47990
X-6.53100 Y-3.47990
X-6.53100 Y-3.47890
X-6.53200 Y-3.47890
X-6.53200 Y-3.47790
X-7.00900 Y-3.47790
X-7.00900 Y-3.46990
X-7.06500 Y-3.46990
X-7.06500 Y-3.47090
G04 P0 ( dwell for no time -- G64 should not smooth over this point )
G00 Z0.19685 ( retract )

G00 X-7.91700 Y-3.51390 ( rapid move to begin. )
G01 Z-0.00394 F39.37008 ( plunge. )
G04 P0 ( dwell for no time -- G64 should not smooth over this point )
X-7.91700 Y-3.51390
X-7.92000 Y-3.51390
X-7.92000 Y-3.51490
X-7.92100 Y-3.51490
X-7.92100 Y-3.51590
X-7.92300 Y-3.51590
X-7.92300 Y-3.51690
X-7.92400 Y-3.51690
X-7.92400 Y-3.51790
X-7.92500 Y-3.51790
X-7.92500 Y-3.51990
X-8.07500 Y-3.51990
X-8.07500 Y-3.52090
X-8.07600 Y-3.52090
X-8.07600 Y-3.52190
X-8.07700 Y-3.52190
X-8.07700 Y-3.52290
X-8.07800 Y-3.52290
X-8.07800 Y-3.52390
X-8.07900 Y-3.52390
X-8.07900 Y-3.52490
X-8.08000 Y-3.52490
X-8.08000 Y-3.52590
X-8.08100 Y-3.52590
X-8.08100 Y-3.52690
X-8.08200 Y-3.52690
X-8.08200 Y-3.52790
X-8.08300 Y-3.52790
X-8.08300 Y-3.52890
X-8.08400 Y-3.52890
X-8.08400 Y-3.52990
X-8.08500 Y-3.52990
X-8.08500 Y-3.53090
X-8.08600 Y-3.53090
X-8.08600 Y-3.53190
X-8.08700 Y-3.53190
X-8.08700 Y-3.53290
X-8.08800 Y-3.53290
X-8.08800 Y-3.53390
X-8.08900 Y-3.53390
X-8.08900 Y-3.53490
X-8.09000 Y-3.53490
X-8.09000 Y-3.53590
X-8.09100 Y-3.53590
X-8.09100 Y-3.53690
X-8.09200 Y-3.53690
X-8.09200 Y-3.53790
X-8.09300 Y-3.53790
X-8.09300 Y-3.53890
X-8.09400 Y-3.53890
X-8.09400 Y-3.53990
X-8.09500 Y-3.53990
X-8.09500 Y-3.54090
X-8.09600 Y-3.54090
X-8.09600 Y-3.54190
X-8.09700 Y-3.54190
X-8.09700 Y-3.54290
X-8.09800 Y-3.54290
X-8.09800 Y-3.54390
X-8.09900 Y-3.54390
X-8.09900 Y-3.54490
X-8.10000 Y-3.54490
X-8.10000 Y-3.54590
X-8.10100 Y-3.54590
X-8.10100 Y-3.54690
X-8.10200 Y-3.54690
X-8.10200 Y-3.54790
X-8.10300 Y-3.54790
X-8.10300 Y-3.54890
X-8.10400 Y-3.54890
X-8.10400 Y-3.54990
X-8.10500 Y-3.54990
X-8.10500 Y-3.55090
X-8.10600 Y-3.55090
X-8.10600 Y-3.55190
X-8.10700 Y-3.55190
X-8.10700 Y-3.55290
X-8.10800 Y-3.55290
X-8.10800 Y-3.55390
X-8.10900 Y-3.55390
X-8.10900 Y-3.55490
X-8.11000 Y-3.55490
X-8.11000 Y-3.55590
X-8.11100 Y-3.55590
X-8.11100 Y-3.55690
X-8.11200 Y-3.55690
X-8.11200 Y-3.55790
X-8.11300 Y-3.55790
X-8.11300 Y-3.55890
X-8.11400 Y-3.55890
X-8.11400 Y-3.55990
X-8.11500 Y-3.55990
X-8.11500 Y-3.56090
X-8.11600 Y-3.56090
X-8.11600 Y-3.56190
X-8.11700 Y-3.56190
X-8.11700 Y-3.56290
X-8.11800 Y-3.56290
X-8.11800 Y-3.56490
X-8.11900 Y-3.56490
X-8.11900 Y-3.58690
X-8.12000 Y-3.58690
X-8.12000 Y-3.58790
X-8.12500 Y-3.58790
X-8.12500 Y-3.58890
X-8.12700 Y-3.58890
X-8.12700 Y-3.58990
X-8.12900 Y-3.58990
X-8.12900 Y-3.59090
X-8.13000 Y-3.59090
X-8.13000 Y-3.59190
X-8.13200 Y-3.59190
X-8.13200 Y-3.59290
X-8.13400 Y-3.59290
X-8.13400 Y-3.59390
X-8.13500 Y-3.59390
X-8.13500 Y-3.59490
X-8.13600 Y-3.59490
X-8.13600 Y-3.59590
X-8.13700 Y-3.59590
X-8.13700 Y-3.59790
X-8.13800 Y-3.59790
X-8.13800 Y-3.59890
X-8.13900 Y-3.59890
X-8.13900 Y-3.59990
X-8.14000 Y-3.59990
X-8.14000 Y-3.60190
X-8.14100 Y-3.60190
X-8.14100 Y-3.60290
X-8.14200 Y-3.60290
X-8.14200 Y-3.60690
X-8.14300 Y-3.60690
X-8.14300 Y-3.61290
X-8.14400 Y-3.61290
X-8.14400 Y-3.62190
X-8.14300 Y-3.62190
X-8.14300 Y-3.62690
X-8.14200 Y-3.62690
X-8.14200 Y-3.63090
X-8.14100 Y-3.63090
X-8.14100 Y-3.63190
X-8.14000 Y-3.63190
X-8.14000 Y-3.63390
X-8.13900 Y-3.63390
X-8.13900 Y-3.63490
X-8.13800 Y-3.63490
X-8.13800 Y-3.63690
X-8.13700 Y-3.63690
X-8.13700 Y-3.63790
X-8.13600 Y-3.63790
X-8.13600 Y-3.63890
X-8.13500 Y-3.63890
X-8.13500 Y-3.63990
X-8.13400 Y-3.63990
X-8.13400 Y-3.64090
X-8.13300 Y-3.64090
X-8.13300 Y-3.64190
X-8.13100 Y-3.64190
X-8.13100 Y-3.64290
X-8.12900 Y-3.64290
X-8.12900 Y-3.64390
X-8.12700 Y-3.64390
X-8.12700 Y-3.64490
X-8.12600 Y-3.64490
X-8.12600 Y-3.64590
X-8.12100 Y-3.64590
X-8.12100 Y-3.64690
X-8.11500 Y-3.64690
X-8.11500 Y-3.64790
X-8.11300 Y-3.64790
X-8.11300 Y-3.64690
X-8.10700 Y-3.64690
X-8.10700 Y-3.64590
X-8.10200 Y-3.64590
X-8.10200 Y-3.64490
X-8.10000 Y-3.64490
X-8.10000 Y-3.64390
X-8.09800 Y-3.64390
X-8.09800 Y-3.64290
X-8.09700 Y-3.64290
X-8.09700 Y-3.64190
X-8.09500 Y-3.64190
X-8.09500 Y-3.64090
X-8.09300 Y-3.64090
X-8.09300 Y-3.63990
X-8.09200 Y-3.63990
X-8.09200 Y-3.63790
X-8.09100 Y-3.63790
X-8.09100 Y-3.63690
X-8.09000 Y-3.63690
X-8.09000 Y-3.63590
X-8.08900 Y-3.63590
X-8.08900 Y-3.63390
X-8.08800 Y-3.63390
X-8.08800 Y-3.63290
X-8.08700 Y-3.63290
X-8.08700 Y-3.63190
X-8.08600 Y-3.63190
X-8.08600 Y-3.62890
X-8.08500 Y-3.62890
X-8.08500 Y-3.62390
X-8.08400 Y-3.62390
X-8.08400 Y-3.61890
X-8.08300 Y-3.61890
X-8.08300 Y-3.61590
X-8.08400 Y-3.61590
X-8.08400 Y-3.60990
X-8.08500 Y-3.60990
X-8.08500 Y-3.60490
X-8.08600 Y-3.60490
X-8.08600 Y-3.60290
X-8.08700 Y-3.60290
X-8.08700 Y-3.60090
X-8.08800 Y-3.60090
X-8.08800 Y-3.59990
X-8.08900 Y-3.59990
X-8.08900 Y-3.59790
X-8.09000 Y-3.59790
X-8.09000 Y-3.59690
X-8.09100 Y-3.59690
X-8.09100 Y-3.59590
X-8.09200 Y-3.59590
X-8.09200 Y-3.59390
X-8.09400 Y-3.59390
X-8.09400 Y-3.59290
X-8.09500 Y-3.59290
X-8.09500 Y-3.59190
X-8.09700 Y-3.59190
X-8.09700 Y-3.59090
X-8.09900 Y-3.59090
X-8.09900 Y-3.58990
X-8.10100 Y-3.58990
X-8.10100 Y-3.58890
X-8.10200 Y-3.58890
X-8.10200 Y-3.58790
X-8.10800 Y-3.58790
X-8.10800 Y-3.56890
X-8.10700 Y-3.56890
X-8.10700 Y-3.56790
X-8.10600 Y-3.56790
X-8.10600 Y-3.56690
X-8.10500 Y-3.56690
X-8.10500 Y-3.56590
X-8.10400 Y-3.56590
X-8.10400 Y-3.56490
X-8.10300 Y-3.56490
X-8.10300 Y-3.56390
X-8.10200 Y-3.56390
X-8.10200 Y-3.56290
X-8.10100 Y-3.56290
X-8.10100 Y-3.56190
X-8.10000 Y-3.56190
X-8.10000 Y-3.56090
X-8.09900 Y-3.56090
X-8.09900 Y-3.55990
X-8.09800 Y-3.55990
X-8.09800 Y-3.55890
X-8.09700 Y-3.55890
X-8.09700 Y-3.55790
X-8.09600 Y-3.55790
X-8.09600 Y-3.55690
X-8.09500 Y-3.55690
X-8.09500 Y-3.55590
X-8.09400 Y-3.55590
X-8.09400 Y-3.55490
X-8.09300 Y-3.55490
X-8.09300 Y-3.55390
X-8.09200 Y-3.55390
X-8.09200 Y-3.55290
X-8.09100 Y-3.55290
X-8.09100 Y-3.55190
X-8.09000 Y-3.55190
X-8.09000 Y-3.55090
X-8.08900 Y-3.55090
X-8.08900 Y-3.54990
X-8.08800 Y-3.54990
X-8.08800 Y-3.54890
X-8.08700 Y-3.54890
X-8.08700 Y-3.54790
X-8.08600 Y-3.54790
X-8.08600 Y-3.54690
X-8.08500 Y-3.54690
X-8.08500 Y-3.54590
X-8.08400 Y-3.54590
X-8.08400 Y-3.54490
X-8.08300 Y-3.54490
X-8.08300 Y-3.54390
X-8.08200 Y-3.54390
X-8.08200 Y-3.54290
X-8.08100 Y-3.54290
X-8.08100 Y-3.54190
X-8.08000 Y-3.54190
X-8.08000 Y-3.54090
X-8.07900 Y-3.54090
X-8.07900 Y-3.53990
X-8.07800 Y-3.53990
X-8.07800 Y-3.53890
X-8.07700 Y-3.53890
X-8.07700 Y-3.53790
X-8.07600 Y-3.53790
X-8.07600 Y-3.53690
X-8.07500 Y-3.53690
X-8.07500 Y-3.53590
X-8.07400 Y-3.53590
X-8.07400 Y-3.53490
X-8.07300 Y-3.53490
X-8.07300 Y-3.53390
X-8.07200 Y-3.53390
X-8.07200 Y-3.53290
X-8.07100 Y-3.53290
X-8.07100 Y-3.53190
X-8.07000 Y-3.53190
X-8.07000 Y-3.53090
X-8.06900 Y-3.53090
X-8.06900 Y-3.52990
X-7.92800 Y-3.52990
X-7.92800 Y-3.53390
X-7.92700 Y-3.53390
X-7.92700 Y-3.53690
X-7.92600 Y-3.53690
X-7.92600 Y-3.53890
X-7.92500 Y-3.53890
X-7.92500 Y-3.53990
X-7.92400 Y-3.53990
X-7.92400 Y-3.54090
X-7.92300 Y-3.54090
X-7.92300 Y-3.54190
X-7.92200 Y-3.54190
X-7.92200 Y-3.54290
X-7.92000 Y-3.54290
X-7.92000 Y-3.54390
X-7.91800 Y-3.54390
X-7.91800 Y-3.54490
X-7.90700 Y-3.54490
X-7.90700 Y-3.54390
X-7.90400 Y-3.54390
X-7.90400 Y-3.54290
X-7.90300 Y-3.54290
X-7.90300 Y-3.54190
X-7.90100 Y-3.54190
X-7.90100 Y-3.54090
X-7.90000 Y-3.54090
X-7.90000 Y-3.53990
X-7.89900 Y-3.53990
X-7.89900 Y-3.53790
X-7.89800 Y-3.53790
X-7.89800 Y-3.53690
X-7.89700 Y-3.53690
X-7.89700 Y-3.53190
X-7.89600 Y-3.53190
X-7.89600 Y-3.52590
X-7.89700 Y-3.52590
X-7.89700 Y-3.52090
X-7.89800 Y-3.52090
X-7.89800 Y-3.51990
X-7.89900 Y-3.51990
X-7.89900 Y-3.51890
X-7.90000 Y-3.51890
X-7.90000 Y-3.51690
X-7.90100 Y-3.51690
X-7.90100 Y-3.51590
X-7.90300 Y-3.51590
X-7.90300 Y-3.51490
X-7.90500 Y-3.51490
X-7.90500 Y-3.51390
X-7.90800 Y-3.51390
X-7.90800 Y-3.51290
X-7.91700 Y-3.51290
X-7.91700 Y-3.51390
G04 P0 ( dwell for no time -- G64 should not smooth over this point )
G00 Z0.19685 ( retract )

G00 X-7.34300 Y-3.56890 ( rapid move to begin. )
G01 Z-0.00394 F39.37008 ( plunge. )
G04 P0 ( dwell for no time -- G64 should not smooth over this point )
X-7.34300 Y-3.56890
X-7.34800 Y-3.56890
X-7.34800 Y-3.56990
X-7.35000 Y-3.56990
X-7.35000 Y-3.57090
X-7.35100 Y-3.57090
X-7.35100 Y-3.57190
X-7.35300 Y-3.57190
X-7.35300 Y-3.57290
X-7.35500 Y-3.57290
X-7.35500 Y-3.57390
X-7.35600 Y-3.57390
X-7.35600 Y-3.57490
X-7.35700 Y-3.57490
X-7.35700 Y-3.57590
X-7.35800 Y-3.57590
X-7.35800 Y-3.57790
X-7.35900 Y-3.57790
X-7.35900 Y-3.57890
X-7.36000 Y-3.57890
X-7.36000 Y-3.57990
X-7.36100 Y-3.57990
X-7.36100 Y-3.58190
X-7.36200 Y-3.58190
X-7.36200 Y-3.58290
X-7.36300 Y-3.58290
X-7.36300 Y-3.58790
X-7.36400 Y-3.58790
X-7.36400 Y-3.58990
X-7.44200 Y-3.58990
X-7.44200 Y-3.58890
X-7.44300 Y-3.58890
X-7.44300 Y-3.58690
X-7.44400 Y-3.58690
X-7.44400 Y-3.58590
X-7.44500 Y-3.58590
X-7.44500 Y-3.58390
X-7.44700 Y-3.58390
X-7.44700 Y-3.58290
X-7.44800 Y-3.58290
X-7.44800 Y-3.58190
X-7.45000 Y-3.58190
X-7.45000 Y-3.58090
X-7.45400 Y-3.58090
X-7.45400 Y-3.57990
X-7.46000 Y-3.57990
X-7.46000 Y-3.58090
X-7.46400 Y-3.58090
X-7.46400 Y-3.58190
X-7.46600 Y-3.58190
X-7.46600 Y-3.58290
X-7.46800 Y-3.58290
X-7.46800 Y-3.58390
X-7.46900 Y-3.58390
X-7.46900 Y-3.58490
X-7.47000 Y-3.58490
X-7.47000 Y-3.58690
X-7.47100 Y-3.58690
X-7.47100 Y-3.58790
X-7.47200 Y-3.58790
X-7.47200 Y-3.59090
X-7.47300 Y-3.59090
X-7.47300 Y-3.60190
X-7.47200 Y-3.60190
X-7.47200 Y-3.60490
X-7.47100 Y-3.60490
X-7.47100 Y-3.60590
X-7.47000 Y-3.60590
X-7.47000 Y-3.60690
X-7.46900 Y-3.60690
X-7.46900 Y-3.60890
X-7.46700 Y-3.60890
X-7.46700 Y-3.60990
X-7.46500 Y-3.60990
X-7.46500 Y-3.61090
X-7.46400 Y-3.61090
X-7.46400 Y-3.61190
X-7.45800 Y-3.61190
X-7.45800 Y-3.61290
X-7.45600 Y-3.61290
X-7.45600 Y-3.61190
X-7.45100 Y-3.61190
X-7.45100 Y-3.61090
X-7.44900 Y-3.61090
X-7.44900 Y-3.60990
X-7.44700 Y-3.60990
X-7.44700 Y-3.60890
X-7.44600 Y-3.60890
X-7.44600 Y-3.60790
X-7.44500 Y-3.60790
X-7.44500 Y-3.60690
X-7.44400 Y-3.60690
X-7.44400 Y-3.60490
X-7.44300 Y-3.60490
X-7.44300 Y-3.60390
X-7.44200 Y-3.60390
X-7.44200 Y-3.60090
X-7.36400 Y-3.60090
X-7.36400 Y-3.60290
X-7.36300 Y-3.60290
X-7.36300 Y-3.60790
X-7.36200 Y-3.60790
X-7.36200 Y-3.60890
X-7.36100 Y-3.60890
X-7.36100 Y-3.61090
X-7.36000 Y-3.61090
X-7.36000 Y-3.61190
X-7.35900 Y-3.61190
X-7.35900 Y-3.61290
X-7.35800 Y-3.61290
X-7.35800 Y-3.61490
X-7.35700 Y-3.61490
X-7.35700 Y-3.61590
X-7.35600 Y-3.61590
X-7.35600 Y-3.61690
X-7.35500 Y-3.61690
X-7.35500 Y-3.61790
X-7.35300 Y-3.61790
X-7.35300 Y-3.61890
X-7.35100 Y-3.61890
X-7.35100 Y-3.61990
X-7.35000 Y-3.61990
X-7.35000 Y-3.62090
X-7.34800 Y-3.62090
X-7.34800 Y-3.62190
X-7.34300 Y-3.62190
X-7.34300 Y-3.62290
X-7.33000 Y-3.62290
X-7.33000 Y-3.62190
X-7.32600 Y-3.62190
X-7.32600 Y-3.62090
X-7.32400 Y-3.62090
X-7.32400 Y-3.61990
X-7.32200 Y-3.61990
X-7.32200 Y-3.61890
X-7.32100 Y-3.61890
X-7.32100 Y-3.61790
X-7.31900 Y-3.61790
X-7.31900 Y-3.61690
X-7.31700 Y-3.61690
X-7.31700 Y-3.61490
X-7.31600 Y-3.61490
X-7.31600 Y-3.61390
X-7.31500 Y-3.61390
X-7.31500 Y-3.61290
X-7.31400 Y-3.61290
X-7.31400 Y-3.61090
X-7.31300 Y-3.61090
X-7.31300 Y-3.60990
X-7.31200 Y-3.60990
X-7.31200 Y-3.60790
X-7.31100 Y-3.60790
X-7.31100 Y-3.60490
X-7.31000 Y-3.60490
X-7.31000 Y-3.59990
X-7.30900 Y-3.59990
X-7.30900 Y-3.59090
X-7.31000 Y-3.59090
X-7.31000 Y-3.58590
X-7.31100 Y-3.58590
X-7.31100 Y-3.58190
X-7.31200 Y-3.58190
X-7.31200 Y-3.58090
X-7.31300 Y-3.58090
X-7.31300 Y-3.57990
X-7.31400 Y-3.57990
X-7.31400 Y-3.57790
X-7.31500 Y-3.57790
X-7.31500 Y-3.57690
X-7.31600 Y-3.57690
X-7.31600 Y-3.57590
X-7.31700 Y-3.57590
X-7.31700 Y-3.57390
X-7.31900 Y-3.57390
X-7.31900 Y-3.57290
X-7.32100 Y-3.57290
X-7.32100 Y-3.57190
X-7.32200 Y-3.57190
X-7.32200 Y-3.57090
X-7.32400 Y-3.57090
X-7.32400 Y-3.56990
X-7.32600 Y-3.56990
X-7.32600 Y-3.56890
X-7.33000 Y-3.56890
X-7.33000 Y-3.56790
X-7.34300 Y-3.56790
X-7.34300 Y-3.56890
G04 P0 ( dwell for no time -- G64 should not smooth over this point )
G00 Z0.19685 ( retract )

G00 X-7.04300 Y-3.57090 ( rapid move to begin. )
G01 Z-0.00394 F39.37008 ( plunge. )
G04 P0 ( dwell for no time -- G64 should not smooth over this point )
X-7.04300 Y-3.57090
X-7.04800 Y-3.57090
X-7.04800 Y-3.57190
X-7.05000 Y-3.57190
X-7.05000 Y-3.57290
X-7.05200 Y-3.57290
X-7.05200 Y-3.57390
X-7.05300 Y-3.57390
X-7.05300 Y-3.57490
X-7.05500 Y-3.57490
X-7.05500 Y-3.57590
X-7.05700 Y-3.57590
X-7.05700 Y-3.57790
X-7.05800 Y-3.57790
X-7.05800 Y-3.57890
X-7.05900 Y-3.57890
X-7.05900 Y-3.57990
X-7.06000 Y-3.57990
X-7.06000 Y-3.58190
X-7.06100 Y-3.58190
X-7.06100 Y-3.58290
X-7.06200 Y-3.58290
X-7.06200 Y-3.58390
X-7.06300 Y-3.58390
X-7.06300 Y-3.58790
X-7.06400 Y-3.58790
X-7.06400 Y-3.59290
X-7.06500 Y-3.59290
X-7.06500 Y-3.60290
X-7.06400 Y-3.60290
X-7.06400 Y-3.60790
X-7.06300 Y-3.60790
X-7.06300 Y-3.61090
X-7.06200 Y-3.61090
X-7.06200 Y-3.61190
X-7.06100 Y-3.61190
X-7.06100 Y-3.61390
X-7.06000 Y-3.61390
X-7.06000 Y-3.61490
X-7.05900 Y-3.61490
X-7.05900 Y-3.61590
X-7.05800 Y-3.61590
X-7.05800 Y-3.61790
X-7.05700 Y-3.61790
X-7.05700 Y-3.61890
X-7.05600 Y-3.61890
X-7.05600 Y-3.61990
X-7.05400 Y-3.61990
X-7.05400 Y-3.62090
X-7.05200 Y-3.62090
X-7.05200 Y-3.62190
X-7.05100 Y-3.62190
X-7.05100 Y-3.62290
X-7.04900 Y-3.62290
X-7.04900 Y-3.62390
X-7.04500 Y-3.62390
X-7.04500 Y-3.62490
X-7.03900 Y-3.62490
X-7.03900 Y-3.62590
X-7.03600 Y-3.62590
X-7.03600 Y-3.62490
X-7.03000 Y-3.62490
X-7.03000 Y-3.62390
X-7.02600 Y-3.62390
X-7.02600 Y-3.62290
X-7.02400 Y-3.62290
X-7.02400 Y-3.62190
X-7.02300 Y-3.62190
X-7.02300 Y-3.62090
X-7.02100 Y-3.62090
X-7.02100 Y-3.61990
X-7.01900 Y-3.61990
X-7.01900 Y-3.61890
X-7.01800 Y-3.61890
X-7.01800 Y-3.61790
X-7.01700 Y-3.61790
X-7.01700 Y-3.61690
X-7.01600 Y-3.61690
X-7.01600 Y-3.61490
X-7.01500 Y-3.61490
X-7.01500 Y-3.61390
X-7.01400 Y-3.61390
X-7.01400 Y-3.61290
X-7.01300 Y-3.61290
X-7.01300 Y-3.61090
X-7.01200 Y-3.61090
X-7.01200 Y-3.60890
X-7.01100 Y-3.60890
X-7.01100 Y-3.60390
X-7.01000 Y-3.60390
X-7.01000 Y-3.59890
X-7.00900 Y-3.59890
X-7.00900 Y-3.59690
X-7.01000 Y-3.59690
X-7.01000 Y-3.59190
X-7.01100 Y-3.59190
X-7.01100 Y-3.58590
X-7.01200 Y-3.58590
X-7.01200 Y-3.58390
X-7.01300 Y-3.58390
X-7.01300 Y-3.58290
X-7.01400 Y-3.58290
X-7.01400 Y-3.58090
X-7.01500 Y-3.58090
X-7.01500 Y-3.57990
X-7.01600 Y-3.57990
X-7.01600 Y-3.57890
X-7.01700 Y-3.57890
X-7.01700 Y-3.57690
X-7.01800 Y-3.57690
X-7.01800 Y-3.57590
X-7.02000 Y-3.57590
X-7.02000 Y-3.57490
X-7.02200 Y-3.57490
X-7.02200 Y-3.57390
X-7.02300 Y-3.57390
X-7.02300 Y-3.57290
X-7.02500 Y-3.57290
X-7.02500 Y-3.57190
X-7.02700 Y-3.57190
X-7.02700 Y-3.57090
X-7.03200 Y-3.57090
X-7.03200 Y-3.56990
X-7.04300 Y-3.56990
X-7.04300 Y-3.57090
G04 P0 ( dwell for no time -- G64 should not smooth over this point )
G00 Z0.19685 ( retract )

G00 X-8.02000 Y-3.58790 ( rapid move to begin. )
G01 Z-0.00394 F39.37008 ( plunge. )
G04 P0 ( dwell for no time -- G64 should not smooth over this point )
X-8.02000 Y-3.58790
X-8.02500 Y-3.58790
X-8.02500 Y-3.58890
X-8.02700 Y-3.58890
X-8.02700 Y-3.58990
X-8.02900 Y-3.58990
X-8.02900 Y-3.59090
X-8.03000 Y-3.59090
X-8.03000 Y-3.59190
X-8.03200 Y-3.59190
X-8.03200 Y-3.59290
X-8.03400 Y-3.59290
X-8.03400 Y-3.59390
X-8.03500 Y-3.59390
X-8.03500 Y-3.59490
X-8.03600 Y-3.59490
X-8.03600 Y-3.59590
X-8.03700 Y-3.59590
X-8.03700 Y-3.59790
X-8.03800 Y-3.59790
X-8.03800 Y-3.59890
X-8.03900 Y-3.59890
X-8.03900 Y-3.59990
X-8.04000 Y-3.59990
X-8.04000 Y-3.60190
X-8.04100 Y-3.60190
X-8.04100 Y-3.60290
X-8.04200 Y-3.60290
X-8.04200 Y-3.60690
X-8.04300 Y-3.60690
X-8.04300 Y-3.61290
X-8.04400 Y-3.61290
X-8.04400 Y-3.62190
X-8.04300 Y-3.62190
X-8.04300 Y-3.62690
X-8.04200 Y-3.62690
X-8.04200 Y-3.63090
X-8.04100 Y-3.63090
X-8.04100 Y-3.63190
X-8.04000 Y-3.63190
X-8.04000 Y-3.63390
X-8.03900 Y-3.63390
X-8.03900 Y-3.63490
X-8.03800 Y-3.63490
X-8.03800 Y-3.63690
X-8.03700 Y-3.63690
X-8.03700 Y-3.63790
X-8.03600 Y-3.63790
X-8.03600 Y-3.63890
X-8.03500 Y-3.63890
X-8.03500 Y-3.63990
X-8.03400 Y-3.63990
X-8.03400 Y-3.64090
X-8.03300 Y-3.64090
X-8.03300 Y-3.64190
X-8.03100 Y-3.64190
X-8.03100 Y-3.64290
X-8.02900 Y-3.64290
X-8.02900 Y-3.64390
X-8.02700 Y-3.64390
X-8.02700 Y-3.64490
X-8.02600 Y-3.64490
X-8.02600 Y-3.64590
X-8.02100 Y-3.64590
X-8.02100 Y-3.64690
X-8.01500 Y-3.64690
X-8.01500 Y-3.64790
X-8.01300 Y-3.64790
X-8.01300 Y-3.64690
X-8.00700 Y-3.64690
X-8.00700 Y-3.64590
X-8.00200 Y-3.64590
X-8.00200 Y-3.64490
X-8.00000 Y-3.64490
X-8.00000 Y-3.64390
X-7.99800 Y-3.64390
X-7.99800 Y-3.64290
X-7.99700 Y-3.64290
X-7.99700 Y-3.64190
X-7.99500 Y-3.64190
X-7.99500 Y-3.64090
X-7.99300 Y-3.64090
X-7.99300 Y-3.63990
X-7.99200 Y-3.63990
X-7.99200 Y-3.63790
X-7.99100 Y-3.63790
X-7.99100 Y-3.63690
X-7.99000 Y-3.63690
X-7.99000 Y-3.63590
X-7.98900 Y-3.63590
X-7.98900 Y-3.63390
X-7.98800 Y-3.63390
X-7.98800 Y-3.63290
X-7.98700 Y-3.63290
X-7.98700 Y-3.63190
X-7.98600 Y-3.63190
X-7.98600 Y-3.62890
X-7.98500 Y-3.62890
X-7.98500 Y-3.62390
X-7.98400 Y-3.62390
X-7.98400 Y-3.62290
X-7.92700 Y-3.62290
X-7.92700 Y-3.62490
X-7.92600 Y-3.62490
X-7.92600 Y-3.62590
X-7.92500 Y-3.62590
X-7.92500 Y-3.62790
X-7.92400 Y-3.62790
X-7.92400 Y-3.62890
X-7.92300 Y-3.62890
X-7.92300 Y-3.62990
X-7.92100 Y-3.62990
X-7.92100 Y-3.63090
X-7.91900 Y-3.63090
X-7.91900 Y-3.63190
X-7.91500 Y-3.63190
X-7.91500 Y-3.63290
X-7.91000 Y-3.63290
X-7.91000 Y-3.63190
X-7.90500 Y-3.63190
X-7.90500 Y-3.63090
X-7.90400 Y-3.63090
X-7.90400 Y-3.62990
X-7.90200 Y-3.62990
X-7.90200 Y-3.62890
X-7.90100 Y-3.62890
X-7.90100 Y-3.62790
X-7.90000 Y-3.62790
X-7.90000 Y-3.62690
X-7.89900 Y-3.62690
X-7.89900 Y-3.62590
X-7.89800 Y-3.62590
X-7.89800 Y-3.62390
X-7.89700 Y-3.62390
X-7.89700 Y-3.61990
X-7.89600 Y-3.61990
X-7.89600 Y-3.61290
X-7.89700 Y-3.61290
X-7.89700 Y-3.60890
X-7.89800 Y-3.60890
X-7.89800 Y-3.60790
X-7.89900 Y-3.60790
X-7.89900 Y-3.60590
X-7.90000 Y-3.60590
X-7.90000 Y-3.60490
X-7.90100 Y-3.60490
X-7.90100 Y-3.60390
X-7.90200 Y-3.60390
X-7.90200 Y-3.60290
X-7.90400 Y-3.60290
X-7.90400 Y-3.60190
X-7.90600 Y-3.60190
X-7.90600 Y-3.60090
X-7.91100 Y-3.60090
X-7.91100 Y-3.59990
X-7.91400 Y-3.59990
X-7.91400 Y-3.60090
X-7.91900 Y-3.60090
X-7.91900 Y-3.60190
X-7.92000 Y-3.60190
X-7.92000 Y-3.60290
X-7.92200 Y-3.60290
X-7.92200 Y-3.60390
X-7.92400 Y-3.60390
X-7.92400 Y-3.60590
X-7.92500 Y-3.60590
X-7.92500 Y-3.60690
X-7.92600 Y-3.60690
X-7.92600 Y-3.60790
X-7.92700 Y-3.60790
X-7.92700 Y-3.61090
X-7.92800 Y-3.61090
X-7.92800 Y-3.61190
X-7.98400 Y-3.61190
X-7.98400 Y-3.60990
X-7.98500 Y-3.60990
X-7.98500 Y-3.60490
X-7.98600 Y-3.60490
X-7.98600 Y-3.60290
X-7.98700 Y-3.60290
X-7.98700 Y-3.60090
X-7.98800 Y-3.60090
X-7.98800 Y-3.59990
X-7.98900 Y-3.59990
X-7.98900 Y-3.59790
X-7.99000 Y-3.59790
X-7.99000 Y-3.59690
X-7.99100 Y-3.59690
X-7.99100 Y-3.59590
X-7.99200 Y-3.59590
X-7.99200 Y-3.59390
X-7.99400 Y-3.59390
X-7.99400 Y-3.59290
X-7.99500 Y-3.59290
X-7.99500 Y-3.59190
X-7.99700 Y-3.59190
X-7.99700 Y-3.59090
X-7.99900 Y-3.59090
X-7.99900 Y-3.58990
X-8.00100 Y-3.58990
X-8.00100 Y-3.58890
X-8.00200 Y-3.58890
X-8.00200 Y-3.58790
X-8.00800 Y-3.58790
X-8.00800 Y-3.58690
X-8.02000 Y-3.58690
X-8.02000 Y-3.58790
G04 P0 ( dwell for no time -- G64 should not smooth over this point )
G00 Z0.19685 ( retract )

G00 X-7.73100 Y-3.62190 ( rapid move to begin. )
G01 Z-0.00394 F39.37008 ( plunge. )
G04 P0 ( dwell for no time -- G64 should not smooth over this point )
X-7.73100 Y-3.62190
X-7.73200 Y-3.62190
X-7.73200 Y-3.62590
X-7.73100 Y-3.62590
X-7.73100 Y-3.62690
X-7.72600 Y-3.62690
X-7.72600 Y-3.62490
X-7.72500 Y-3.62490
X-7.72500 Y-3.62290
X-7.72600 Y-3.62290
X-7.72600 Y-3.62090
X-7.73100 Y-3.62090
X-7.73100 Y-3.62190
G04 P0 ( dwell for no time -- G64 should not smooth over this point )
G00 Z0.19685 ( retract )

G00 X-7.73100 Y-3.63890 ( rapid move to begin. )
G01 Z-0.00394 F39.37008 ( plunge. )
G04 P0 ( dwell for no time -- G64 should not smooth over this point )
X-7.73100 Y-3.63890
X-7.73200 Y-3.63890
X-7.73200 Y-3.64290
X-7.73100 Y-3.64290
X-7.73100 Y-3.64390
X-7.72600 Y-3.64390
X-7.72600 Y-3.64190
X-7.72500 Y-3.64190
X-7.72500 Y-3.63990
X-7.72600 Y-3.63990
X-7.72600 Y-3.63790
X-7.73100 Y-3.63790
X-7.73100 Y-3.63890
G04 P0 ( dwell for no time -- G64 should not smooth over this point )
G00 Z0.19685 ( retract )

G00 X-7.91600 Y-3.65190 ( rapid move to begin. )
G01 Z-0.00394 F39.37008 ( plunge. )
G04 P0 ( dwell for no time -- G64 should not smooth over this point )
X-7.91600 Y-3.65190
X-7.92100 Y-3.65190
X-7.92100 Y-3.65290
X-7.92300 Y-3.65290
X-7.92300 Y-3.65390
X-7.92500 Y-3.65390
X-7.92500 Y-3.65490
X-7.92600 Y-3.65490
X-7.92600 Y-3.65590
X-7.92700 Y-3.65590
X-7.92700 Y-3.65690
X-7.92800 Y-3.65690
X-7.92800 Y-3.65790
X-7.92900 Y-3.65790
X-7.92900 Y-3.65990
X-7.93000 Y-3.65990
X-7.93000 Y-3.66190
X-8.09300 Y-3.66190
X-8.09300 Y-3.66290
X-8.09500 Y-3.66290
X-8.09500 Y-3.66390
X-8.09700 Y-3.66390
X-8.09700 Y-3.66490
X-8.09800 Y-3.66490
X-8.09800 Y-3.66590
X-8.09900 Y-3.66590
X-8.09900 Y-3.66690
X-8.10000 Y-3.66690
X-8.10000 Y-3.66790
X-8.10100 Y-3.66790
X-8.10100 Y-3.66890
X-8.10200 Y-3.66890
X-8.10200 Y-3.66990
X-8.10300 Y-3.66990
X-8.10300 Y-3.67090
X-8.10400 Y-3.67090
X-8.10400 Y-3.67190
X-8.10500 Y-3.67190
X-8.10500 Y-3.67290
X-8.10600 Y-3.67290
X-8.10600 Y-3.67390
X-8.10700 Y-3.67390
X-8.10700 Y-3.67490
X-8.10800 Y-3.67490
X-8.10800 Y-3.67590
X-8.10900 Y-3.67590
X-8.10900 Y-3.67690
X-8.11000 Y-3.67690
X-8.11000 Y-3.67790
X-8.11100 Y-3.67790
X-8.11100 Y-3.67890
X-8.11200 Y-3.67890
X-8.11200 Y-3.67990
X-8.11300 Y-3.67990
X-8.11300 Y-3.68090
X-8.11400 Y-3.68090
X-8.11400 Y-3.68190
X-8.11500 Y-3.68190
X-8.11500 Y-3.68290
X-8.11600 Y-3.68290
X-8.11600 Y-3.68390
X-8.11700 Y-3.68390
X-8.11700 Y-3.68490
X-8.11800 Y-3.68490
X-8.11800 Y-3.68690
X-8.12000 Y-3.68690
X-8.12000 Y-3.68790
X-8.12500 Y-3.68790
X-8.12500 Y-3.68890
X-8.12700 Y-3.68890
X-8.12700 Y-3.68990
X-8.12900 Y-3.68990
X-8.12900 Y-3.69090
X-8.13000 Y-3.69090
X-8.13000 Y-3.69190
X-8.13200 Y-3.69190
X-8.13200 Y-3.69290
X-8.13400 Y-3.69290
X-8.13400 Y-3.69390
X-8.13500 Y-3.69390
X-8.13500 Y-3.69490
X-8.13600 Y-3.69490
X-8.13600 Y-3.69590
X-8.13700 Y-3.69590
X-8.13700 Y-3.69790
X-8.13800 Y-3.69790
X-8.13800 Y-3.69890
X-8.13900 Y-3.69890
X-8.13900 Y-3.69990
X-8.14000 Y-3.69990
X-8.14000 Y-3.70190
X-8.14100 Y-3.70190
X-8.14100 Y-3.70290
X-8.14200 Y-3.70290
X-8.14200 Y-3.70690
X-8.14300 Y-3.70690
X-8.14300 Y-3.71290
X-8.14400 Y-3.71290
X-8.14400 Y-3.72190
X-8.14300 Y-3.72190
X-8.14300 Y-3.72690
X-8.14200 Y-3.72690
X-8.14200 Y-3.73090
X-8.14100 Y-3.73090
X-8.14100 Y-3.73190
X-8.14000 Y-3.73190
X-8.14000 Y-3.73390
X-8.13900 Y-3.73390
X-8.13900 Y-3.73490
X-8.13800 Y-3.73490
X-8.13800 Y-3.73690
X-8.13700 Y-3.73690
X-8.13700 Y-3.73790
X-8.13600 Y-3.73790
X-8.13600 Y-3.73890
X-8.13500 Y-3.73890
X-8.13500 Y-3.73990
X-8.13400 Y-3.73990
X-8.13400 Y-3.74090
X-8.13300 Y-3.74090
X-8.13300 Y-3.74190
X-8.13100 Y-3.74190
X-8.13100 Y-3.74290
X-8.12900 Y-3.74290
X-8.12900 Y-3.74390
X-8.12700 Y-3.74390
X-8.12700 Y-3.74490
X-8.12600 Y-3.74490
X-8.12600 Y-3.74590
X-8.12100 Y-3.74590
X-8.12100 Y-3.74690
X-8.11500 Y-3.74690
X-8.11500 Y-3.74790
X-8.11300 Y-3.74790
X-8.11300 Y-3.74690
X-8.10700 Y-3.74690
X-8.10700 Y-3.74590
X-8.10200 Y-3.74590
X-8.10200 Y-3.74490
X-8.10000 Y-3.74490
X-8.10000 Y-3.74390
X-8.09800 Y-3.74390
X-8.09800 Y-3.74290
X-8.09700 Y-3.74290
X-8.09700 Y-3.74190
X-8.09500 Y-3.74190
X-8.09500 Y-3.74090
X-8.09300 Y-3.74090
X-8.09300 Y-3.73990
X-8.09200 Y-3.73990
X-8.09200 Y-3.73790
X-8.09100 Y-3.73790
X-8.09100 Y-3.73690
X-8.09000 Y-3.73690
X-8.09000 Y-3.73590
X-8.08900 Y-3.73590
X-8.08900 Y-3.73390
X-8.08800 Y-3.73390
X-8.08800 Y-3.73290
X-8.08700 Y-3.73290
X-8.08700 Y-3.73190
X-8.08600 Y-3.73190
X-8.08600 Y-3.72890
X-8.08500 Y-3.72890
X-8.08500 Y-3.72390
X-8.08400 Y-3.72390
X-8.08400 Y-3.71890
X-8.08300 Y-3.71890
X-8.08300 Y-3.71590
X-8.08400 Y-3.71590
X-8.08400 Y-3.70990
X-8.08500 Y-3.70990
X-8.08500 Y-3.70490
X-8.08600 Y-3.70490
X-8.08600 Y-3.70290
X-8.08700 Y-3.70290
X-8.08700 Y-3.70090
X-8.08800 Y-3.70090
X-8.08800 Y-3.69990
X-8.08900 Y-3.69990
X-8.08900 Y-3.69790
X-8.09000 Y-3.69790
X-8.09000 Y-3.69690
X-8.09100 Y-3.69690
X-8.09100 Y-3.69590
X-8.09200 Y-3.69590
X-8.09200 Y-3.69390
X-8.09400 Y-3.69390
X-8.09400 Y-3.69290
X-8.09500 Y-3.69290
X-8.09500 Y-3.69190
X-8.09700 Y-3.69190
X-8.09700 Y-3.69090
X-8.09900 Y-3.69090
X-8.09900 Y-3.68990
X-8.10100 Y-3.68990
X-8.10100 Y-3.68890
X-8.10200 Y-3.68890
X-8.10200 Y-3.68790
X-8.10400 Y-3.68790
X-8.10400 Y-3.68690
X-8.10300 Y-3.68690
X-8.10300 Y-3.68590
X-8.10200 Y-3.68590
X-8.10200 Y-3.68490
X-8.10100 Y-3.68490
X-8.10100 Y-3.68390
X-8.10000 Y-3.68390
X-8.10000 Y-3.68290
X-8.09900 Y-3.68290
X-8.09900 Y-3.68190
X-8.09800 Y-3.68190
X-8.09800 Y-3.68090
X-8.09700 Y-3.68090
X-8.09700 Y-3.67990
X-8.09600 Y-3.67990
X-8.09600 Y-3.67890
X-8.09500 Y-3.67890
X-8.09500 Y-3.67790
X-8.09400 Y-3.67790
X-8.09400 Y-3.67690
X-8.09300 Y-3.67690
X-8.09300 Y-3.67590
X-8.09200 Y-3.67590
X-8.09200 Y-3.67490
X-8.09100 Y-3.67490
X-8.09100 Y-3.67390
X-8.09000 Y-3.67390
X-8.09000 Y-3.67290
X-7.93000 Y-3.67290
X-7.93000 Y-3.67590
X-7.92900 Y-3.67590
X-7.92900 Y-3.67690
X-7.92800 Y-3.67690
X-7.92800 Y-3.67790
X-7.92700 Y-3.67790
X-7.92700 Y-3.67990
X-7.92500 Y-3.67990
X-7.92500 Y-3.68090
X-7.92400 Y-3.68090
X-7.92400 Y-3.68190
X-7.92200 Y-3.68190
X-7.92200 Y-3.68290
X-7.91800 Y-3.68290
X-7.91800 Y-3.68390
X-7.91200 Y-3.68390
X-7.91200 Y-3.68290
X-7.90800 Y-3.68290
X-7.90800 Y-3.68190
X-7.90600 Y-3.68190
X-7.90600 Y-3.68090
X-7.90500 Y-3.68090
X-7.90500 Y-3.67990
X-7.90300 Y-3.67990
X-7.90300 Y-3.67790
X-7.90200 Y-3.67790
X-7.90200 Y-3.67690
X-7.90100 Y-3.67690
X-7.90100 Y-3.67590
X-7.90000 Y-3.67590
X-7.90000 Y-3.67190
X-7.89900 Y-3.67190
X-7.89900 Y-3.66290
X-7.90000 Y-3.66290
X-7.90000 Y-3.65990
X-7.90100 Y-3.65990
X-7.90100 Y-3.65790
X-7.90200 Y-3.65790
X-7.90200 Y-3.65690
X-7.90300 Y-3.65690
X-7.90300 Y-3.65590
X-7.90400 Y-3.65590
X-7.90400 Y-3.65490
X-7.90500 Y-3.65490
X-7.90500 Y-3.65390
X-7.90700 Y-3.65390
X-7.90700 Y-3.65290
X-7.90900 Y-3.65290
X-7.90900 Y-3.65190
X-7.91400 Y-3.65190
X-7.91400 Y-3.65090
X-7.91600 Y-3.65090
X-7.91600 Y-3.65190
G04 P0 ( dwell for no time -- G64 should not smooth over this point )
G00 Z0.19685 ( retract )

G00 X-7.73100 Y-3.65290 ( rapid move to begin. )
G01 Z-0.00394 F39.37008 ( plunge. )
G04 P0 ( dwell for no time -- G64 should not smooth over this point )
X-7.73100 Y-3.65290
X-7.73200 Y-3.65290
X-7.73200 Y-3.65690
X-7.73100 Y-3.65690
X-7.73100 Y-3.65790
X-7.72600 Y-3.65790
X-7.72600 Y-3.65590
X-7.72500 Y-3.65590
X-7.72500 Y-3.65390
X-7.72600 Y-3.65390
X-7.72600 Y-3.65190
X-7.73100 Y-3.65190
X-7.73100 Y-3.65290
G04 P0 ( dwell for no time -- G64 should not smooth over this point )
G00 Z0.19685 ( retract )

G00 X-7.34300 Y-3.66890 ( rapid move to begin. )
G01 Z-0.00394 F39.37008 ( plunge. )
G04 P0 ( dwell for no time -- G64 should not smooth over this point )
X-7.34300 Y-3.66890
X-7.34800 Y-3.66890
X-7.34800 Y-3.66990
X-7.35000 Y-3.66990
X-7.35000 Y-3.67090
X-7.35100 Y-3.67090
X-7.35100 Y-3.67190
X-7.35300 Y-3.67190
X-7.35300 Y-3.67290
X-7.35500 Y-3.67290
X-7.35500 Y-3.67390
X-7.35600 Y-3.67390
X-7.35600 Y-3.67490
X-7.35700 Y-3.67490
X-7.35700 Y-3.67590
X-7.35800 Y-3.67590
X-7.35800 Y-3.67790
X-7.35900 Y-3.67790
X-7.35900 Y-3.67890
X-7.36000 Y-3.67890
X-7.36000 Y-3.67990
X-7.36100 Y-3.67990
X-7.36100 Y-3.68190
X-7.36200 Y-3.68190
X-7.36200 Y-3.68290
X-7.36300 Y-3.68290
X-7.36300 Y-3.68790
X-7.36400 Y-3.68790
X-7.36400 Y-3.68990
X-7.44900 Y-3.68990
X-7.44900 Y-3.68790
X-7.45000 Y-3.68790
X-7.45000 Y-3.68690
X-7.45100 Y-3.68690
X-7.45100 Y-3.68490
X-7.45200 Y-3.68490
X-7.45200 Y-3.68390
X-7.45300 Y-3.68390
X-7.45300 Y-3.68290
X-7.45400 Y-3.68290
X-7.45400 Y-3.68190
X-7.45600 Y-3.68190
X-7.45600 Y-3.68090
X-7.45800 Y-3.68090
X-7.45800 Y-3.67990
X-7.46300 Y-3.67990
X-7.46300 Y-3.67890
X-7.46500 Y-3.67890
X-7.46500 Y-3.67990
X-7.47100 Y-3.67990
X-7.47100 Y-3.68090
X-7.47200 Y-3.68090
X-7.47200 Y-3.68190
X-7.47400 Y-3.68190
X-7.47400 Y-3.68290
X-7.47600 Y-3.68290
X-7.47600 Y-3.68490
X-7.47700 Y-3.68490
X-7.47700 Y-3.68590
X-7.47800 Y-3.68590
X-7.47800 Y-3.68690
X-7.47900 Y-3.68690
X-7.47900 Y-3.68990
X-7.48000 Y-3.68990
X-7.48000 Y-3.70090
X-7.47900 Y-3.70090
X-7.47900 Y-3.70390
X-7.47800 Y-3.70390
X-7.47800 Y-3.70490
X-7.47700 Y-3.70490
X-7.47700 Y-3.70690
X-7.47600 Y-3.70690
X-7.47600 Y-3.70790
X-7.47500 Y-3.70790
X-7.47500 Y-3.70890
X-7.47300 Y-3.70890
X-7.47300 Y-3.70990
X-7.47100 Y-3.70990
X-7.47100 Y-3.71090
X-7.46700 Y-3.71090
X-7.46700 Y-3.71190
X-7.46100 Y-3.71190
X-7.46100 Y-3.71090
X-7.45700 Y-3.71090
X-7.45700 Y-3.70990
X-7.45500 Y-3.70990
X-7.45500 Y-3.70890
X-7.45400 Y-3.70890
X-7.45400 Y-3.70790
X-7.45200 Y-3.70790
X-7.45200 Y-3.70590
X-7.45100 Y-3.70590
X-7.45100 Y-3.70490
X-7.45000 Y-3.70490
X-7.45000 Y-3.70290
X-7.44900 Y-3.70290
X-7.44900 Y-3.70090
X-7.36400 Y-3.70090
X-7.36400 Y-3.70290
X-7.36300 Y-3.70290
X-7.36300 Y-3.70790
X-7.36200 Y-3.70790
X-7.36200 Y-3.70890
X-7.36100 Y-3.70890
X-7.36100 Y-3.71090
X-7.36000 Y-3.71090
X-7.36000 Y-3.71190
X-7.35900 Y-3.71190
X-7.35900 Y-3.71290
X-7.35800 Y-3.71290
X-7.35800 Y-3.71490
X-7.35700 Y-3.71490
X-7.35700 Y-3.71590
X-7.35600 Y-3.71590
X-7.35600 Y-3.71690
X-7.35500 Y-3.71690
X-7.35500 Y-3.71790
X-7.35300 Y-3.71790
X-7.35300 Y-3.71890
X-7.35100 Y-3.71890
X-7.35100 Y-3.71990
X-7.35000 Y-3.71990
X-7.35000 Y-3.72090
X-7.34800 Y-3.72090
X-7.34800 Y-3.72190
X-7.34300 Y-3.72190
X-7.34300 Y-3.72290
X-7.33000 Y-3.72290
X-7.33000 Y-3.72190
X-7.32600 Y-3.72190
X-7.32600 Y-3.72090
X-7.32400 Y-3.72090
X-7.32400 Y-3.71990
X-7.32200 Y-3.71990
X-7.32200 Y-3.71890
X-7.32100 Y-3.71890
X-7.32100 Y-3.71790
X-7.31900 Y-3.71790
X-7.31900 Y-3.71690
X-7.31700 Y-3.71690
X-7.31700 Y-3.71490
X-7.31600 Y-3.71490
X-7.31600 Y-3.71390
X-7.31500 Y-3.71390
X-7.31500 Y-3.71290
X-7.31400 Y-3.71290
X-7.31400 Y-3.71090
X-7.31300 Y-3.71090
X-7.31300 Y-3.70990
X-7.31200 Y-3.70990
X-7.31200 Y-3.70790
X-7.31100 Y-3.70790
X-7.31100 Y-3.70490
X-7.31000 Y-3.70490
X-7.31000 Y-3.69990
X-7.30900 Y-3.69990
X-7.30900 Y-3.69090
X-7.31000 Y-3.69090
X-7.31000 Y-3.68590
X-7.31100 Y-3.68590
X-7.31100 Y-3.68190
X-7.31200 Y-3.68190
X-7.31200 Y-3.68090
X-7.31300 Y-3.68090
X-7.31300 Y-3.67990
X-7.31400 Y-3.67990
X-7.31400 Y-3.67790
X-7.31500 Y-3.67790
X-7.31500 Y-3.67690
X-7.31600 Y-3.67690
X-7.31600 Y-3.67590
X-7.31700 Y-3.67590
X-7.31700 Y-3.67390
X-7.31900 Y-3.67390
X-7.31900 Y-3.67290
X-7.32100 Y-3.67290
X-7.32100 Y-3.67190
X-7.32200 Y-3.67190
X-7.32200 Y-3.67090
X-7.32400 Y-3.67090
X-7.32400 Y-3.66990
X-7.32600 Y-3.66990
X-7.32600 Y-3.66890
X-7.33000 Y-3.66890
X-7.33000 Y-3.66790
X-7.34300 Y-3.66790
X-7.34300 Y-3.66890
G04 P0 ( dwell for no time -- G64 should not smooth over this point )
G00 Z0.19685 ( retract )

G00 X-7.04300 Y-3.67090 ( rapid move to begin. )
G01 Z-0.00394 F39.37008 ( plunge. )
G04 P0 ( dwell for no time -- G64 should not smooth over this point )
X-7.04300 Y-3.67090
X-7.04800 Y-3.67090
X-7.04800 Y-3.67190
X-7.05000 Y-3.67190
X-7.05000 Y-3.67290
X-7.05200 Y-3.67290
X-7.05200 Y-3.67390
X-7.05300 Y-3.67390
X-7.05300 Y-3.67490
X-7.05500 Y-3.67490
X-7.05500 Y-3.67590
X-7.05700 Y-3.67590
X-7.05700 Y-3.67790
X-7.05800 Y-3.67790
X-7.05800 Y-3.67890
X-7.05900 Y-3.67890
X-7.05900 Y-3.67990
X-7.06000 Y-3.67990
X-7.06000 Y-3.68190
X-7.06100 Y-3.68190
X-7.06100 Y-3.68290
X-7.06200 Y-3.68290
X-7.06200 Y-3.68390
X-7.06300 Y-3.68390
X-7.06300 Y-3.68790
X-7.06400 Y-3.68790
X-7.06400 Y-3.69290
X-7.06500 Y-3.69290
X-7.06500 Y-3.70290
X-7.06400 Y-3.70290
X-7.06400 Y-3.70790
X-7.06300 Y-3.70790
X-7.06300 Y-3.71090
X-7.06200 Y-3.71090
X-7.06200 Y-3.71190
X-7.06100 Y-3.71190
X-7.06100 Y-3.71390
X-7.06000 Y-3.71390
X-7.06000 Y-3.71490
X-7.05900 Y-3.71490
X-7.05900 Y-3.71590
X-7.05800 Y-3.71590
X-7.05800 Y-3.71790
X-7.05700 Y-3.71790
X-7.05700 Y-3.71890
X-7.05600 Y-3.71890
X-7.05600 Y-3.71990
X-7.05400 Y-3.71990
X-7.05400 Y-3.72090
X-7.05200 Y-3.72090
X-7.05200 Y-3.72190
X-7.05100 Y-3.72190
X-7.05100 Y-3.72290
X-7.04900 Y-3.72290
X-7.04900 Y-3.72390
X-7.04500 Y-3.72390
X-7.04500 Y-3.72490
X-7.03900 Y-3.72490
X-7.03900 Y-3.72590
X-7.03600 Y-3.72590
X-7.03600 Y-3.72490
X-7.03000 Y-3.72490
X-7.03000 Y-3.72390
X-7.02600 Y-3.72390
X-7.02600 Y-3.72290
X-7.02400 Y-3.72290
X-7.02400 Y-3.72190
X-7.02300 Y-3.72190
X-7.02300 Y-3.72090
X-7.02100 Y-3.72090
X-7.02100 Y-3.71990
X-7.01900 Y-3.71990
X-7.01900 Y-3.71890
X-7.01800 Y-3.71890
X-7.01800 Y-3.71790
X-7.01700 Y-3.71790
X-7.01700 Y-3.71690
X-7.01600 Y-3.71690
X-7.01600 Y-3.71490
X-7.01500 Y-3.71490
X-7.01500 Y-3.71390
X-7.01400 Y-3.71390
X-7.01400 Y-3.71290
X-7.01300 Y-3.71290
X-7.01300 Y-3.71090
X-7.01200 Y-3.71090
X-7.01200 Y-3.70890
X-7.01100 Y-3.70890
X-7.01100 Y-3.70390
X-7.01000 Y-3.70390
X-7.01000 Y-3.69890
X-7.00900 Y-3.69890
X-7.00900 Y-3.69690
X-7.01000 Y-3.69690
X-7.01000 Y-3.69190
X-7.01100 Y-3.69190
X-7.01100 Y-3.68590
X-7.01200 Y-3.68590
X-7.01200 Y-3.68390
X-7.01300 Y-3.68390
X-7.01300 Y-3.68290
X-7.01400 Y-3.68290
X-7.01400 Y-3.68090
X-7.01500 Y-3.68090
X-7.01500 Y-3.67990
X-7.01600 Y-3.67990
X-7.01600 Y-3.67890
X-7.01700 Y-3.67890
X-7.01700 Y-3.67690
X-7.01800 Y-3.67690
X-7.01800 Y-3.67590
X-7.02000 Y-3.67590
X-7.02000 Y-3.67490
X-7.02200 Y-3.67490
X-7.02200 Y-3.67390
X-7.02300 Y-3.67390
X-7.02300 Y-3.67290
X-7.02500 Y-3.67290
X-7.02500 Y-3.67190
X-7.02700 Y-3.67190
X-7.02700 Y-3.67090
X-7.03200 Y-3.67090
X-7.03200 Y-3.66990
X-7.04300 Y-3.66990
X-7.04300 Y-3.67090
G04 P0 ( dwell for no time -- G64 should not smooth over this point )
G00 Z0.19685 ( retract )

G00 X-8.02000 Y-3.68790 ( rapid move to begin. )
G01 Z-0.00394 F39.37008 ( plunge. )
G04 P0 ( dwell for no time -- G64 should not smooth over this point )
X-8.02000 Y-3.68790
X-8.02500 Y-3.68790
X-8.02500 Y-3.68890
X-8.02700 Y-3.68890
X-8.02700 Y-3.68990
X-8.02900 Y-3.68990
X-8.02900 Y-3.69090
X-8.03000 Y-3.69090
X-8.03000 Y-3.69190
X-8.03200 Y-3.69190
X-8.03200 Y-3.69290
X-8.03400 Y-3.69290
X-8.03400 Y-3.69390
X-8.03500 Y-3.69390
X-8.03500 Y-3.69490
X-8.03600 Y-3.69490
X-8.03600 Y-3.69590
X-8.03700 Y-3.69590
X-8.03700 Y-3.69790
X-8.03800 Y-3.69790
X-8.03800 Y-3.69890
X-8.03900 Y-3.69890
X-8.03900 Y-3.69990
X-8.04000 Y-3.69990
X-8.04000 Y-3.70190
X-8.04100 Y-3.70190
X-8.04100 Y-3.70290
X-8.04200 Y-3.70290
X-8.04200 Y-3.70690
X-8.04300 Y-3.70690
X-8.04300 Y-3.71290
X-8.04400 Y-3.71290
X-8.04400 Y-3.72190
X-8.04300 Y-3.72190
X-8.04300 Y-3.72690
X-8.04200 Y-3.72690
X-8.04200 Y-3.73090
X-8.04100 Y-3.73090
X-8.04100 Y-3.73190
X-8.04000 Y-3.73190
X-8.04000 Y-3.73390
X-8.03900 Y-3.73390
X-8.03900 Y-3.73490
X-8.03800 Y-3.73490
X-8.03800 Y-3.73690
X-8.03700 Y-3.73690
X-8.03700 Y-3.73790
X-8.03600 Y-3.73790
X-8.03600 Y-3.73890
X-8.03500 Y-3.73890
X-8.03500 Y-3.73990
X-8.03400 Y-3.73990
X-8.03400 Y-3.74090
X-8.03300 Y-3.74090
X-8.03300 Y-3.74190
X-8.03100 Y-3.74190
X-8.03100 Y-3.74290
X-8.02900 Y-3.74290
X-8.02900 Y-3.74390
X-8.02700 Y-3.74390
X-8.02700 Y-3.74490
X-8.02600 Y-3.74490
X-8.02600 Y-3.74590
X-8.02100 Y-3.74590
X-8.02100 Y-3.74690
X-8.01500 Y-3.74690
X-8.01500 Y-3.74790
X-8.01300 Y-3.74790
X-8.01300 Y-3.74690
X-8.00700 Y-3.74690
X-8.00700 Y-3.74590
X-8.00200 Y-3.74590
X-8.00200 Y-3.74490
X-8.00000 Y-3.74490
X-8.00000 Y-3.74390
X-7.99800 Y-3.74390
X-7.99800 Y-3.74290
X-7.99700 Y-3.74290
X-7.99700 Y-3.74190
X-7.99500 Y-3.74190
X-7.99500 Y-3.74090
X-7.99300 Y-3.74090
X-7.99300 Y-3.73990
X-7.99200 Y-3.73990
X-7.99200 Y-3.73790
X-7.99100 Y-3.73790
X-7.99100 Y-3.73690
X-7.99000 Y-3.73690
X-7.99000 Y-3.73590
X-7.98900 Y-3.73590
X-7.98900 Y-3.73390
X-7.98800 Y-3.73390
X-7.98800 Y-3.73290
X-7.98700 Y-3.73290
X-7.98700 Y-3.73190
X-7.98600 Y-3.73190
X-7.98600 Y-3.72890
X-7.98500 Y-3.72890
X-7.98500 Y-3.72390
X-7.98400 Y-3.72390
X-7.98400 Y-3.72290
X-7.93200 Y-3.72290
X-7.93200 Y-3.72690
X-7.93100 Y-3.72690
X-7.93100 Y-3.72890
X-7.93000 Y-3.72890
X-7.93000 Y-3.72990
X-7.92900 Y-3.72990
X-7.92900 Y-3.73090
X-7.92800 Y-3.73090
X-7.92800 Y-3.73290
X-7.92600 Y-3.73290
X-7.92600 Y-3.73390
X-7.92400 Y-3.73390
X-7.92400 Y-3.73490
X-7.92200 Y-3.73490
X-7.92200 Y-3.73590
X-7.91000 Y-3.73590
X-7.91000 Y-3.73490
X-7.90800 Y-3.73490
X-7.90800 Y-3.73390
X-7.90700 Y-3.73390
X-7.90700 Y-3.73290
X-7.90500 Y-3.73290
X-7.90500 Y-3.73190
X-7.90400 Y-3.73190
X-7.90400 Y-3.72990
X-7.90300 Y-3.72990
X-7.90300 Y-3.72890
X-7.90200 Y-3.72890
X-7.90200 Y-3.72790
X-7.90100 Y-3.72790
X-7.90100 Y-3.72190
X-7.90000 Y-3.72190
X-7.90000 Y-3.71790
X-7.90100 Y-3.71790
X-7.90100 Y-3.71290
X-7.90200 Y-3.71290
X-7.90200 Y-3.71090
X-7.90300 Y-3.71090
X-7.90300 Y-3.70990
X-7.90400 Y-3.70990
X-7.90400 Y-3.70890
X-7.90500 Y-3.70890
X-7.90500 Y-3.70790
X-7.90600 Y-3.70790
X-7.90600 Y-3.70690
X-7.90700 Y-3.70690
X-7.90700 Y-3.70590
X-7.90900 Y-3.70590
X-7.90900 Y-3.70490
X-7.91300 Y-3.70490
X-7.91300 Y-3.70390
X-7.92000 Y-3.70390
X-7.92000 Y-3.70490
X-7.92400 Y-3.70490
X-7.92400 Y-3.70590
X-7.92500 Y-3.70590
X-7.92500 Y-3.70690
X-7.92700 Y-3.70690
X-7.92700 Y-3.70790
X-7.92800 Y-3.70790
X-7.92800 Y-3.70890
X-7.92900 Y-3.70890
X-7.92900 Y-3.70990
X-7.93000 Y-3.70990
X-7.93000 Y-3.71190
X-7.98400 Y-3.71190
X-7.98400 Y-3.70990
X-7.98500 Y-3.70990
X-7.98500 Y-3.70490
X-7.98600 Y-3.70490
X-7.98600 Y-3.70290
X-7.98700 Y-3.70290
X-7.98700 Y-3.70090
X-7.98800 Y-3.70090
X-7.98800 Y-3.69990
X-7.98900 Y-3.69990
X-7.98900 Y-3.69790
X-7.99000 Y-3.69790
X-7.99000 Y-3.69690
X-7.99100 Y-3.69690
X-7.99100 Y-3.69590
X-7.99200 Y-3.69590
X-7.99200 Y-3.69390
X-7.99400 Y-3.69390
X-7.99400 Y-3.69290
X-7.99500 Y-3.69290
X-7.99500 Y-3.69190
X-7.99700 Y-3.69190
X-7.99700 Y-3.69090
X-7.99900 Y-3.69090
X-7.99900 Y-3.68990
X-8.00100 Y-3.68990
X-8.00100 Y-3.68890
X-8.00200 Y-3.68890
X-8.00200 Y-3.68790
X-8.00800 Y-3.68790
X-8.00800 Y-3.68690
X-8.02000 Y-3.68690
X-8.02000 Y-3.68790
G04 P0 ( dwell for no time -- G64 should not smooth over this point )
G00 Z0.19685 ( retract )

G00 X-7.34300 Y-3.76890 ( rapid move to begin. )
G01 Z-0.00394 F39.37008 ( plunge. )
G04 P0 ( dwell for no time -- G64 should not smooth over this point )
X-7.34300 Y-3.76890
X-7.34800 Y-3.76890
X-7.34800 Y-3.76990
X-7.35000 Y-3.76990
X-7.35000 Y-3.77090
X-7.35100 Y-3.77090
X-7.35100 Y-3.77190
X-7.35300 Y-3.77190
X-7.35300 Y-3.77290
X-7.35500 Y-3.77290
X-7.35500 Y-3.77390
X-7.35600 Y-3.77390
X-7.35600 Y-3.77490
X-7.35700 Y-3.77490
X-7.35700 Y-3.77590
X-7.35800 Y-3.77590
X-7.35800 Y-3.77790
X-7.35900 Y-3.77790
X-7.35900 Y-3.77890
X-7.36000 Y-3.77890
X-7.36000 Y-3.77990
X-7.36100 Y-3.77990
X-7.36100 Y-3.78190
X-7.36200 Y-3.78190
X-7.36200 Y-3.78290
X-7.36300 Y-3.78290
X-7.36300 Y-3.78790
X-7.36400 Y-3.78790
X-7.36400 Y-3.78990
X-7.44600 Y-3.78990
X-7.44600 Y-3.78490
X-7.44700 Y-3.78490
X-7.44700 Y-3.78190
X-7.44800 Y-3.78190
X-7.44800 Y-3.78090
X-7.44900 Y-3.78090
X-7.44900 Y-3.77990
X-7.45000 Y-3.77990
X-7.45000 Y-3.77790
X-7.45200 Y-3.77790
X-7.45200 Y-3.77690
X-7.45400 Y-3.77690
X-7.45400 Y-3.77590
X-7.45600 Y-3.77590
X-7.45600 Y-3.77490
X-7.46800 Y-3.77490
X-7.46800 Y-3.77590
X-7.47000 Y-3.77590
X-7.47000 Y-3.77690
X-7.47100 Y-3.77690
X-7.47100 Y-3.77790
X-7.47300 Y-3.77790
X-7.47300 Y-3.77890
X-7.47400 Y-3.77890
X-7.47400 Y-3.78090
X-7.47500 Y-3.78090
X-7.47500 Y-3.78190
X-7.47600 Y-3.78190
X-7.47600 Y-3.78290
X-7.47700 Y-3.78290
X-7.47700 Y-3.78790
X-7.47800 Y-3.78790
X-7.47800 Y-3.79390
X-7.47700 Y-3.79390
X-7.47700 Y-3.79790
X-7.47600 Y-3.79790
X-7.47600 Y-3.79990
X-7.47500 Y-3.79990
X-7.47500 Y-3.80090
X-7.47400 Y-3.80090
X-7.47400 Y-3.80190
X-7.47300 Y-3.80190
X-7.47300 Y-3.80290
X-7.47200 Y-3.80290
X-7.47200 Y-3.80390
X-7.47100 Y-3.80390
X-7.47100 Y-3.80490
X-7.46900 Y-3.80490
X-7.46900 Y-3.80590
X-7.46500 Y-3.80590
X-7.46500 Y-3.80690
X-7.45800 Y-3.80690
X-7.45800 Y-3.80590
X-7.45400 Y-3.80590
X-7.45400 Y-3.80490
X-7.45300 Y-3.80490
X-7.45300 Y-3.80390
X-7.45100 Y-3.80390
X-7.45100 Y-3.80290
X-7.45000 Y-3.80290
X-7.45000 Y-3.80190
X-7.44900 Y-3.80190
X-7.44900 Y-3.80090
X-7.36400 Y-3.80090
X-7.36400 Y-3.80290
X-7.36300 Y-3.80290
X-7.36300 Y-3.80790
X-7.36200 Y-3.80790
X-7.36200 Y-3.80890
X-7.36100 Y-3.80890
X-7.36100 Y-3.81090
X-7.36000 Y-3.81090
X-7.36000 Y-3.81190
X-7.35900 Y-3.81190
X-7.35900 Y-3.81290
X-7.35800 Y-3.81290
X-7.35800 Y-3.81490
X-7.35700 Y-3.81490
X-7.35700 Y-3.81590
X-7.35600 Y-3.81590
X-7.35600 Y-3.81690
X-7.35500 Y-3.81690
X-7.35500 Y-3.81790
X-7.35300 Y-3.81790
X-7.35300 Y-3.81890
X-7.35100 Y-3.81890
X-7.35100 Y-3.81990
X-7.35000 Y-3.81990
X-7.35000 Y-3.82090
X-7.34800 Y-3.82090
X-7.34800 Y-3.82190
X-7.34300 Y-3.82190
X-7.34300 Y-3.82290
X-7.33000 Y-3.82290
X-7.33000 Y-3.82190
X-7.32600 Y-3.82190
X-7.32600 Y-3.82090
X-7.32400 Y-3.82090
X-7.32400 Y-3.81990
X-7.32200 Y-3.81990
X-7.32200 Y-3.81890
X-7.32100 Y-3.81890
X-7.32100 Y-3.81790
X-7.31900 Y-3.81790
X-7.31900 Y-3.81690
X-7.31700 Y-3.81690
X-7.31700 Y-3.81490
X-7.31600 Y-3.81490
X-7.31600 Y-3.81390
X-7.31500 Y-3.81390
X-7.31500 Y-3.81290
X-7.31400 Y-3.81290
X-7.31400 Y-3.81090
X-7.31300 Y-3.81090
X-7.31300 Y-3.80990
X-7.31200 Y-3.80990
X-7.31200 Y-3.80790
X-7.31100 Y-3.80790
X-7.31100 Y-3.80490
X-7.31000 Y-3.80490
X-7.31000 Y-3.79990
X-7.30900 Y-3.79990
X-7.30900 Y-3.79090
X-7.31000 Y-3.79090
X-7.31000 Y-3.78590
X-7.31100 Y-3.78590
X-7.31100 Y-3.78190
X-7.31200 Y-3.78190
X-7.31200 Y-3.78090
X-7.31300 Y-3.78090
X-7.31300 Y-3.77990
X-7.31400 Y-3.77990
X-7.31400 Y-3.77790
X-7.31500 Y-3.77790
X-7.31500 Y-3.77690
X-7.31600 Y-3.77690
X-7.31600 Y-3.77590
X-7.31700 Y-3.77590
X-7.31700 Y-3.77390
X-7.31900 Y-3.77390
X-7.31900 Y-3.77290
X-7.32100 Y-3.77290
X-7.32100 Y-3.77190
X-7.32200 Y-3.77190
X-7.32200 Y-3.77090
X-7.32400 Y-3.77090
X-7.32400 Y-3.76990
X-7.32600 Y-3.76990
X-7.32600 Y-3.76890
X-7.33000 Y-3.76890
X-7.33000 Y-3.76790
X-7.34300 Y-3.76790
X-7.34300 Y-3.76890
G04 P0 ( dwell for no time -- G64 should not smooth over this point )
G00 Z0.19685 ( retract )

G00 X-7.04300 Y-3.77090 ( rapid move to begin. )
G01 Z-0.00394 F39.37008 ( plunge. )
G04 P0 ( dwell for no time -- G64 should not smooth over this point )
X-7.04300 Y-3.77090
X-7.04800 Y-3.77090
X-7.04800 Y-3.77190
X-7.05000 Y-3.77190
X-7.05000 Y-3.77290
X-7.05200 Y-3.77290
X-7.05200 Y-3.77390
X-7.05300 Y-3.77390
X-7.05300 Y-3.77490
X-7.05500 Y-3.77490
X-7.05500 Y-3.77590
X-7.05700 Y-3.77590
X-7.05700 Y-3.77790
X-7.05800 Y-3.77790
X-7.05800 Y-3.77890
X-7.05900 Y-3.77890
X-7.05900 Y-3.77990
X-7.06000 Y-3.77990
X-7.06000 Y-3.78190
X-7.06100 Y-3.78190
X-7.06100 Y-3.78290
X-7.06200 Y-3.78290
X-7.06200 Y-3.78390
X-7.06300 Y-3.78390
X-7.06300 Y-3.78790
X-7.06400 Y-3.78790
X-7.06400 Y-3.79290
X-7.06500 Y-3.79290
X-7.06500 Y-3.80290
X-7.06400 Y-3.80290
X-7.06400 Y-3.80790
X-7.06300 Y-3.80790
X-7.06300 Y-3.81090
X-7.06200 Y-3.81090
X-7.06200 Y-3.81190
X-7.06100 Y-3.81190
X-7.06100 Y-3.81390
X-7.06000 Y-3.81390
X-7.06000 Y-3.81490
X-7.05900 Y-3.81490
X-7.05900 Y-3.81590
X-7.05800 Y-3.81590
X-7.05800 Y-3.81790
X-7.05700 Y-3.81790
X-7.05700 Y-3.81890
X-7.05600 Y-3.81890
X-7.05600 Y-3.81990
X-7.05400 Y-3.81990
X-7.05400 Y-3.82090
X-7.05200 Y-3.82090
X-7.05200 Y-3.82190
X-7.05100 Y-3.82190
X-7.05100 Y-3.82290
X-7.04900 Y-3.82290
X-7.04900 Y-3.82390
X-7.04500 Y-3.82390
X-7.04500 Y-3.82490
X-7.03900 Y-3.82490
X-7.03900 Y-3.82590
X-7.03600 Y-3.82590
X-7.03600 Y-3.82490
X-7.03000 Y-3.82490
X-7.03000 Y-3.82390
X-7.02600 Y-3.82390
X-7.02600 Y-3.82290
X-7.02400 Y-3.82290
X-7.02400 Y-3.82190
X-7.02300 Y-3.82190
X-7.02300 Y-3.82090
X-7.02100 Y-3.82090
X-7.02100 Y-3.81990
X-7.01900 Y-3.81990
X-7.01900 Y-3.81890
X-7.01800 Y-3.81890
X-7.01800 Y-3.81790
X-7.01700 Y-3.81790
X-7.01700 Y-3.81690
X-7.01600 Y-3.81690
X-7.01600 Y-3.81490
X-7.01500 Y-3.81490
X-7.01500 Y-3.81390
X-7.01400 Y-3.81390
X-7.01400 Y-3.81290
X-7.01300 Y-3.81290
X-7.01300 Y-3.81090
X-7.01200 Y-3.81090
X-7.01200 Y-3.80890
X-7.01100 Y-3.80890
X-7.01100 Y-3.80390
X-7.01000 Y-3.80390
X-7.01000 Y-3.79890
X-7.00900 Y-3.79890
X-7.00900 Y-3.79690
X-7.01000 Y-3.79690
X-7.01000 Y-3.79190
X-7.01100 Y-3.79190
X-7.01100 Y-3.78590
X-7.01200 Y-3.78590
X-7.01200 Y-3.78390
X-7.01300 Y-3.78390
X-7.01300 Y-3.78290
X-7.01400 Y-3.78290
X-7.01400 Y-3.78090
X-7.01500 Y-3.78090
X-7.01500 Y-3.77990
X-7.01600 Y-3.77990
X-7.01600 Y-3.77890
X-7.01700 Y-3.77890
X-7.01700 Y-3.77690
X-7.01800 Y-3.77690
X-7.01800 Y-3.77590
X-7.02000 Y-3.77590
X-7.02000 Y-3.77490
X-7.02200 Y-3.77490
X-7.02200 Y-3.77390
X-7.02300 Y-3.77390
X-7.02300 Y-3.77290
X-7.02500 Y-3.77290
X-7.02500 Y-3.77190
X-7.02700 Y-3.77190
X-7.02700 Y-3.77090
X-7.03200 Y-3.77090
X-7.03200 Y-3.76990
X-7.04300 Y-3.76990
X-7.04300 Y-3.77090
G04 P0 ( dwell for no time -- G64 should not smooth over this point )
G00 Z0.19685 ( retract )

G00 X-8.02000 Y-3.78790 ( rapid move to begin. )
G01 Z-0.00394 F39.37008 ( plunge. )
G04 P0 ( dwell for no time -- G64 should not smooth over this point )
X-8.02000 Y-3.78790
X-8.02500 Y-3.78790
X-8.02500 Y-3.78890
X-8.02700 Y-3.78890
X-8.02700 Y-3.78990
X-8.02900 Y-3.78990
X-8.02900 Y-3.79090
X-8.03000 Y-3.79090
X-8.03000 Y-3.79190
X-8.03200 Y-3.79190
X-8.03200 Y-3.79290
X-8.03400 Y-3.79290
X-8.03400 Y-3.79390
X-8.03500 Y-3.79390
X-8.03500 Y-3.79490
X-8.03600 Y-3.79490
X-8.03600 Y-3.79590
X-8.03700 Y-3.79590
X-8.03700 Y-3.79790
X-8.03800 Y-3.79790
X-8.03800 Y-3.79890
X-8.03900 Y-3.79890
X-8.03900 Y-3.79990
X-8.04000 Y-3.79990
X-8.04000 Y-3.80190
X-8.04100 Y-3.80190
X-8.04100 Y-3.80290
X-8.04200 Y-3.80290
X-8.04200 Y-3.80690
X-8.04300 Y-3.80690
X-8.04300 Y-3.81290
X-8.04400 Y-3.81290
X-8.04400 Y-3.82190
X-8.04300 Y-3.82190
X-8.04300 Y-3.82690
X-8.04200 Y-3.82690
X-8.04200 Y-3.83090
X-8.04100 Y-3.83090
X-8.04100 Y-3.83190
X-8.04000 Y-3.83190
X-8.04000 Y-3.83390
X-8.03900 Y-3.83390
X-8.03900 Y-3.83490
X-8.03800 Y-3.83490
X-8.03800 Y-3.83690
X-8.03700 Y-3.83690
X-8.03700 Y-3.83790
X-8.03600 Y-3.83790
X-8.03600 Y-3.83890
X-8.03500 Y-3.83890
X-8.03500 Y-3.83990
X-8.03400 Y-3.83990
X-8.03400 Y-3.84090
X-8.03300 Y-3.84090
X-8.03300 Y-3.84190
X-8.03100 Y-3.84190
X-8.03100 Y-3.84290
X-8.02900 Y-3.84290
X-8.02900 Y-3.84390
X-8.02700 Y-3.84390
X-8.02700 Y-3.84490
X-8.02600 Y-3.84490
X-8.02600 Y-3.84590
X-8.02100 Y-3.84590
X-8.02100 Y-3.84690
X-8.01500 Y-3.84690
X-8.01500 Y-3.84790
X-8.01300 Y-3.84790
X-8.01300 Y-3.84690
X-8.00700 Y-3.84690
X-8.00700 Y-3.84590
X-8.00200 Y-3.84590
X-8.00200 Y-3.84490
X-8.00000 Y-3.84490
X-8.00000 Y-3.84390
X-7.99800 Y-3.84390
X-7.99800 Y-3.84290
X-7.99700 Y-3.84290
X-7.99700 Y-3.84190
X-7.99500 Y-3.84190
X-7.99500 Y-3.84090
X-7.99300 Y-3.84090
X-7.99300 Y-3.83990
X-7.99200 Y-3.83990
X-7.99200 Y-3.83790
X-7.99100 Y-3.83790
X-7.99100 Y-3.83690
X-7.99000 Y-3.83690
X-7.99000 Y-3.83590
X-7.98900 Y-3.83590
X-7.98900 Y-3.83390
X-7.98800 Y-3.83390
X-7.98800 Y-3.83290
X-7.98700 Y-3.83290
X-7.98700 Y-3.83190
X-7.98600 Y-3.83190
X-7.98600 Y-3.82890
X-7.98500 Y-3.82890
X-7.98500 Y-3.82390
X-7.98400 Y-3.82390
X-7.98400 Y-3.82290
X-7.92100 Y-3.82290
X-7.92100 Y-3.82390
X-7.92000 Y-3.82390
X-7.92000 Y-3.82490
X-7.91900 Y-3.82490
X-7.91900 Y-3.82590
X-7.91800 Y-3.82590
X-7.91800 Y-3.82690
X-7.91700 Y-3.82690
X-7.91700 Y-3.82790
X-7.91600 Y-3.82790
X-7.91600 Y-3.82890
X-7.91500 Y-3.82890
X-7.91500 Y-3.82990
X-7.91400 Y-3.82990
X-7.91400 Y-3.83090
X-7.91300 Y-3.83090
X-7.91300 Y-3.83190
X-7.91200 Y-3.83190
X-7.91200 Y-3.83290
X-7.91100 Y-3.83290
X-7.91100 Y-3.83390
X-7.91000 Y-3.83390
X-7.91000 Y-3.83490
X-7.90900 Y-3.83490
X-7.90900 Y-3.83590
X-7.90800 Y-3.83590
X-7.90800 Y-3.83690
X-7.90700 Y-3.83690
X-7.90700 Y-3.83790
X-7.90600 Y-3.83790
X-7.90600 Y-3.83890
X-7.90500 Y-3.83890
X-7.90500 Y-3.83990
X-7.90400 Y-3.83990
X-7.90400 Y-3.84090
X-7.90300 Y-3.84090
X-7.90300 Y-3.84190
X-7.90200 Y-3.84190
X-7.90200 Y-3.84290
X-7.90100 Y-3.84290
X-7.90100 Y-3.84390
X-7.90000 Y-3.84390
X-7.90000 Y-3.84490
X-7.89900 Y-3.84490
X-7.89900 Y-3.84590
X-7.89800 Y-3.84590
X-7.89800 Y-3.84690
X-7.89700 Y-3.84690
X-7.89700 Y-3.84790
X-7.89600 Y-3.84790
X-7.89600 Y-3.84890
X-7.89500 Y-3.84890
X-7.89500 Y-3.84990
X-7.89400 Y-3.84990
X-7.89400 Y-3.85090
X-7.89300 Y-3.85090
X-7.89300 Y-3.85190
X-7.89200 Y-3.85190
X-7.89200 Y-3.85290
X-7.89100 Y-3.85290
X-7.89100 Y-3.85390
X-7.89000 Y-3.85390
X-7.89000 Y-3.85490
X-7.88900 Y-3.85490
X-7.88900 Y-3.85590
X-7.88800 Y-3.85590
X-7.88800 Y-3.85690
X-7.88700 Y-3.85690
X-7.88700 Y-3.85790
X-7.88600 Y-3.85790
X-7.88600 Y-3.85890
X-7.88500 Y-3.85890
X-7.88500 Y-3.85990
X-7.88400 Y-3.85990
X-7.88400 Y-3.86090
X-7.88300 Y-3.86090
X-7.88300 Y-3.86190
X-7.88200 Y-3.86190
X-7.88200 Y-3.86290
X-7.88100 Y-3.86290
X-7.88100 Y-3.86390
X-7.88000 Y-3.86390
X-7.88000 Y-3.86490
X-7.87900 Y-3.86490
X-7.87900 Y-3.86590
X-7.87800 Y-3.86590
X-7.87800 Y-3.86690
X-7.87700 Y-3.86690
X-7.87700 Y-3.86790
X-7.87600 Y-3.86790
X-7.87600 Y-3.87290
X-7.87700 Y-3.87290
X-7.87700 Y-3.87890
X-7.87600 Y-3.87890
X-7.87600 Y-3.88290
X-7.87500 Y-3.88290
X-7.87500 Y-3.88490
X-7.87400 Y-3.88490
X-7.87400 Y-3.88590
X-7.87300 Y-3.88590
X-7.87300 Y-3.88690
X-7.87200 Y-3.88690
X-7.87200 Y-3.88790
X-7.87100 Y-3.88790
X-7.87100 Y-3.88890
X-7.87000 Y-3.88890
X-7.87000 Y-3.88990
X-7.86800 Y-3.88990
X-7.86800 Y-3.89090
X-7.86400 Y-3.89090
X-7.86400 Y-3.89190
X-7.85700 Y-3.89190
X-7.85700 Y-3.89090
X-7.85300 Y-3.89090
X-7.85300 Y-3.88990
X-7.85200 Y-3.88990
X-7.85200 Y-3.88890
X-7.85000 Y-3.88890
X-7.85000 Y-3.88790
X-7.84900 Y-3.88790
X-7.84900 Y-3.88690
X-7.84800 Y-3.88690
X-7.84800 Y-3.88590
X-7.84700 Y-3.88590
X-7.84700 Y-3.88390
X-7.84600 Y-3.88390
X-7.84600 Y-3.88190
X-7.84500 Y-3.88190
X-7.84500 Y-3.87690
X-7.84400 Y-3.87690
X-7.84400 Y-3.87490
X-7.84500 Y-3.87490
X-7.84500 Y-3.86990
X-7.84600 Y-3.86990
X-7.84600 Y-3.86690
X-7.84700 Y-3.86690
X-7.84700 Y-3.86590
X-7.84800 Y-3.86590
X-7.84800 Y-3.86490
X-7.84900 Y-3.86490
X-7.84900 Y-3.86290
X-7.85100 Y-3.86290
X-7.85100 Y-3.86190
X-7.85300 Y-3.86190
X-7.85300 Y-3.86090
X-7.85500 Y-3.86090
X-7.85500 Y-3.85990
X-7.86700 Y-3.85990
X-7.86700 Y-3.86090
X-7.86800 Y-3.86090
X-7.86800 Y-3.85990
X-7.86900 Y-3.85990
X-7.86900 Y-3.85890
X-7.87000 Y-3.85890
X-7.87000 Y-3.85790
X-7.87100 Y-3.85790
X-7.87100 Y-3.85690
X-7.87200 Y-3.85690
X-7.87200 Y-3.85590
X-7.87300 Y-3.85590
X-7.87300 Y-3.85490
X-7.87400 Y-3.85490
X-7.87400 Y-3.85390
X-7.87500 Y-3.85390
X-7.87500 Y-3.85290
X-7.87600 Y-3.85290
X-7.87600 Y-3.85190
X-7.87700 Y-3.85190
X-7.87700 Y-3.85090
X-7.87800 Y-3.85090
X-7.87800 Y-3.84990
X-7.87900 Y-3.84990
X-7.87900 Y-3.84890
X-7.88000 Y-3.84890
X-7.88000 Y-3.84790
X-7.88100 Y-3.84790
X-7.88100 Y-3.84690
X-7.88200 Y-3.84690
X-7.88200 Y-3.84590
X-7.88300 Y-3.84590
X-7.88300 Y-3.84490
X-7.88400 Y-3.84490
X-7.88400 Y-3.84390
X-7.88500 Y-3.84390
X-7.88500 Y-3.84290
X-7.88600 Y-3.84290
X-7.88600 Y-3.84190
X-7.88700 Y-3.84190
X-7.88700 Y-3.84090
X-7.88800 Y-3.84090
X-7.88800 Y-3.83990
X-7.88900 Y-3.83990
X-7.88900 Y-3.83890
X-7.89000 Y-3.83890
X-7.89000 Y-3.83790
X-7.89100 Y-3.83790
X-7.89100 Y-3.83690
X-7.89200 Y-3.83690
X-7.89200 Y-3.83590
X-7.89300 Y-3.83590
X-7.89300 Y-3.83490
X-7.89400 Y-3.83490
X-7.89400 Y-3.83390
X-7.89500 Y-3.83390
X-7.89500 Y-3.83290
X-7.89600 Y-3.83290
X-7.89600 Y-3.83190
X-7.89700 Y-3.83190
X-7.89700 Y-3.83090
X-7.89800 Y-3.83090
X-7.89800 Y-3.82990
X-7.89900 Y-3.82990
X-7.89900 Y-3.82890
X-7.90000 Y-3.82890
X-7.90000 Y-3.82790
X-7.90100 Y-3.82790
X-7.90100 Y-3.82690
X-7.90200 Y-3.82690
X-7.90200 Y-3.82590
X-7.90300 Y-3.82590
X-7.90300 Y-3.82490
X-7.90400 Y-3.82490
X-7.90400 Y-3.82390
X-7.90500 Y-3.82390
X-7.90500 Y-3.82290
X-7.90600 Y-3.82290
X-7.90600 Y-3.82190
X-7.90700 Y-3.82190
X-7.90700 Y-3.82090
X-7.90800 Y-3.82090
X-7.90800 Y-3.81990
X-7.90900 Y-3.81990
X-7.90900 Y-3.81890
X-7.91000 Y-3.81890
X-7.91000 Y-3.81790
X-7.91100 Y-3.81790
X-7.91100 Y-3.81690
X-7.91200 Y-3.81690
X-7.91200 Y-3.81590
X-7.91300 Y-3.81590
X-7.91300 Y-3.81490
X-7.91400 Y-3.81490
X-7.91400 Y-3.81390
X-7.91500 Y-3.81390
X-7.91500 Y-3.81290
X-7.91600 Y-3.81290
X-7.91600 Y-3.81190
X-7.98400 Y-3.81190
X-7.98400 Y-3.80990
X-7.98500 Y-3.80990
X-7.98500 Y-3.80490
X-7.98600 Y-3.80490
X-7.98600 Y-3.80290
X-7.98700 Y-3.80290
X-7.98700 Y-3.80090
X-7.98800 Y-3.80090
X-7.98800 Y-3.79990
X-7.98900 Y-3.79990
X-7.98900 Y-3.79790
X-7.99000 Y-3.79790
X-7.99000 Y-3.79690
X-7.99100 Y-3.79690
X-7.99100 Y-3.79590
X-7.99200 Y-3.79590
X-7.99200 Y-3.79390
X-7.99400 Y-3.79390
X-7.99400 Y-3.79290
X-7.99500 Y-3.79290
X-7.99500 Y-3.79190
X-7.99700 Y-3.79190
X-7.99700 Y-3.79090
X-7.99900 Y-3.79090
X-7.99900 Y-3.78990
X-8.00100 Y-3.78990
X-8.00100 Y-3.78890
X-8.00200 Y-3.78890
X-8.00200 Y-3.78790
X-8.00800 Y-3.78790
X-8.00800 Y-3.78690
X-8.02000 Y-3.78690
X-8.02000 Y-3.78790
G04 P0 ( dwell for no time -- G64 should not smooth over this point )
G00 Z0.19685 ( retract )

G00 X-8.12000 Y-3.78790 ( rapid move to begin. )
G01 Z-0.00394 F39.37008 ( plunge. )
G04 P0 ( dwell for no time -- G64 should not smooth over this point )
X-8.12000 Y-3.78790
X-8.12500 Y-3.78790
X-8.12500 Y-3.78890
X-8.12700 Y-3.78890
X-8.12700 Y-3.78990
X-8.12900 Y-3.78990
X-8.12900 Y-3.79090
X-8.13000 Y-3.79090
X-8.13000 Y-3.79190
X-8.13200 Y-3.79190
X-8.13200 Y-3.79290
X-8.13400 Y-3.79290
X-8.13400 Y-3.79390
X-8.13500 Y-3.79390
X-8.13500 Y-3.79490
X-8.13600 Y-3.79490
X-8.13600 Y-3.79590
X-8.13700 Y-3.79590
X-8.13700 Y-3.79790
X-8.13800 Y-3.79790
X-8.13800 Y-3.79890
X-8.13900 Y-3.79890
X-8.13900 Y-3.79990
X-8.14000 Y-3.79990
X-8.14000 Y-3.80190
X-8.14100 Y-3.80190
X-8.14100 Y-3.80290
X-8.14200 Y-3.80290
X-8.14200 Y-3.80690
X-8.14300 Y-3.80690
X-8.14300 Y-3.81290
X-8.14400 Y-3.81290
X-8.14400 Y-3.82190
X-8.14300 Y-3.82190
X-8.14300 Y-3.82690
X-8.14200 Y-3.82690
X-8.14200 Y-3.83090
X-8.14100 Y-3.83090
X-8.14100 Y-3.83190
X-8.14000 Y-3.83190
X-8.14000 Y-3.83390
X-8.13900 Y-3.83390
X-8.13900 Y-3.83490
X-8.13800 Y-3.83490
X-8.13800 Y-3.83690
X-8.13700 Y-3.83690
X-8.13700 Y-3.83790
X-8.13600 Y-3.83790
X-8.13600 Y-3.83890
X-8.13500 Y-3.83890
X-8.13500 Y-3.83990
X-8.13400 Y-3.83990
X-8.13400 Y-3.84090
X-8.13300 Y-3.84090
X-8.13300 Y-3.84190
X-8.13100 Y-3.84190
X-8.13100 Y-3.84290
X-8.12900 Y-3.84290
X-8.12900 Y-3.84390
X-8.12700 Y-3.84390
X-8.12700 Y-3.84490
X-8.12600 Y-3.84490
X-8.12600 Y-3.84590
X-8.12100 Y-3.84590
X-8.12100 Y-3.84690
X-8.11500 Y-3.84690
X-8.11500 Y-3.84790
X-8.11300 Y-3.84790
X-8.11300 Y-3.84690
X-8.10700 Y-3.84690
X-8.10700 Y-3.84590
X-8.10200 Y-3.84590
X-8.10200 Y-3.84490
X-8.10000 Y-3.84490
X-8.10000 Y-3.84390
X-8.09800 Y-3.84390
X-8.09800 Y-3.84290
X-8.09700 Y-3.84290
X-8.09700 Y-3.84190
X-8.09500 Y-3.84190
X-8.09500 Y-3.84090
X-8.09400 Y-3.84090
X-8.09400 Y-3.84190
X-8.09300 Y-3.84190
X-8.09300 Y-3.84290
X-8.09200 Y-3.84290
X-8.09200 Y-3.84390
X-8.09100 Y-3.84390
X-8.09100 Y-3.84490
X-8.09000 Y-3.84490
X-8.09000 Y-3.84590
X-8.08900 Y-3.84590
X-8.08900 Y-3.84690
X-8.08800 Y-3.84690
X-8.08800 Y-3.84790
X-8.08700 Y-3.84790
X-8.08700 Y-3.84890
X-8.08600 Y-3.84890
X-8.08600 Y-3.84990
X-8.08500 Y-3.84990
X-8.08500 Y-3.85090
X-8.08400 Y-3.85090
X-8.08400 Y-3.85190
X-8.08300 Y-3.85190
X-8.08300 Y-3.85290
X-8.08200 Y-3.85290
X-8.08200 Y-3.85390
X-8.08100 Y-3.85390
X-8.08100 Y-3.85490
X-8.08000 Y-3.85490
X-8.08000 Y-3.85590
X-8.07900 Y-3.85590
X-8.07900 Y-3.85690
X-8.07800 Y-3.85690
X-8.07800 Y-3.85790
X-8.07700 Y-3.85790
X-8.07700 Y-3.85890
X-8.07600 Y-3.85890
X-8.07600 Y-3.85990
X-8.07500 Y-3.85990
X-8.07500 Y-3.86090
X-8.07400 Y-3.86090
X-8.07400 Y-3.86190
X-8.07300 Y-3.86190
X-8.07300 Y-3.86290
X-8.07200 Y-3.86290
X-8.07200 Y-3.86390
X-8.07100 Y-3.86390
X-8.07100 Y-3.86490
X-8.07000 Y-3.86490
X-8.07000 Y-3.86590
X-8.06900 Y-3.86590
X-8.06900 Y-3.86690
X-8.06800 Y-3.86690
X-8.06800 Y-3.86790
X-8.06700 Y-3.86790
X-8.06700 Y-3.86890
X-8.06600 Y-3.86890
X-8.06600 Y-3.86990
X-8.06500 Y-3.86990
X-8.06500 Y-3.87090
X-7.94100 Y-3.87090
X-7.94100 Y-3.87190
X-7.94000 Y-3.87190
X-7.94000 Y-3.87290
X-7.93900 Y-3.87290
X-7.93900 Y-3.87390
X-7.93800 Y-3.87390
X-7.93800 Y-3.87490
X-7.93700 Y-3.87490
X-7.93700 Y-3.87590
X-7.93600 Y-3.87590
X-7.93600 Y-3.87690
X-7.93500 Y-3.87690
X-7.93500 Y-3.87790
X-7.93400 Y-3.87790
X-7.93400 Y-3.87890
X-7.93300 Y-3.87890
X-7.93300 Y-3.87990
X-7.93200 Y-3.87990
X-7.93200 Y-3.88090
X-7.93100 Y-3.88090
X-7.93100 Y-3.88190
X-7.93000 Y-3.88190
X-7.93000 Y-3.88290
X-7.92900 Y-3.88290
X-7.92900 Y-3.88390
X-7.92800 Y-3.88390
X-7.92800 Y-3.88490
X-7.92700 Y-3.88490
X-7.92700 Y-3.88590
X-7.92600 Y-3.88590
X-7.92600 Y-3.88690
X-7.92500 Y-3.88690
X-7.92500 Y-3.88790
X-7.92400 Y-3.88790
X-7.92400 Y-3.88890
X-7.92300 Y-3.88890
X-7.92300 Y-3.88990
X-7.92200 Y-3.88990
X-7.92200 Y-3.89090
X-7.92100 Y-3.89090
X-7.92100 Y-3.89190
X-7.92000 Y-3.89190
X-7.92000 Y-3.89290
X-7.91900 Y-3.89290
X-7.91900 Y-3.89390
X-7.91800 Y-3.89390
X-7.91800 Y-3.89490
X-7.91700 Y-3.89490
X-7.91700 Y-3.89590
X-7.91600 Y-3.89590
X-7.91600 Y-3.89690
X-7.91500 Y-3.89690
X-7.91500 Y-3.89790
X-7.91400 Y-3.89790
X-7.91400 Y-3.89890
X-7.91300 Y-3.89890
X-7.91300 Y-3.89990
X-7.91200 Y-3.89990
X-7.91200 Y-3.90090
X-7.91100 Y-3.90090
X-7.91100 Y-3.90190
X-7.91000 Y-3.90190
X-7.91000 Y-3.90290
X-7.90900 Y-3.90290
X-7.90900 Y-3.90390
X-7.90800 Y-3.90390
X-7.90800 Y-3.90490
X-7.90700 Y-3.90490
X-7.90700 Y-3.90590
X-7.90600 Y-3.90590
X-7.90600 Y-3.90690
X-7.90500 Y-3.90690
X-7.90500 Y-3.90790
X-7.90400 Y-3.90790
X-7.90400 Y-3.90890
X-7.90300 Y-3.90890
X-7.90300 Y-3.90990
X-7.90200 Y-3.90990
X-7.90200 Y-3.91090
X-7.90100 Y-3.91090
X-7.90100 Y-3.91190
X-7.90000 Y-3.91190
X-7.90000 Y-3.91290
X-7.89900 Y-3.91290
X-7.89900 Y-3.91390
X-7.89800 Y-3.91390
X-7.89800 Y-3.91490
X-7.89700 Y-3.91490
X-7.89700 Y-3.91590
X-7.89600 Y-3.91590
X-7.89600 Y-3.91690
X-7.89500 Y-3.91690
X-7.89500 Y-3.91790
X-7.89400 Y-3.91790
X-7.89400 Y-3.91890
X-7.89300 Y-3.91890
X-7.89300 Y-3.91990
X-7.89200 Y-3.91990
X-7.89200 Y-3.92090
X-7.89100 Y-3.92090
X-7.89100 Y-3.92190
X-7.89000 Y-3.92190
X-7.89000 Y-3.92290
X-7.88900 Y-3.92290
X-7.88900 Y-3.92390
X-7.88800 Y-3.92390
X-7.88800 Y-3.92490
X-7.88700 Y-3.92490
X-7.88700 Y-3.92590
X-7.88600 Y-3.92590
X-7.88600 Y-3.92690
X-7.88500 Y-3.92690
X-7.88500 Y-3.92790
X-7.88400 Y-3.92790
X-7.88400 Y-3.92890
X-7.88300 Y-3.92890
X-7.88300 Y-3.92990
X-7.88200 Y-3.92990
X-7.88200 Y-3.93090
X-7.88100 Y-3.93090
X-7.88100 Y-3.93190
X-7.88000 Y-3.93190
X-7.88000 Y-3.93290
X-7.87900 Y-3.93290
X-7.87900 Y-3.93390
X-7.87800 Y-3.93390
X-7.87800 Y-3.93890
X-7.87900 Y-3.93890
X-7.87900 Y-3.94490
X-7.87800 Y-3.94490
X-7.87800 Y-3.94890
X-7.87700 Y-3.94890
X-7.87700 Y-3.95090
X-7.87600 Y-3.95090
X-7.87600 Y-3.95190
X-7.87500 Y-3.95190
X-7.87500 Y-3.95290
X-7.87400 Y-3.95290
X-7.87400 Y-3.95390
X-7.87300 Y-3.95390
X-7.87300 Y-3.95490
X-7.87200 Y-3.95490
X-7.87200 Y-3.95590
X-7.87000 Y-3.95590
X-7.87000 Y-3.95690
X-7.86600 Y-3.95690
X-7.86600 Y-3.95790
X-7.85900 Y-3.95790
X-7.85900 Y-3.95690
X-7.85500 Y-3.95690
X-7.85500 Y-3.95590
X-7.85400 Y-3.95590
X-7.85400 Y-3.95490
X-7.85200 Y-3.95490
X-7.85200 Y-3.95390
X-7.85100 Y-3.95390
X-7.85100 Y-3.95290
X-7.85000 Y-3.95290
X-7.85000 Y-3.95190
X-7.84900 Y-3.95190
X-7.84900 Y-3.94990
X-7.84800 Y-3.94990
X-7.84800 Y-3.94790
X-7.84700 Y-3.94790
X-7.84700 Y-3.94290
X-7.84600 Y-3.94290
X-7.84600 Y-3.94090
X-7.84700 Y-3.94090
X-7.84700 Y-3.93590
X-7.84800 Y-3.93590
X-7.84800 Y-3.93290
X-7.84900 Y-3.93290
X-7.84900 Y-3.93190
X-7.85000 Y-3.93190
X-7.85000 Y-3.93090
X-7.85100 Y-3.93090
X-7.85100 Y-3.92890
X-7.85300 Y-3.92890
X-7.85300 Y-3.92790
X-7.85500 Y-3.92790
X-7.85500 Y-3.92690
X-7.85700 Y-3.92690
X-7.85700 Y-3.92590
X-7.86900 Y-3.92590
X-7.86900 Y-3.92690
X-7.87000 Y-3.92690
X-7.87000 Y-3.92590
X-7.87100 Y-3.92590
X-7.87100 Y-3.92490
X-7.87200 Y-3.92490
X-7.87200 Y-3.92390
X-7.87300 Y-3.92390
X-7.87300 Y-3.92290
X-7.87400 Y-3.92290
X-7.87400 Y-3.92190
X-7.87500 Y-3.92190
X-7.87500 Y-3.92090
X-7.87600 Y-3.92090
X-7.87600 Y-3.91990
X-7.87700 Y-3.91990
X-7.87700 Y-3.91890
X-7.87800 Y-3.91890
X-7.87800 Y-3.91790
X-7.87900 Y-3.91790
X-7.87900 Y-3.91690
X-7.88000 Y-3.91690
X-7.88000 Y-3.91590
X-7.88100 Y-3.91590
X-7.88100 Y-3.91490
X-7.88200 Y-3.91490
X-7.88200 Y-3.91390
X-7.88300 Y-3.91390
X-7.88300 Y-3.91290
X-7.88400 Y-3.91290
X-7.88400 Y-3.91190
X-7.88500 Y-3.91190
X-7.88500 Y-3.91090
X-7.88600 Y-3.91090
X-7.88600 Y-3.90990
X-7.88700 Y-3.90990
X-7.88700 Y-3.90890
X-7.88800 Y-3.90890
X-7.88800 Y-3.90790
X-7.88900 Y-3.90790
X-7.88900 Y-3.90690
X-7.89000 Y-3.90690
X-7.89000 Y-3.90590
X-7.89100 Y-3.90590
X-7.89100 Y-3.90490
X-7.89200 Y-3.90490
X-7.89200 Y-3.90390
X-7.89300 Y-3.90390
X-7.89300 Y-3.90290
X-7.89400 Y-3.90290
X-7.89400 Y-3.90190
X-7.89500 Y-3.90190
X-7.89500 Y-3.90090
X-7.89600 Y-3.90090
X-7.89600 Y-3.89990
X-7.89700 Y-3.89990
X-7.89700 Y-3.89890
X-7.89800 Y-3.89890
X-7.89800 Y-3.89790
X-7.89900 Y-3.89790
X-7.89900 Y-3.89690
X-7.90000 Y-3.89690
X-7.90000 Y-3.89590
X-7.90100 Y-3.89590
X-7.90100 Y-3.89490
X-7.90200 Y-3.89490
X-7.90200 Y-3.89390
X-7.90300 Y-3.89390
X-7.90300 Y-3.89290
X-7.90400 Y-3.89290
X-7.90400 Y-3.89190
X-7.90500 Y-3.89190
X-7.90500 Y-3.89090
X-7.90600 Y-3.89090
X-7.90600 Y-3.88990
X-7.90700 Y-3.88990
X-7.90700 Y-3.88890
X-7.90800 Y-3.88890
X-7.90800 Y-3.88790
X-7.90900 Y-3.88790
X-7.90900 Y-3.88690
X-7.91000 Y-3.88690
X-7.91000 Y-3.88590
X-7.91100 Y-3.88590
X-7.91100 Y-3.88490
X-7.91200 Y-3.88490
X-7.91200 Y-3.88390
X-7.91300 Y-3.88390
X-7.91300 Y-3.88290
X-7.91400 Y-3.88290
X-7.91400 Y-3.88190
X-7.91500 Y-3.88190
X-7.91500 Y-3.88090
X-7.91600 Y-3.88090
X-7.91600 Y-3.87990
X-7.91700 Y-3.87990
X-7.91700 Y-3.87890
X-7.91800 Y-3.87890
X-7.91800 Y-3.87790
X-7.91900 Y-3.87790
X-7.91900 Y-3.87690
X-7.92000 Y-3.87690
X-7.92000 Y-3.87590
X-7.92100 Y-3.87590
X-7.92100 Y-3.87490
X-7.92200 Y-3.87490
X-7.92200 Y-3.87390
X-7.92300 Y-3.87390
X-7.92300 Y-3.87290
X-7.92400 Y-3.87290
X-7.92400 Y-3.87190
X-7.92500 Y-3.87190
X-7.92500 Y-3.87090
X-7.92600 Y-3.87090
X-7.92600 Y-3.86990
X-7.92700 Y-3.86990
X-7.92700 Y-3.86890
X-7.92800 Y-3.86890
X-7.92800 Y-3.86790
X-7.92900 Y-3.86790
X-7.92900 Y-3.86690
X-7.93000 Y-3.86690
X-7.93000 Y-3.86590
X-7.93100 Y-3.86590
X-7.93100 Y-3.86490
X-7.93200 Y-3.86490
X-7.93200 Y-3.86390
X-7.93300 Y-3.86390
X-7.93300 Y-3.86290
X-7.93400 Y-3.86290
X-7.93400 Y-3.86190
X-7.93500 Y-3.86190
X-7.93500 Y-3.86090
X-7.93800 Y-3.86090
X-7.93800 Y-3.85990
X-8.06000 Y-3.85990
X-8.06000 Y-3.85890
X-8.06100 Y-3.85890
X-8.06100 Y-3.85790
X-8.06200 Y-3.85790
X-8.06200 Y-3.85690
X-8.06300 Y-3.85690
X-8.06300 Y-3.85590
X-8.06400 Y-3.85590
X-8.06400 Y-3.85490
X-8.06500 Y-3.85490
X-8.06500 Y-3.85390
X-8.06600 Y-3.85390
X-8.06600 Y-3.85290
X-8.06700 Y-3.85290
X-8.06700 Y-3.85190
X-8.06800 Y-3.85190
X-8.06800 Y-3.85090
X-8.06900 Y-3.85090
X-8.06900 Y-3.84990
X-8.07000 Y-3.84990
X-8.07000 Y-3.84890
X-8.07100 Y-3.84890
X-8.07100 Y-3.84790
X-8.07200 Y-3.84790
X-8.07200 Y-3.84690
X-8.07300 Y-3.84690
X-8.07300 Y-3.84590
X-8.07400 Y-3.84590
X-8.07400 Y-3.84490
X-8.07500 Y-3.84490
X-8.07500 Y-3.84390
X-8.07600 Y-3.84390
X-8.07600 Y-3.84290
X-8.07700 Y-3.84290
X-8.07700 Y-3.84190
X-8.07800 Y-3.84190
X-8.07800 Y-3.84090
X-8.07900 Y-3.84090
X-8.07900 Y-3.83990
X-8.08000 Y-3.83990
X-8.08000 Y-3.83890
X-8.08100 Y-3.83890
X-8.08100 Y-3.83790
X-8.08200 Y-3.83790
X-8.08200 Y-3.83690
X-8.08300 Y-3.83690
X-8.08300 Y-3.83590
X-8.08400 Y-3.83590
X-8.08400 Y-3.83490
X-8.08500 Y-3.83490
X-8.08500 Y-3.83390
X-8.08600 Y-3.83390
X-8.08600 Y-3.83290
X-8.08700 Y-3.83290
X-8.08700 Y-3.83190
X-8.08600 Y-3.83190
X-8.08600 Y-3.82890
X-8.08500 Y-3.82890
X-8.08500 Y-3.82390
X-8.08400 Y-3.82390
X-8.08400 Y-3.81890
X-8.08300 Y-3.81890
X-8.08300 Y-3.81590
X-8.08400 Y-3.81590
X-8.08400 Y-3.80990
X-8.08500 Y-3.80990
X-8.08500 Y-3.80490
X-8.08600 Y-3.80490
X-8.08600 Y-3.80290
X-8.08700 Y-3.80290
X-8.08700 Y-3.80090
X-8.08800 Y-3.80090
X-8.08800 Y-3.79990
X-8.08900 Y-3.79990
X-8.08900 Y-3.79790
X-8.09000 Y-3.79790
X-8.09000 Y-3.79690
X-8.09100 Y-3.79690
X-8.09100 Y-3.79590
X-8.09200 Y-3.79590
X-8.09200 Y-3.79390
X-8.09400 Y-3.79390
X-8.09400 Y-3.79290
X-8.09500 Y-3.79290
X-8.09500 Y-3.79190
X-8.09700 Y-3.79190
X-8.09700 Y-3.79090
X-8.09900 Y-3.79090
X-8.09900 Y-3.78990
X-8.10100 Y-3.78990
X-8.10100 Y-3.78890
X-8.10200 Y-3.78890
X-8.10200 Y-3.78790
X-8.10800 Y-3.78790
X-8.10800 Y-3.78690
X-8.12000 Y-3.78690
X-8.12000 Y-3.78790
G04 P0 ( dwell for no time -- G64 should not smooth over this point )
G00 Z0.19685 ( retract )

G00 X-7.34300 Y-3.86890 ( rapid move to begin. )
G01 Z-0.00394 F39.37008 ( plunge. )
G04 P0 ( dwell for no time -- G64 should not smooth over this point )
X-7.34300 Y-3.86890
X-7.34800 Y-3.86890
X-7.34800 Y-3.86990
X-7.35000 Y-3.86990
X-7.35000 Y-3.87090
X-7.35100 Y-3.87090
X-7.35100 Y-3.87190
X-7.35300 Y-3.87190
X-7.35300 Y-3.87290
X-7.35500 Y-3.87290
X-7.35500 Y-3.87390
X-7.35600 Y-3.87390
X-7.35600 Y-3.87490
X-7.35700 Y-3.87490
X-7.35700 Y-3.87590
X-7.35800 Y-3.87590
X-7.35800 Y-3.87790
X-7.35900 Y-3.87790
X-7.35900 Y-3.87890
X-7.36000 Y-3.87890
X-7.36000 Y-3.87990
X-7.36100 Y-3.87990
X-7.36100 Y-3.88190
X-7.36200 Y-3.88190
X-7.36200 Y-3.88290
X-7.36300 Y-3.88290
X-7.36300 Y-3.88790
X-7.36400 Y-3.88790
X-7.36400 Y-3.88990
X-7.45000 Y-3.88990
X-7.45000 Y-3.88690
X-7.45100 Y-3.88690
X-7.45100 Y-3.88590
X-7.45200 Y-3.88590
X-7.45200 Y-3.88390
X-7.45300 Y-3.88390
X-7.45300 Y-3.88290
X-7.45400 Y-3.88290
X-7.45400 Y-3.88190
X-7.45600 Y-3.88190
X-7.45600 Y-3.88090
X-7.45800 Y-3.88090
X-7.45800 Y-3.87990
X-7.46100 Y-3.87990
X-7.46100 Y-3.87890
X-7.46900 Y-3.87890
X-7.46900 Y-3.87990
X-7.47200 Y-3.87990
X-7.47200 Y-3.88090
X-7.47400 Y-3.88090
X-7.47400 Y-3.88190
X-7.47600 Y-3.88190
X-7.47600 Y-3.88290
X-7.47700 Y-3.88290
X-7.47700 Y-3.88490
X-7.47800 Y-3.88490
X-7.47800 Y-3.88590
X-7.47900 Y-3.88590
X-7.47900 Y-3.88690
X-7.48000 Y-3.88690
X-7.48000 Y-3.89090
X-7.48100 Y-3.89090
X-7.48100 Y-3.89890
X-7.48000 Y-3.89890
X-7.48000 Y-3.90290
X-7.47900 Y-3.90290
X-7.47900 Y-3.90390
X-7.47800 Y-3.90390
X-7.47800 Y-3.90590
X-7.47700 Y-3.90590
X-7.47700 Y-3.90690
X-7.47600 Y-3.90690
X-7.47600 Y-3.90790
X-7.47500 Y-3.90790
X-7.47500 Y-3.90890
X-7.47300 Y-3.90890
X-7.47300 Y-3.90990
X-7.47100 Y-3.90990
X-7.47100 Y-3.91090
X-7.45900 Y-3.91090
X-7.45900 Y-3.90990
X-7.45700 Y-3.90990
X-7.45700 Y-3.90890
X-7.45500 Y-3.90890
X-7.45500 Y-3.90790
X-7.45400 Y-3.90790
X-7.45400 Y-3.90690
X-7.45300 Y-3.90690
X-7.45300 Y-3.90590
X-7.45200 Y-3.90590
X-7.45200 Y-3.90490
X-7.45100 Y-3.90490
X-7.45100 Y-3.90290
X-7.45000 Y-3.90290
X-7.45000 Y-3.90090
X-7.36400 Y-3.90090
X-7.36400 Y-3.90290
X-7.36300 Y-3.90290
X-7.36300 Y-3.90790
X-7.36200 Y-3.90790
X-7.36200 Y-3.90890
X-7.36100 Y-3.90890
X-7.36100 Y-3.91090
X-7.36000 Y-3.91090
X-7.36000 Y-3.91190
X-7.35900 Y-3.91190
X-7.35900 Y-3.91290
X-7.35800 Y-3.91290
X-7.35800 Y-3.91490
X-7.35700 Y-3.91490
X-7.35700 Y-3.91590
X-7.35600 Y-3.91590
X-7.35600 Y-3.91690
X-7.35500 Y-3.91690
X-7.35500 Y-3.91790
X-7.35300 Y-3.91790
X-7.35300 Y-3.91890
X-7.35100 Y-3.91890
X-7.35100 Y-3.91990
X-7.35000 Y-3.91990
X-7.35000 Y-3.92090
X-7.34800 Y-3.92090
X-7.34800 Y-3.92190
X-7.34300 Y-3.92190
X-7.34300 Y-3.92290
X-7.33000 Y-3.92290
X-7.33000 Y-3.92190
X-7.32600 Y-3.92190
X-7.32600 Y-3.92090
X-7.32400 Y-3.92090
X-7.32400 Y-3.91990
X-7.32200 Y-3.91990
X-7.32200 Y-3.91890
X-7.32100 Y-3.91890
X-7.32100 Y-3.91790
X-7.31900 Y-3.91790
X-7.31900 Y-3.91690
X-7.31700 Y-3.91690
X-7.31700 Y-3.91490
X-7.31600 Y-3.91490
X-7.31600 Y-3.91390
X-7.31500 Y-3.91390
X-7.31500 Y-3.91290
X-7.31400 Y-3.91290
X-7.31400 Y-3.91090
X-7.31300 Y-3.91090
X-7.31300 Y-3.90990
X-7.31200 Y-3.90990
X-7.31200 Y-3.90790
X-7.31100 Y-3.90790
X-7.31100 Y-3.90490
X-7.31000 Y-3.90490
X-7.31000 Y-3.89990
X-7.30900 Y-3.89990
X-7.30900 Y-3.89090
X-7.31000 Y-3.89090
X-7.31000 Y-3.88590
X-7.31100 Y-3.88590
X-7.31100 Y-3.88190
X-7.31200 Y-3.88190
X-7.31200 Y-3.88090
X-7.31300 Y-3.88090
X-7.31300 Y-3.87990
X-7.31400 Y-3.87990
X-7.31400 Y-3.87790
X-7.31500 Y-3.87790
X-7.31500 Y-3.87690
X-7.31600 Y-3.87690
X-7.31600 Y-3.87590
X-7.31700 Y-3.87590
X-7.31700 Y-3.87390
X-7.31900 Y-3.87390
X-7.31900 Y-3.87290
X-7.32100 Y-3.87290
X-7.32100 Y-3.87190
X-7.32200 Y-3.87190
X-7.32200 Y-3.87090
X-7.32400 Y-3.87090
X-7.32400 Y-3.86990
X-7.32600 Y-3.86990
X-7.32600 Y-3.86890
X-7.33000 Y-3.86890
X-7.33000 Y-3.86790
X-7.34300 Y-3.86790
X-7.34300 Y-3.86890
G04 P0 ( dwell for no time -- G64 should not smooth over this point )
G00 Z0.19685 ( retract )

G00 X-7.04300 Y-3.87090 ( rapid move to begin. )
G01 Z-0.00394 F39.37008 ( plunge. )
G04 P0 ( dwell for no time -- G64 should not smooth over this point )
X-7.04300 Y-3.87090
X-7.04800 Y-3.87090
X-7.04800 Y-3.87190
X-7.05000 Y-3.87190
X-7.05000 Y-3.87290
X-7.05200 Y-3.87290
X-7.05200 Y-3.87390
X-7.05300 Y-3.87390
X-7.05300 Y-3.87490
X-7.05500 Y-3.87490
X-7.05500 Y-3.87590
X-7.05700 Y-3.87590
X-7.05700 Y-3.87790
X-7.05800 Y-3.87790
X-7.05800 Y-3.87890
X-7.05900 Y-3.87890
X-7.05900 Y-3.87990
X-7.06000 Y-3.87990
X-7.06000 Y-3.88190
X-7.06100 Y-3.88190
X-7.06100 Y-3.88290
X-7.06200 Y-3.88290
X-7.06200 Y-3.88390
X-7.06300 Y-3.88390
X-7.06300 Y-3.88790
X-7.06400 Y-3.88790
X-7.06400 Y-3.89290
X-7.06500 Y-3.89290
X-7.06500 Y-3.90290
X-7.06400 Y-3.90290
X-7.06400 Y-3.90790
X-7.06300 Y-3.90790
X-7.06300 Y-3.91090
X-7.06200 Y-3.91090
X-7.06200 Y-3.91190
X-7.06100 Y-3.91190
X-7.06100 Y-3.91390
X-7.06000 Y-3.91390
X-7.06000 Y-3.91490
X-7.05900 Y-3.91490
X-7.05900 Y-3.91590
X-7.05800 Y-3.91590
X-7.05800 Y-3.91790
X-7.05700 Y-3.91790
X-7.05700 Y-3.91890
X-7.05600 Y-3.91890
X-7.05600 Y-3.91990
X-7.05400 Y-3.91990
X-7.05400 Y-3.92090
X-7.05200 Y-3.92090
X-7.05200 Y-3.92190
X-7.05100 Y-3.92190
X-7.05100 Y-3.92290
X-7.04900 Y-3.92290
X-7.04900 Y-3.92390
X-7.04500 Y-3.92390
X-7.04500 Y-3.92490
X-7.03900 Y-3.92490
X-7.03900 Y-3.92590
X-7.03600 Y-3.92590
X-7.03600 Y-3.92490
X-7.03000 Y-3.92490
X-7.03000 Y-3.92390
X-7.02600 Y-3.92390
X-7.02600 Y-3.92290
X-7.02400 Y-3.92290
X-7.02400 Y-3.92190
X-7.02300 Y-3.92190
X-7.02300 Y-3.92090
X-7.02100 Y-3.92090
X-7.02100 Y-3.91990
X-7.01900 Y-3.91990
X-7.01900 Y-3.91890
X-7.01800 Y-3.91890
X-7.01800 Y-3.91790
X-7.01700 Y-3.91790
X-7.01700 Y-3.91690
X-7.01600 Y-3.91690
X-7.01600 Y-3.91490
X-7.01500 Y-3.91490
X-7.01500 Y-3.91390
X-7.01400 Y-3.91390
X-7.01400 Y-3.91290
X-7.01300 Y-3.91290
X-7.01300 Y-3.91090
X-7.01200 Y-3.91090
X-7.01200 Y-3.90890
X-7.01100 Y-3.90890
X-7.01100 Y-3.90390
X-7.01000 Y-3.90390
X-7.01000 Y-3.89890
X-7.00900 Y-3.89890
X-7.00900 Y-3.89690
X-7.01000 Y-3.89690
X-7.01000 Y-3.89190
X-7.01100 Y-3.89190
X-7.01100 Y-3.88590
X-7.01200 Y-3.88590
X-7.01200 Y-3.88390
X-7.01300 Y-3.88390
X-7.01300 Y-3.88290
X-7.01400 Y-3.88290
X-7.01400 Y-3.88090
X-7.01500 Y-3.88090
X-7.01500 Y-3.87990
X-7.01600 Y-3.87990
X-7.01600 Y-3.87890
X-7.01700 Y-3.87890
X-7.01700 Y-3.87690
X-7.01800 Y-3.87690
X-7.01800 Y-3.87590
X-7.02000 Y-3.87590
X-7.02000 Y-3.87490
X-7.02200 Y-3.87490
X-7.02200 Y-3.87390
X-7.02300 Y-3.87390
X-7.02300 Y-3.87290
X-7.02500 Y-3.87290
X-7.02500 Y-3.87190
X-7.02700 Y-3.87190
X-7.02700 Y-3.87090
X-7.03200 Y-3.87090
X-7.03200 Y-3.86990
X-7.04300 Y-3.86990
X-7.04300 Y-3.87090
G04 P0 ( dwell for no time -- G64 should not smooth over this point )
G00 Z0.19685 ( retract )

G00 X-8.02000 Y-3.88790 ( rapid move to begin. )
G01 Z-0.00394 F39.37008 ( plunge. )
G04 P0 ( dwell for no time -- G64 should not smooth over this point )
X-8.02000 Y-3.88790
X-8.02500 Y-3.88790
X-8.02500 Y-3.88890
X-8.02700 Y-3.88890
X-8.02700 Y-3.88990
X-8.02900 Y-3.88990
X-8.02900 Y-3.89090
X-8.03000 Y-3.89090
X-8.03000 Y-3.89190
X-8.03200 Y-3.89190
X-8.03200 Y-3.89290
X-8.03400 Y-3.89290
X-8.03400 Y-3.89390
X-8.03500 Y-3.89390
X-8.03500 Y-3.89490
X-8.03600 Y-3.89490
X-8.03600 Y-3.89590
X-8.03700 Y-3.89590
X-8.03700 Y-3.89790
X-8.03800 Y-3.89790
X-8.03800 Y-3.89890
X-8.03900 Y-3.89890
X-8.03900 Y-3.89990
X-8.04000 Y-3.89990
X-8.04000 Y-3.90190
X-8.04100 Y-3.90190
X-8.04100 Y-3.90290
X-8.04200 Y-3.90290
X-8.04200 Y-3.90690
X-8.04300 Y-3.90690
X-8.04300 Y-3.91290
X-8.04400 Y-3.91290
X-8.04400 Y-3.92190
X-8.04300 Y-3.92190
X-8.04300 Y-3.92690
X-8.04200 Y-3.92690
X-8.04200 Y-3.93090
X-8.04100 Y-3.93090
X-8.04100 Y-3.93190
X-8.04000 Y-3.93190
X-8.04000 Y-3.93390
X-8.03900 Y-3.93390
X-8.03900 Y-3.93490
X-8.03800 Y-3.93490
X-8.03800 Y-3.93690
X-8.03700 Y-3.93690
X-8.03700 Y-3.93790
X-8.03600 Y-3.93790
X-8.03600 Y-3.93890
X-8.03500 Y-3.93890
X-8.03500 Y-3.93990
X-8.03400 Y-3.93990
X-8.03400 Y-3.94090
X-8.03300 Y-3.94090
X-8.03300 Y-3.94190
X-8.03100 Y-3.94190
X-8.03100 Y-3.94290
X-8.02900 Y-3.94290
X-8.02900 Y-3.94390
X-8.02700 Y-3.94390
X-8.02700 Y-3.94490
X-8.02600 Y-3.94490
X-8.02600 Y-3.94590
X-8.02100 Y-3.94590
X-8.02100 Y-3.94690
X-8.01500 Y-3.94690
X-8.01500 Y-3.94790
X-8.01300 Y-3.94790
X-8.01300 Y-3.94690
X-8.00700 Y-3.94690
X-8.00700 Y-3.94590
X-8.00200 Y-3.94590
X-8.00200 Y-3.94490
X-8.00000 Y-3.94490
X-8.00000 Y-3.94390
X-7.99800 Y-3.94390
X-7.99800 Y-3.94290
X-7.99700 Y-3.94290
X-7.99700 Y-3.94190
X-7.99500 Y-3.94190
X-7.99500 Y-3.94090
X-7.99300 Y-3.94090
X-7.99300 Y-3.93990
X-7.99200 Y-3.93990
X-7.99200 Y-3.93790
X-7.99100 Y-3.93790
X-7.99100 Y-3.93690
X-7.99000 Y-3.93690
X-7.99000 Y-3.93590
X-7.98900 Y-3.93590
X-7.98900 Y-3.93390
X-7.98800 Y-3.93390
X-7.98800 Y-3.93290
X-7.98700 Y-3.93290
X-7.98700 Y-3.93190
X-7.98600 Y-3.93190
X-7.98600 Y-3.92890
X-7.98500 Y-3.92890
X-7.98500 Y-3.92390
X-7.98400 Y-3.92390
X-7.98400 Y-3.92290
X-7.97500 Y-3.92290
X-7.97500 Y-3.92390
X-7.97400 Y-3.92390
X-7.97400 Y-3.92490
X-7.97300 Y-3.92490
X-7.97300 Y-3.92590
X-7.97200 Y-3.92590
X-7.97200 Y-3.92690
X-7.97100 Y-3.92690
X-7.97100 Y-3.92790
X-7.97000 Y-3.92790
X-7.97000 Y-3.92890
X-7.96900 Y-3.92890
X-7.96900 Y-3.92990
X-7.96800 Y-3.92990
X-7.96800 Y-3.93090
X-7.96700 Y-3.93090
X-7.96700 Y-3.93190
X-7.96600 Y-3.93190
X-7.96600 Y-3.93290
X-7.96500 Y-3.93290
X-7.96500 Y-3.93390
X-7.96400 Y-3.93390
X-7.96400 Y-3.93490
X-7.96300 Y-3.93490
X-7.96300 Y-3.93590
X-7.96200 Y-3.93590
X-7.96200 Y-3.93690
X-7.96100 Y-3.93690
X-7.96100 Y-3.93790
X-7.96000 Y-3.93790
X-7.96000 Y-3.93890
X-7.95900 Y-3.93890
X-7.95900 Y-3.93990
X-7.95800 Y-3.93990
X-7.95800 Y-3.94090
X-7.95700 Y-3.94090
X-7.95700 Y-3.94190
X-7.95600 Y-3.94190
X-7.95600 Y-3.94290
X-7.95500 Y-3.94290
X-7.95500 Y-3.94390
X-7.95400 Y-3.94390
X-7.95400 Y-3.94490
X-7.95300 Y-3.94490
X-7.95300 Y-3.94590
X-7.95200 Y-3.94590
X-7.95200 Y-3.94690
X-7.95100 Y-3.94690
X-7.95100 Y-3.94790
X-7.95000 Y-3.94790
X-7.95000 Y-3.94890
X-7.94900 Y-3.94890
X-7.94900 Y-3.94990
X-7.94800 Y-3.94990
X-7.94800 Y-3.95090
X-7.94700 Y-3.95090
X-7.94700 Y-3.95190
X-7.94600 Y-3.95190
X-7.94600 Y-3.95290
X-7.94500 Y-3.95290
X-7.94500 Y-3.95390
X-7.94400 Y-3.95390
X-7.94400 Y-3.95490
X-7.94300 Y-3.95490
X-7.94300 Y-3.95590
X-7.94200 Y-3.95590
X-7.94200 Y-3.95690
X-7.94100 Y-3.95690
X-7.94100 Y-3.95790
X-7.94000 Y-3.95790
X-7.94000 Y-3.95890
X-7.93900 Y-3.95890
X-7.93900 Y-3.95990
X-7.93800 Y-3.95990
X-7.93800 Y-3.96090
X-7.93700 Y-3.96090
X-7.93700 Y-3.96190
X-7.93600 Y-3.96190
X-7.93600 Y-3.96290
X-7.93500 Y-3.96290
X-7.93500 Y-3.96390
X-7.93400 Y-3.96390
X-7.93400 Y-3.96490
X-7.93300 Y-3.96490
X-7.93300 Y-3.96590
X-7.93200 Y-3.96590
X-7.93200 Y-3.96690
X-7.93100 Y-3.96690
X-7.93100 Y-3.96790
X-7.93000 Y-3.96790
X-7.93000 Y-3.96890
X-7.92900 Y-3.96890
X-7.92900 Y-3.96990
X-7.92800 Y-3.96990
X-7.92800 Y-3.97090
X-7.92700 Y-3.97090
X-7.92700 Y-3.97190
X-7.92600 Y-3.97190
X-7.92600 Y-3.97290
X-7.92500 Y-3.97290
X-7.92500 Y-3.97390
X-7.92400 Y-3.97390
X-7.92400 Y-3.97490
X-7.92300 Y-3.97490
X-7.92300 Y-3.97590
X-7.92200 Y-3.97590
X-7.92200 Y-3.97690
X-7.92100 Y-3.97690
X-7.92100 Y-3.97790
X-7.92000 Y-3.97790
X-7.92000 Y-3.97890
X-7.91900 Y-3.97890
X-7.91900 Y-3.97990
X-7.91800 Y-3.97990
X-7.91800 Y-3.98090
X-7.91700 Y-3.98090
X-7.91700 Y-3.98190
X-7.91600 Y-3.98190
X-7.91600 Y-3.98290
X-7.91500 Y-3.98290
X-7.91500 Y-3.98390
X-7.91400 Y-3.98390
X-7.91400 Y-3.98490
X-7.91300 Y-3.98490
X-7.91300 Y-3.98590
X-7.91200 Y-3.98590
X-7.91200 Y-3.98690
X-7.91100 Y-3.98690
X-7.91100 Y-3.98790
X-7.91000 Y-3.98790
X-7.91000 Y-3.98890
X-7.90900 Y-3.98890
X-7.90900 Y-3.98990
X-7.90800 Y-3.98990
X-7.90800 Y-3.99090
X-7.90700 Y-3.99090
X-7.90700 Y-3.99190
X-7.90600 Y-3.99190
X-7.90600 Y-3.99290
X-7.90500 Y-3.99290
X-7.90500 Y-3.99390
X-7.90400 Y-3.99390
X-7.90400 Y-3.99490
X-7.87200 Y-3.99490
X-7.87200 Y-3.99590
X-7.87100 Y-3.99590
X-7.87100 Y-3.99790
X-7.87000 Y-3.99790
X-7.87000 Y-3.99890
X-7.86900 Y-3.99890
X-7.86900 Y-3.99990
X-7.86800 Y-3.99990
X-7.86800 Y-4.00090
X-7.86700 Y-4.00090
X-7.86700 Y-4.00190
X-7.86600 Y-4.00190
X-7.86600 Y-4.00290
X-7.86400 Y-4.00290
X-7.86400 Y-4.00390
X-7.86000 Y-4.00390
X-7.86000 Y-4.00490
X-7.85300 Y-4.00490
X-7.85300 Y-4.00390
X-7.84900 Y-4.00390
X-7.84900 Y-4.00290
X-7.84800 Y-4.00290
X-7.84800 Y-4.00190
X-7.84600 Y-4.00190
X-7.84600 Y-4.00090
X-7.84500 Y-4.00090
X-7.84500 Y-3.99990
X-7.84400 Y-3.99990
X-7.84400 Y-3.99890
X-7.84300 Y-3.99890
X-7.84300 Y-3.99690
X-7.84200 Y-3.99690
X-7.84200 Y-3.99490
X-7.84100 Y-3.99490
X-7.84100 Y-3.98990
X-7.84000 Y-3.98990
X-7.84000 Y-3.98790
X-7.84100 Y-3.98790
X-7.84100 Y-3.98290
X-7.84200 Y-3.98290
X-7.84200 Y-3.97990
X-7.84300 Y-3.97990
X-7.84300 Y-3.97890
X-7.84400 Y-3.97890
X-7.84400 Y-3.97790
X-7.84500 Y-3.97790
X-7.84500 Y-3.97590
X-7.84700 Y-3.97590
X-7.84700 Y-3.97490
X-7.84900 Y-3.97490
X-7.84900 Y-3.97390
X-7.85100 Y-3.97390
X-7.85100 Y-3.97290
X-7.86300 Y-3.97290
X-7.86300 Y-3.97390
X-7.86500 Y-3.97390
X-7.86500 Y-3.97490
X-7.86600 Y-3.97490
X-7.86600 Y-3.97590
X-7.86800 Y-3.97590
X-7.86800 Y-3.97690
X-7.86900 Y-3.97690
X-7.86900 Y-3.97890
X-7.87000 Y-3.97890
X-7.87000 Y-3.97990
X-7.87100 Y-3.97990
X-7.87100 Y-3.98090
X-7.87200 Y-3.98090
X-7.87200 Y-3.98390
X-7.89900 Y-3.98390
X-7.89900 Y-3.98290
X-7.90000 Y-3.98290
X-7.90000 Y-3.98190
X-7.90100 Y-3.98190
X-7.90100 Y-3.98090
X-7.90200 Y-3.98090
X-7.90200 Y-3.97990
X-7.90300 Y-3.97990
X-7.90300 Y-3.97890
X-7.90400 Y-3.97890
X-7.90400 Y-3.97790
X-7.90500 Y-3.97790
X-7.90500 Y-3.97690
X-7.90600 Y-3.97690
X-7.90600 Y-3.97590
X-7.90700 Y-3.97590
X-7.90700 Y-3.97490
X-7.90800 Y-3.97490
X-7.90800 Y-3.97390
X-7.90900 Y-3.97390
X-7.90900 Y-3.97290
X-7.91000 Y-3.97290
X-7.91000 Y-3.97190
X-7.91100 Y-3.97190
X-7.91100 Y-3.97090
X-7.91200 Y-3.97090
X-7.91200 Y-3.96990
X-7.91300 Y-3.96990
X-7.91300 Y-3.96890
X-7.91400 Y-3.96890
X-7.91400 Y-3.96790
X-7.91500 Y-3.96790
X-7.91500 Y-3.96690
X-7.91600 Y-3.96690
X-7.91600 Y-3.96590
X-7.91700 Y-3.96590
X-7.91700 Y-3.96490
X-7.91800 Y-3.96490
X-7.91800 Y-3.96390
X-7.91900 Y-3.96390
X-7.91900 Y-3.96290
X-7.92000 Y-3.96290
X-7.92000 Y-3.96190
