( pcb2gcode 1.1.4 )

G94     ( Inches per minute feed rate. )
G20     ( Units == INCHES.             )
G90     ( Absolute coordinates.        )
S30000  ( RPM spindle speed.           )
M3      ( Spindle on clockwise.        )

G64 P0.00500 ( set maximum deviation from commanded toolpath )

G04 P0 ( dwell for no time -- G64 should not smooth over this point )
G00 Z0.19685 ( retract )

G00 X8.27700 Y-3.26490 ( rapid move to begin. )
G01 Z-0.00394 F39.37008 ( plunge. )
G04 P0 ( dwell for no time -- G64 should not smooth over this point )
X8.27700 Y-3.26490
X8.27700 Y-3.26590
X8.27800 Y-3.26590
X8.27800 Y-3.26690
X8.27900 Y-3.26690
X8.27900 Y-3.54690
X8.27800 Y-3.54690
X8.27800 Y-3.54890
X8.27700 Y-3.54890
X8.27700 Y-3.54990
X8.27600 Y-3.54990
X8.27600 Y-3.55090
X8.17100 Y-3.55090
X8.17100 Y-3.59790
X8.17000 Y-3.59790
X8.17000 Y-3.59890
X8.16900 Y-3.59890
X8.16900 Y-3.60090
X8.16800 Y-3.60090
X8.16800 Y-3.60190
X8.16200 Y-3.60190
X8.16200 Y-3.60090
X8.16100 Y-3.60090
X8.16100 Y-3.59990
X8.16000 Y-3.59990
X8.16000 Y-3.59790
X8.15900 Y-3.59790
X8.15900 Y-3.59590
X8.15800 Y-3.59590
X8.15800 Y-3.59390
X8.15700 Y-3.59390
X8.15700 Y-3.59090
X8.15600 Y-3.59090
X8.15600 Y-3.58890
X8.15500 Y-3.58890
X8.15500 Y-3.58790
X8.15400 Y-3.58790
X8.15400 Y-3.58690
X8.15300 Y-3.58690
X8.15300 Y-3.58590
X8.15200 Y-3.58590
X8.15200 Y-3.58490
X8.15100 Y-3.58490
X8.15100 Y-3.58390
X8.15000 Y-3.58390
X8.15000 Y-3.58290
X8.14900 Y-3.58290
X8.14900 Y-3.58190
X8.14800 Y-3.58190
X8.14800 Y-3.58090
X8.14700 Y-3.58090
X8.14700 Y-3.57990
X8.14600 Y-3.57990
X8.14600 Y-3.57890
X8.14500 Y-3.57890
X8.14500 Y-3.57790
X8.14400 Y-3.57790
X8.14400 Y-3.57690
X8.14300 Y-3.57690
X8.14300 Y-3.57590
X8.14200 Y-3.57590
X8.14200 Y-3.57490
X8.14000 Y-3.57490
X8.14000 Y-3.57390
X8.13700 Y-3.57390
X8.13700 Y-3.57290
X8.13500 Y-3.57290
X8.13500 Y-3.57190
X8.13300 Y-3.57190
X8.13300 Y-3.57090
X8.13000 Y-3.57090
X8.13000 Y-3.56990
X8.12800 Y-3.56990
X8.12800 Y-3.56890
X8.12500 Y-3.56890
X8.12500 Y-3.56790
X8.10200 Y-3.56790
X8.10200 Y-3.56890
X8.10000 Y-3.56890
X8.10000 Y-3.56990
X8.09700 Y-3.56990
X8.09700 Y-3.57090
X8.09500 Y-3.57090
X8.09500 Y-3.57190
X8.09200 Y-3.57190
X8.09200 Y-3.57290
X8.09000 Y-3.57290
X8.09000 Y-3.57390
X8.08700 Y-3.57390
X8.08700 Y-3.57490
X8.08600 Y-3.57490
X8.08600 Y-3.57590
X8.08500 Y-3.57590
X8.08500 Y-3.57690
X8.08400 Y-3.57690
X8.08400 Y-3.57790
X8.08300 Y-3.57790
X8.08300 Y-3.57890
X8.08200 Y-3.57890
X8.08200 Y-3.57990
X8.08100 Y-3.57990
X8.08100 Y-3.58090
X8.08000 Y-3.58090
X8.08000 Y-3.58190
X8.07900 Y-3.58190
X8.07900 Y-3.58290
X8.07800 Y-3.58290
X8.07800 Y-3.58390
X8.07700 Y-3.58390
X8.07700 Y-3.58490
X8.07600 Y-3.58490
X8.07600 Y-3.58590
X8.07500 Y-3.58590
X8.07500 Y-3.58690
X8.07400 Y-3.58690
X8.07400 Y-3.58790
X8.07300 Y-3.58790
X8.07300 Y-3.58890
X8.07200 Y-3.58890
X8.07200 Y-3.58990
X8.07100 Y-3.58990
X8.07100 Y-3.59290
X8.07000 Y-3.59290
X8.07000 Y-3.59490
X8.06900 Y-3.59490
X8.06900 Y-3.59590
X8.06800 Y-3.59590
X8.06800 Y-3.59790
X8.06700 Y-3.59790
X8.06700 Y-3.59890
X8.06100 Y-3.59890
X8.06100 Y-3.59790
X8.06000 Y-3.59790
X8.06000 Y-3.59690
X8.05900 Y-3.59690
X8.05900 Y-3.59590
X8.05800 Y-3.59590
X8.05800 Y-3.59390
X8.05700 Y-3.59390
X8.05700 Y-3.59090
X8.05600 Y-3.59090
X8.05600 Y-3.58890
X8.05500 Y-3.58890
X8.05500 Y-3.58790
X8.05400 Y-3.58790
X8.05400 Y-3.58690
X8.05300 Y-3.58690
X8.05300 Y-3.58590
X8.05200 Y-3.58590
X8.05200 Y-3.58490
X8.05100 Y-3.58490
X8.05100 Y-3.58390
X8.05000 Y-3.58390
X8.05000 Y-3.58290
X8.04900 Y-3.58290
X8.04900 Y-3.58190
X8.04800 Y-3.58190
X8.04800 Y-3.58090
X8.04700 Y-3.58090
X8.04700 Y-3.57990
X8.04600 Y-3.57990
X8.04600 Y-3.57890
X8.04500 Y-3.57890
X8.04500 Y-3.57790
X8.04400 Y-3.57790
X8.04400 Y-3.57690
X8.04300 Y-3.57690
X8.04300 Y-3.57590
X8.04200 Y-3.57590
X8.04200 Y-3.57490
X8.04000 Y-3.57490
X8.04000 Y-3.57390
X8.03700 Y-3.57390
X8.03700 Y-3.57290
X8.03500 Y-3.57290
X8.03500 Y-3.57190
X8.03300 Y-3.57190
X8.03300 Y-3.57090
X8.03000 Y-3.57090
X8.03000 Y-3.56990
X8.02800 Y-3.56990
X8.02800 Y-3.56890
X8.02500 Y-3.56890
X8.02500 Y-3.56790
X8.00200 Y-3.56790
X8.00200 Y-3.56890
X8.00000 Y-3.56890
X8.00000 Y-3.56990
X7.99700 Y-3.56990
X7.99700 Y-3.57090
X7.99500 Y-3.57090
X7.99500 Y-3.57190
X7.99200 Y-3.57190
X7.99200 Y-3.57290
X7.99000 Y-3.57290
X7.99000 Y-3.57390
X7.98700 Y-3.57390
X7.98700 Y-3.57490
X7.98600 Y-3.57490
X7.98600 Y-3.57590
X7.98500 Y-3.57590
X7.98500 Y-3.57690
X7.98400 Y-3.57690
X7.98400 Y-3.57790
X7.98300 Y-3.57790
X7.98300 Y-3.57890
X7.98200 Y-3.57890
X7.98200 Y-3.57990
X7.98100 Y-3.57990
X7.98100 Y-3.58090
X7.98000 Y-3.58090
X7.98000 Y-3.58190
X7.97900 Y-3.58190
X7.97900 Y-3.58290
X7.97800 Y-3.58290
X7.97800 Y-3.58390
X7.97700 Y-3.58390
X7.97700 Y-3.58490
X7.97600 Y-3.58490
X7.97600 Y-3.58590
X7.97500 Y-3.58590
X7.97500 Y-3.58690
X7.97400 Y-3.58690
X7.97400 Y-3.58790
X7.97300 Y-3.58790
X7.97300 Y-3.58890
X7.97200 Y-3.58890
X7.97200 Y-3.58990
X7.97100 Y-3.58990
X7.97100 Y-3.59290
X7.97000 Y-3.59290
X7.97000 Y-3.59490
X7.96900 Y-3.59490
X7.96900 Y-3.59690
X7.96800 Y-3.59690
X7.96800 Y-3.59990
X7.96700 Y-3.59990
X7.96700 Y-3.60190
X7.96600 Y-3.60190
X7.96600 Y-3.60490
X7.96500 Y-3.60490
X7.96500 Y-3.60690
X7.96400 Y-3.60690
X7.96400 Y-3.62690
X7.96500 Y-3.62690
X7.96500 Y-3.62990
X7.96600 Y-3.62990
X7.96600 Y-3.63190
X7.96700 Y-3.63190
X7.96700 Y-3.63390
X7.96800 Y-3.63390
X7.96800 Y-3.63690
X7.96900 Y-3.63690
X7.96900 Y-3.63890
X7.97000 Y-3.63890
X7.97000 Y-3.64190
X7.97100 Y-3.64190
X7.97100 Y-3.64390
X7.97200 Y-3.64390
X7.97200 Y-3.64590
X7.97300 Y-3.64590
X7.97300 Y-3.64690
X7.97400 Y-3.64690
X7.97400 Y-3.64790
X7.97600 Y-3.64790
X7.97600 Y-3.64890
X7.97700 Y-3.64890
X7.97700 Y-3.64990
X7.97800 Y-3.64990
X7.97800 Y-3.65090
X7.97900 Y-3.65090
X7.97900 Y-3.65190
X7.98000 Y-3.65190
X7.98000 Y-3.65290
X7.98100 Y-3.65290
X7.98100 Y-3.65390
X7.98200 Y-3.65390
X7.98200 Y-3.65490
X7.98300 Y-3.65490
X7.98300 Y-3.65590
X7.98400 Y-3.65590
X7.98400 Y-3.65690
X7.98500 Y-3.65690
X7.98500 Y-3.65790
X7.98600 Y-3.65790
X7.98600 Y-3.65890
X7.98700 Y-3.65890
X7.98700 Y-3.65990
X7.99000 Y-3.65990
X7.99000 Y-3.66090
X7.99200 Y-3.66090
X7.99200 Y-3.66190
X7.99400 Y-3.66190
X7.99400 Y-3.66390
X7.99500 Y-3.66390
X7.99500 Y-3.66490
X7.99600 Y-3.66490
X7.99600 Y-3.66890
X7.99500 Y-3.66890
X7.99500 Y-3.66990
X7.99400 Y-3.66990
X7.99400 Y-3.67190
X7.99200 Y-3.67190
X7.99200 Y-3.67290
X7.99000 Y-3.67290
X7.99000 Y-3.67390
X7.98700 Y-3.67390
X7.98700 Y-3.67490
X7.98600 Y-3.67490
X7.98600 Y-3.67590
X7.98500 Y-3.67590
X7.98500 Y-3.67690
X7.98400 Y-3.67690
X7.98400 Y-3.67790
X7.98300 Y-3.67790
X7.98300 Y-3.67890
X7.98200 Y-3.67890
X7.98200 Y-3.67990
X7.98100 Y-3.67990
X7.98100 Y-3.68090
X7.98000 Y-3.68090
X7.98000 Y-3.68190
X7.97900 Y-3.68190
X7.97900 Y-3.68290
X7.97800 Y-3.68290
X7.97800 Y-3.68390
X7.97700 Y-3.68390
X7.97700 Y-3.68490
X7.97600 Y-3.68490
X7.97600 Y-3.68590
X7.97500 Y-3.68590
X7.97500 Y-3.68690
X7.97400 Y-3.68690
X7.97400 Y-3.68790
X7.97300 Y-3.68790
X7.97300 Y-3.68890
X7.97200 Y-3.68890
X7.97200 Y-3.68990
X7.97100 Y-3.68990
X7.97100 Y-3.69290
X7.97000 Y-3.69290
X7.97000 Y-3.69490
X7.96900 Y-3.69490
X7.96900 Y-3.69690
X7.96800 Y-3.69690
X7.96800 Y-3.69990
X7.96700 Y-3.69990
X7.96700 Y-3.70190
X7.96600 Y-3.70190
X7.96600 Y-3.70490
X7.96500 Y-3.70490
X7.96500 Y-3.70690
X7.96400 Y-3.70690
X7.96400 Y-3.72690
X7.96500 Y-3.72690
X7.96500 Y-3.72990
X7.96600 Y-3.72990
X7.96600 Y-3.73190
X7.96700 Y-3.73190
X7.96700 Y-3.73390
X7.96800 Y-3.73390
X7.96800 Y-3.73690
X7.96900 Y-3.73690
X7.96900 Y-3.73890
X7.97000 Y-3.73890
X7.97000 Y-3.74190
X7.97100 Y-3.74190
X7.97100 Y-3.74390
X7.97200 Y-3.74390
X7.97200 Y-3.74590
X7.97300 Y-3.74590
X7.97300 Y-3.74690
X7.97400 Y-3.74690
X7.97400 Y-3.74790
X7.97600 Y-3.74790
X7.97600 Y-3.74890
X7.97700 Y-3.74890
X7.97700 Y-3.74990
X7.97800 Y-3.74990
X7.97800 Y-3.75090
X7.97900 Y-3.75090
X7.97900 Y-3.75190
X7.98000 Y-3.75190
X7.98000 Y-3.75290
X7.98100 Y-3.75290
X7.98100 Y-3.75390
X7.98200 Y-3.75390
X7.98200 Y-3.75490
X7.98300 Y-3.75490
X7.98300 Y-3.75590
X7.98400 Y-3.75590
X7.98400 Y-3.75690
X7.98500 Y-3.75690
X7.98500 Y-3.75790
X7.98600 Y-3.75790
X7.98600 Y-3.75890
X7.98700 Y-3.75890
X7.98700 Y-3.75990
X7.99000 Y-3.75990
X7.99000 Y-3.76090
X7.99200 Y-3.76090
X7.99200 Y-3.76190
X7.99400 Y-3.76190
X7.99400 Y-3.76390
X7.99500 Y-3.76390
X7.99500 Y-3.76490
X7.99600 Y-3.76490
X7.99600 Y-3.76890
X7.99500 Y-3.76890
X7.99500 Y-3.76990
X7.99400 Y-3.76990
X7.99400 Y-3.77190
X7.99200 Y-3.77190
X7.99200 Y-3.77290
X7.99000 Y-3.77290
X7.99000 Y-3.77390
X7.98700 Y-3.77390
X7.98700 Y-3.77490
X7.98600 Y-3.77490
X7.98600 Y-3.77590
X7.98500 Y-3.77590
X7.98500 Y-3.77690
X7.98400 Y-3.77690
X7.98400 Y-3.77790
X7.98300 Y-3.77790
X7.98300 Y-3.77890
X7.98200 Y-3.77890
X7.98200 Y-3.77990
X7.98100 Y-3.77990
X7.98100 Y-3.78090
X7.98000 Y-3.78090
X7.98000 Y-3.78190
X7.97900 Y-3.78190
X7.97900 Y-3.78290
X7.97800 Y-3.78290
X7.97800 Y-3.78390
X7.97700 Y-3.78390
X7.97700 Y-3.78490
X7.97600 Y-3.78490
X7.97600 Y-3.78590
X7.97500 Y-3.78590
X7.97500 Y-3.78690
X7.97400 Y-3.78690
X7.97400 Y-3.78790
X7.97300 Y-3.78790
X7.97300 Y-3.78890
X7.97200 Y-3.78890
X7.97200 Y-3.78990
X7.97100 Y-3.78990
X7.97100 Y-3.79290
X7.97000 Y-3.79290
X7.97000 Y-3.79490
X7.96900 Y-3.79490
X7.96900 Y-3.79690
X7.96800 Y-3.79690
X7.96800 Y-3.79990
X7.96700 Y-3.79990
X7.96700 Y-3.80190
X7.96600 Y-3.80190
X7.96600 Y-3.80490
X7.96500 Y-3.80490
X7.96500 Y-3.80690
X7.96400 Y-3.80690
X7.96400 Y-3.82690
X7.96500 Y-3.82690
X7.96500 Y-3.82990
X7.96600 Y-3.82990
X7.96600 Y-3.83190
X7.96700 Y-3.83190
X7.96700 Y-3.83390
X7.96800 Y-3.83390
X7.96800 Y-3.83690
X7.96900 Y-3.83690
X7.96900 Y-3.83890
X7.97000 Y-3.83890
X7.97000 Y-3.84190
X7.97100 Y-3.84190
X7.97100 Y-3.84390
X7.97200 Y-3.84390
X7.97200 Y-3.84590
X7.97300 Y-3.84590
X7.97300 Y-3.84690
X7.97400 Y-3.84690
X7.97400 Y-3.84790
X7.97600 Y-3.84790
X7.97600 Y-3.84890
X7.97700 Y-3.84890
X7.97700 Y-3.84990
X7.97800 Y-3.84990
X7.97800 Y-3.85090
X7.97900 Y-3.85090
X7.97900 Y-3.85190
X7.98000 Y-3.85190
X7.98000 Y-3.85290
X7.98100 Y-3.85290
X7.98100 Y-3.85390
X7.98200 Y-3.85390
X7.98200 Y-3.85490
X7.98300 Y-3.85490
X7.98300 Y-3.85590
X7.98400 Y-3.85590
X7.98400 Y-3.85690
X7.98500 Y-3.85690
X7.98500 Y-3.85790
X7.98600 Y-3.85790
X7.98600 Y-3.85890
X7.98700 Y-3.85890
X7.98700 Y-3.85990
X7.99000 Y-3.85990
X7.99000 Y-3.86090
X7.99200 Y-3.86090
X7.99200 Y-3.86190
X7.99400 Y-3.86190
X7.99400 Y-3.86390
X7.99500 Y-3.86390
X7.99500 Y-3.86490
X7.99600 Y-3.86490
X7.99600 Y-3.86890
X7.99500 Y-3.86890
X7.99500 Y-3.86990
X7.99400 Y-3.86990
X7.99400 Y-3.87190
X7.99200 Y-3.87190
X7.99200 Y-3.87290
X7.99000 Y-3.87290
X7.99000 Y-3.87390
X7.98700 Y-3.87390
X7.98700 Y-3.87490
X7.98600 Y-3.87490
X7.98600 Y-3.87590
X7.98500 Y-3.87590
X7.98500 Y-3.87690
X7.98400 Y-3.87690
X7.98400 Y-3.87790
X7.98300 Y-3.87790
X7.98300 Y-3.87890
X7.98200 Y-3.87890
X7.98200 Y-3.87990
X7.98100 Y-3.87990
X7.98100 Y-3.88090
X7.98000 Y-3.88090
X7.98000 Y-3.88190
X7.97900 Y-3.88190
X7.97900 Y-3.88290
X7.97800 Y-3.88290
X7.97800 Y-3.88390
X7.97700 Y-3.88390
X7.97700 Y-3.88490
X7.97600 Y-3.88490
X7.97600 Y-3.88590
X7.97500 Y-3.88590
X7.97500 Y-3.88690
X7.97400 Y-3.88690
X7.97400 Y-3.88790
X7.97300 Y-3.88790
X7.97300 Y-3.88890
X7.97200 Y-3.88890
X7.97200 Y-3.88990
X7.97100 Y-3.88990
X7.97100 Y-3.89290
X7.97000 Y-3.89290
X7.97000 Y-3.89490
X7.96900 Y-3.89490
X7.96900 Y-3.89690
X7.96800 Y-3.89690
X7.96800 Y-3.89990
X7.96700 Y-3.89990
X7.96700 Y-3.90190
X7.96600 Y-3.90190
X7.96600 Y-3.90490
X7.96500 Y-3.90490
X7.96500 Y-3.90690
X7.96400 Y-3.90690
X7.96400 Y-3.92690
X7.96500 Y-3.92690
X7.96500 Y-3.92990
X7.96600 Y-3.92990
X7.96600 Y-3.93190
X7.96700 Y-3.93190
X7.96700 Y-3.93390
X7.96800 Y-3.93390
X7.96800 Y-3.93690
X7.96900 Y-3.93690
X7.96900 Y-3.93890
X7.97000 Y-3.93890
X7.97000 Y-3.94190
X7.97100 Y-3.94190
X7.97100 Y-3.94390
X7.97200 Y-3.94390
X7.97200 Y-3.94590
X7.97300 Y-3.94590
X7.97300 Y-3.94690
X7.97400 Y-3.94690
X7.97400 Y-3.94790
X7.97600 Y-3.94790
X7.97600 Y-3.94890
X7.97700 Y-3.94890
X7.97700 Y-3.94990
X7.97800 Y-3.94990
X7.97800 Y-3.95090
X7.97900 Y-3.95090
X7.97900 Y-3.95190
X7.98000 Y-3.95190
X7.98000 Y-3.95290
X7.98100 Y-3.95290
X7.98100 Y-3.95390
X7.98200 Y-3.95390
X7.98200 Y-3.95490
X7.98300 Y-3.95490
X7.98300 Y-3.95590
X7.98400 Y-3.95590
X7.98400 Y-3.95690
X7.98500 Y-3.95690
X7.98500 Y-3.95790
X7.98600 Y-3.95790
X7.98600 Y-3.95890
X7.98700 Y-3.95890
X7.98700 Y-3.95990
X7.99000 Y-3.95990
X7.99000 Y-3.96090
X7.99200 Y-3.96090
X7.99200 Y-3.96190
X7.99400 Y-3.96190
X7.99400 Y-3.96390
X7.99500 Y-3.96390
X7.99500 Y-3.96490
X7.99600 Y-3.96490
X7.99600 Y-3.96890
X7.99500 Y-3.96890
X7.99500 Y-3.96990
X7.99400 Y-3.96990
X7.99400 Y-3.97190
X7.99200 Y-3.97190
X7.99200 Y-3.97290
X7.99000 Y-3.97290
X7.99000 Y-3.97390
X7.98700 Y-3.97390
X7.98700 Y-3.97490
X7.98600 Y-3.97490
X7.98600 Y-3.97590
X7.98500 Y-3.97590
X7.98500 Y-3.97690
X7.98400 Y-3.97690
X7.98400 Y-3.97790
X7.98300 Y-3.97790
X7.98300 Y-3.97890
X7.98200 Y-3.97890
X7.98200 Y-3.97990
X7.98100 Y-3.97990
X7.98100 Y-3.98090
X7.98000 Y-3.98090
X7.98000 Y-3.98190
X7.97900 Y-3.98190
X7.97900 Y-3.98290
X7.97800 Y-3.98290
X7.97800 Y-3.98390
X7.97700 Y-3.98390
X7.97700 Y-3.98490
X7.97600 Y-3.98490
X7.97600 Y-3.98590
X7.97500 Y-3.98590
X7.97500 Y-3.98690
X7.97400 Y-3.98690
X7.97400 Y-3.98790
X7.97300 Y-3.98790
X7.97300 Y-3.98890
X7.97200 Y-3.98890
X7.97200 Y-3.98990
X7.97100 Y-3.98990
X7.97100 Y-3.99290
X7.97000 Y-3.99290
X7.97000 Y-3.99490
X7.96900 Y-3.99490
X7.96900 Y-3.99690
X7.96800 Y-3.99690
X7.96800 Y-3.99990
X7.96700 Y-3.99990
X7.96700 Y-4.00190
X7.96600 Y-4.00190
X7.96600 Y-4.00490
X7.96500 Y-4.00490
X7.96500 Y-4.00690
X7.96400 Y-4.00690
X7.96400 Y-4.02690
X7.96500 Y-4.02690
X7.96500 Y-4.02990
X7.96600 Y-4.02990
X7.96600 Y-4.03190
X7.96700 Y-4.03190
X7.96700 Y-4.03390
X7.96800 Y-4.03390
X7.96800 Y-4.03690
X7.96900 Y-4.03690
X7.96900 Y-4.03890
X7.97000 Y-4.03890
X7.97000 Y-4.04190
X7.97100 Y-4.04190
X7.97100 Y-4.04390
X7.97200 Y-4.04390
X7.97200 Y-4.04590
X7.97300 Y-4.04590
X7.97300 Y-4.04690
X7.97400 Y-4.04690
X7.97400 Y-4.04790
X7.97600 Y-4.04790
X7.97600 Y-4.04890
X7.97700 Y-4.04890
X7.97700 Y-4.04990
X7.97800 Y-4.04990
X7.97800 Y-4.05090
X7.97900 Y-4.05090
X7.97900 Y-4.05190
X7.98000 Y-4.05190
X7.98000 Y-4.05290
X7.98100 Y-4.05290
X7.98100 Y-4.05390
X7.98200 Y-4.05390
X7.98200 Y-4.05490
X7.98300 Y-4.05490
X7.98300 Y-4.05590
X7.98400 Y-4.05590
X7.98400 Y-4.05690
X7.98500 Y-4.05690
X7.98500 Y-4.05790
X7.98600 Y-4.05790
X7.98600 Y-4.05890
X7.98700 Y-4.05890
X7.98700 Y-4.05990
X7.99000 Y-4.05990
X7.99000 Y-4.06090
X7.99200 Y-4.06090
X7.99200 Y-4.06190
X7.99500 Y-4.06190
X7.99500 Y-4.06290
X7.99700 Y-4.06290
X7.99700 Y-4.06390
X7.99900 Y-4.06390
X7.99900 Y-4.06490
X8.00200 Y-4.06490
X8.00200 Y-4.06590
X8.00400 Y-4.06590
X8.00400 Y-4.06690
X8.02300 Y-4.06690
X8.02300 Y-4.06590
X8.02600 Y-4.06590
X8.02600 Y-4.06490
X8.02800 Y-4.06490
X8.02800 Y-4.06390
X8.03100 Y-4.06390
X8.03100 Y-4.06290
X8.03300 Y-4.06290
X8.03300 Y-4.06190
X8.03500 Y-4.06190
X8.03500 Y-4.06090
X8.03800 Y-4.06090
X8.03800 Y-4.05990
X8.04000 Y-4.05990
X8.04000 Y-4.05890
X8.04200 Y-4.05890
X8.04200 Y-4.05790
X8.04300 Y-4.05790
X8.04300 Y-4.05690
X8.04400 Y-4.05690
X8.04400 Y-4.05590
X8.04500 Y-4.05590
X8.04500 Y-4.05490
X8.04600 Y-4.05490
X8.04600 Y-4.05390
X8.04700 Y-4.05390
X8.04700 Y-4.05290
X8.04800 Y-4.05290
X8.04800 Y-4.05190
X8.04900 Y-4.05190
X8.04900 Y-4.05090
X8.05000 Y-4.05090
X8.05000 Y-4.04990
X8.05100 Y-4.04990
X8.05100 Y-4.04890
X8.05200 Y-4.04890
X8.05200 Y-4.04790
X8.05300 Y-4.04790
X8.05300 Y-4.04690
X8.05400 Y-4.04690
X8.05400 Y-4.04590
X8.05500 Y-4.04590
X8.05500 Y-4.04490
X8.05600 Y-4.04490
X8.05600 Y-4.04290
X8.05700 Y-4.04290
X8.05700 Y-4.03990
X8.05800 Y-4.03990
X8.05800 Y-4.03790
X8.05900 Y-4.03790
X8.05900 Y-4.03690
X8.06000 Y-4.03690
X8.06000 Y-4.03590
X8.06100 Y-4.03590
X8.06100 Y-4.03490
X8.06700 Y-4.03490
X8.06700 Y-4.03590
X8.06800 Y-4.03590
X8.06800 Y-4.03690
X8.06900 Y-4.03690
X8.06900 Y-4.03890
X8.07000 Y-4.03890
X8.07000 Y-4.04190
X8.07100 Y-4.04190
X8.07100 Y-4.04390
X8.07200 Y-4.04390
X8.07200 Y-4.04590
X8.07300 Y-4.04590
X8.07300 Y-4.04690
X8.07400 Y-4.04690
X8.07400 Y-4.04790
X8.07600 Y-4.04790
X8.07600 Y-4.04890
X8.07700 Y-4.04890
X8.07700 Y-4.04990
X8.07800 Y-4.04990
X8.07800 Y-4.05090
X8.07900 Y-4.05090
X8.07900 Y-4.05190
X8.08000 Y-4.05190
X8.08000 Y-4.05290
X8.08100 Y-4.05290
X8.08100 Y-4.05390
X8.08200 Y-4.05390
X8.08200 Y-4.05490
X8.08300 Y-4.05490
X8.08300 Y-4.05590
X8.08400 Y-4.05590
X8.08400 Y-4.05690
X8.08500 Y-4.05690
X8.08500 Y-4.05790
X8.08600 Y-4.05790
X8.08600 Y-4.05890
X8.08700 Y-4.05890
X8.08700 Y-4.05990
X8.09000 Y-4.05990
X8.09000 Y-4.06090
X8.09200 Y-4.06090
X8.09200 Y-4.06190
X8.09500 Y-4.06190
X8.09500 Y-4.06290
X8.09700 Y-4.06290
X8.09700 Y-4.06390
X8.09900 Y-4.06390
X8.09900 Y-4.06490
X8.10200 Y-4.06490
X8.10200 Y-4.06590
X8.10400 Y-4.06590
X8.10400 Y-4.06690
X8.12300 Y-4.06690
X8.12300 Y-4.06590
X8.12600 Y-4.06590
X8.12600 Y-4.06490
X8.12800 Y-4.06490
X8.12800 Y-4.06390
X8.13100 Y-4.06390
X8.13100 Y-4.06290
X8.13300 Y-4.06290
X8.13300 Y-4.06190
X8.13500 Y-4.06190
X8.13500 Y-4.06090
X8.13800 Y-4.06090
X8.13800 Y-4.05990
X8.14000 Y-4.05990
X8.14000 Y-4.05890
X8.14200 Y-4.05890
X8.14200 Y-4.05790
X8.14300 Y-4.05790
X8.14300 Y-4.05690
X8.14400 Y-4.05690
X8.14400 Y-4.05590
X8.15100 Y-4.05590
X8.15100 Y-4.05790
X8.15200 Y-4.05790
X8.15200 Y-4.05890
X8.15300 Y-4.05890
X8.15300 Y-4.09990
X8.27400 Y-4.09990
X8.27400 Y-4.10090
X8.27600 Y-4.10090
X8.27600 Y-4.10290
X8.27700 Y-4.10290
X8.27700 Y-4.10490
X8.27800 Y-4.10490
X8.27800 Y-4.28890
X8.27700 Y-4.28890
X8.27700 Y-4.89790
X8.27600 Y-4.89790
X8.27600 Y-5.50690
X8.27500 Y-5.50690
X8.27500 Y-5.62890
X8.27400 Y-5.62890
X8.27400 Y-5.63090
X8.27300 Y-5.63090
X8.27300 Y-5.63190
X8.27200 Y-5.63190
X8.27200 Y-5.63290
X8.08700 Y-5.63290
X8.08700 Y-5.63190
X7.75900 Y-5.63190
X7.75900 Y-5.63090
X7.43200 Y-5.63090
X7.43200 Y-5.62990
X7.10400 Y-5.62990
X7.10400 Y-5.62890
X6.77700 Y-5.62890
X6.77700 Y-5.62790
X6.44900 Y-5.62790
X6.44900 Y-5.62690
X6.12100 Y-5.62690
X6.12100 Y-5.62590
X5.97000 Y-5.62590
X5.97000 Y-5.62390
X5.96900 Y-5.62390
X5.96900 Y-5.62190
X5.96800 Y-5.62190
X5.96800 Y-5.44790
X5.96700 Y-5.44790
X5.96700 Y-4.57590
X5.96600 Y-4.57590
X5.96600 Y-3.70490
X5.96500 Y-3.70490
X5.96500 Y-3.26790
X5.96600 Y-3.26790
X5.96600 Y-3.26590
X5.96700 Y-3.26590
X5.96700 Y-3.26390
X8.27700 Y-3.26390
X8.27700 Y-3.26490
G04 P0 ( dwell for no time -- G64 should not smooth over this point )
G00 Z0.19685 ( retract )

G00 X7.41200 Y-3.34990 ( rapid move to begin. )
G01 Z-0.00394 F39.37008 ( plunge. )
G04 P0 ( dwell for no time -- G64 should not smooth over this point )
X7.41200 Y-3.34990
X7.41300 Y-3.34990
X7.41300 Y-3.35090
X7.41400 Y-3.35090
X7.41400 Y-3.35190
X7.41500 Y-3.35190
X7.41500 Y-3.35290
X7.41600 Y-3.35290
X7.41600 Y-3.35390
X7.41700 Y-3.35390
X7.41700 Y-3.35490
X7.41800 Y-3.35490
X7.41800 Y-3.35590
X7.41900 Y-3.35590
X7.41900 Y-3.35690
X7.42000 Y-3.35690
X7.42000 Y-3.35790
X7.42100 Y-3.35790
X7.42100 Y-3.35890
X7.42200 Y-3.35890
X7.42200 Y-3.35990
X7.42300 Y-3.35990
X7.42300 Y-3.36090
X7.42400 Y-3.36090
X7.42400 Y-3.36190
X7.42500 Y-3.36190
X7.42500 Y-3.36290
X7.42600 Y-3.36290
X7.42600 Y-3.36390
X7.42700 Y-3.36390
X7.42700 Y-3.36490
X7.42800 Y-3.36490
X7.42800 Y-3.36590
X7.42900 Y-3.36590
X7.42900 Y-3.36690
X7.43000 Y-3.36690
X7.43000 Y-3.36790
X7.43100 Y-3.36790
X7.43100 Y-3.36890
X7.43200 Y-3.36890
X7.43200 Y-3.36990
X7.43300 Y-3.36990
X7.43300 Y-3.37090
X7.43400 Y-3.37090
X7.43400 Y-3.37190
X7.43500 Y-3.37190
X7.43500 Y-3.37290
X7.43600 Y-3.37290
X7.43600 Y-3.37390
X7.43700 Y-3.37390
X7.43700 Y-3.37490
X7.43800 Y-3.37490
X7.43800 Y-3.37590
X7.43900 Y-3.37590
X7.43900 Y-3.37690
X7.44000 Y-3.37690
X7.44000 Y-3.37790
X7.44100 Y-3.37790
X7.44100 Y-3.37890
X7.44200 Y-3.37890
X7.44200 Y-3.37990
X7.44300 Y-3.37990
X7.44300 Y-3.38090
X7.44400 Y-3.38090
X7.44400 Y-3.38190
X7.44500 Y-3.38190
X7.44500 Y-3.38290
X7.44600 Y-3.38290
X7.44600 Y-3.38390
X7.44700 Y-3.38390
X7.44700 Y-3.38490
X7.44800 Y-3.38490
X7.44800 Y-3.38590
X7.44900 Y-3.38590
X7.44900 Y-3.38690
X7.45000 Y-3.38690
X7.45000 Y-3.38790
X7.45100 Y-3.38790
X7.45100 Y-3.38890
X7.45200 Y-3.38890
X7.45200 Y-3.38990
X7.45300 Y-3.38990
X7.45300 Y-3.39090
X7.45400 Y-3.39090
X7.45400 Y-3.39190
X7.45500 Y-3.39190
X7.45500 Y-3.39290
X7.45600 Y-3.39290
X7.45600 Y-3.39390
X7.45700 Y-3.39390
X7.45700 Y-3.39490
X7.45800 Y-3.39490
X7.45800 Y-3.39590
X7.45900 Y-3.39590
X7.45900 Y-3.39690
X7.46000 Y-3.39690
X7.46000 Y-3.39790
X7.46100 Y-3.39790
X7.46100 Y-3.39890
X7.46200 Y-3.39890
X7.46200 Y-3.39990
X7.46300 Y-3.39990
X7.46300 Y-3.40090
X7.46400 Y-3.40090
X7.46400 Y-3.40190
X7.46500 Y-3.40190
X7.46500 Y-3.40290
X7.46600 Y-3.40290
X7.46600 Y-3.40390
X7.46700 Y-3.40390
X7.46700 Y-3.40490
X7.46800 Y-3.40490
X7.46800 Y-3.40590
X7.46900 Y-3.40590
X7.46900 Y-3.40690
X7.47000 Y-3.40690
X7.47000 Y-3.40790
X7.47100 Y-3.40790
X7.47100 Y-3.40890
X7.47200 Y-3.40890
X7.47200 Y-3.40990
X7.47300 Y-3.40990
X7.47300 Y-3.41090
X7.47400 Y-3.41090
X7.47400 Y-3.41190
X7.47500 Y-3.41190
X7.47500 Y-3.41290
X7.47600 Y-3.41290
X7.47600 Y-3.41390
X7.47700 Y-3.41390
X7.47700 Y-3.41490
X7.47800 Y-3.41490
X7.47800 Y-3.41590
X7.47900 Y-3.41590
X7.47900 Y-3.41690
X7.48000 Y-3.41690
X7.48000 Y-3.41790
X7.48100 Y-3.41790
X7.48100 Y-3.41890
X7.48200 Y-3.41890
X7.48200 Y-3.41990
X7.48300 Y-3.41990
X7.48300 Y-3.42090
X7.48400 Y-3.42090
X7.48400 Y-3.42190
X7.48500 Y-3.42190
X7.48500 Y-3.42290
X7.48600 Y-3.42290
X7.48600 Y-3.42390
X7.48700 Y-3.42390
X7.48700 Y-3.42490
X7.48800 Y-3.42490
X7.48800 Y-3.42590
X7.48900 Y-3.42590
X7.48900 Y-3.42690
X7.49000 Y-3.42690
X7.49000 Y-3.42790
X7.49100 Y-3.42790
X7.49100 Y-3.42890
X7.49200 Y-3.42890
X7.49200 Y-3.42990
X7.49300 Y-3.42990
X7.49300 Y-3.43090
X7.49400 Y-3.43090
X7.49400 Y-3.43190
X7.49500 Y-3.43190
X7.49500 Y-3.43290
X7.49600 Y-3.43290
X7.49600 Y-3.43390
X7.49700 Y-3.43390
X7.49700 Y-3.43490
X7.49800 Y-3.43490
X7.49800 Y-3.43590
X7.49900 Y-3.43590
X7.49900 Y-3.43690
X7.50000 Y-3.43690
X7.50000 Y-3.43790
X7.50100 Y-3.43790
X7.50100 Y-3.43890
X7.50200 Y-3.43890
X7.50200 Y-3.43990
X7.50300 Y-3.43990
X7.50300 Y-3.44090
X7.50400 Y-3.44090
X7.50400 Y-3.44190
X7.50500 Y-3.44190
X7.50500 Y-3.44290
X7.50600 Y-3.44290
X7.50600 Y-3.44390
X7.50700 Y-3.44390
X7.50700 Y-3.44490
X7.50800 Y-3.44490
X7.50800 Y-3.44590
X7.50900 Y-3.44590
X7.50900 Y-3.44690
X7.51000 Y-3.44690
X7.51000 Y-3.44790
X7.51100 Y-3.44790
X7.51100 Y-3.44890
X7.51200 Y-3.44890
X7.51200 Y-3.44990
X7.51300 Y-3.44990
X7.51300 Y-3.45090
X7.51400 Y-3.45090
X7.51400 Y-3.45190
X7.51500 Y-3.45190
X7.51500 Y-3.45290
X7.51600 Y-3.45290
X7.51600 Y-3.45390
X7.51700 Y-3.45390
X7.51700 Y-3.45490
X7.51800 Y-3.45490
X7.51800 Y-3.45590
X7.51900 Y-3.45590
X7.51900 Y-3.45690
X7.52000 Y-3.45690
X7.52000 Y-3.45790
X7.52100 Y-3.45790
X7.52100 Y-3.45890
X7.52200 Y-3.45890
X7.52200 Y-3.45990
X7.52300 Y-3.45990
X7.52300 Y-3.46090
X7.52400 Y-3.46090
X7.52400 Y-3.46190
X7.52500 Y-3.46190
X7.52500 Y-3.46290
X7.52600 Y-3.46290
X7.52600 Y-3.46390
X7.52700 Y-3.46390
X7.52700 Y-3.46490
X7.52800 Y-3.46490
X7.52800 Y-3.46590
X7.52900 Y-3.46590
X7.52900 Y-3.46690
X7.53000 Y-3.46690
X7.53000 Y-3.46790
X7.53100 Y-3.46790
X7.53100 Y-3.46890
X7.53200 Y-3.46890
X7.53200 Y-3.46990
X7.53300 Y-3.46990
X7.53300 Y-3.47090
X7.53400 Y-3.47090
X7.53400 Y-3.47190
X7.53500 Y-3.47190
X7.53500 Y-3.47290
X7.53600 Y-3.47290
X7.53600 Y-3.47390
X7.53700 Y-3.47390
X7.53700 Y-3.47490
X7.53800 Y-3.47490
X7.53800 Y-3.47590
X7.53900 Y-3.47590
X7.53900 Y-3.47690
X7.54000 Y-3.47690
X7.54000 Y-3.47790
X7.54100 Y-3.47790
X7.54100 Y-3.47890
X7.54200 Y-3.47890
X7.54200 Y-3.47990
X7.54300 Y-3.47990
X7.54300 Y-3.48090
X7.54400 Y-3.48090
X7.54400 Y-3.48190
X7.54500 Y-3.48190
X7.54500 Y-3.48290
X7.54600 Y-3.48290
X7.54600 Y-3.48390
X7.54700 Y-3.48390
X7.54700 Y-3.48490
X7.54800 Y-3.48490
X7.54800 Y-3.48590
X7.54900 Y-3.48590
X7.54900 Y-3.48690
X7.55000 Y-3.48690
X7.55000 Y-3.48790
X7.55100 Y-3.48790
X7.55100 Y-3.48890
X7.55200 Y-3.48890
X7.55200 Y-3.48990
X7.55300 Y-3.48990
X7.55300 Y-3.49090
X7.67500 Y-3.49090
X7.67500 Y-3.46090
X7.66800 Y-3.46090
X7.66800 Y-3.40490
X7.70400 Y-3.40490
X7.70400 Y-3.46090
X7.68600 Y-3.46090
X7.68600 Y-3.49090
X7.76100 Y-3.49090
X7.76100 Y-3.49190
X7.76200 Y-3.49190
X7.76200 Y-3.49290
X7.76300 Y-3.49290
X7.76300 Y-3.49390
X7.76400 Y-3.49390
X7.76400 Y-3.49490
X7.76500 Y-3.49490
X7.76500 Y-3.49590
X7.76600 Y-3.49590
X7.76600 Y-3.49690
X7.76700 Y-3.49690
X7.76700 Y-3.49790
X7.76800 Y-3.49790
X7.76800 Y-3.49890
X7.76900 Y-3.49890
X7.76900 Y-3.49990
X7.77000 Y-3.49990
X7.77000 Y-3.50090
X7.77100 Y-3.50090
X7.77100 Y-3.50190
X7.77200 Y-3.50190
X7.77200 Y-3.50290
X7.77300 Y-3.50290
X7.77300 Y-3.50390
X7.77400 Y-3.50390
X7.77400 Y-3.50490
X7.77500 Y-3.50490
X7.77500 Y-3.50590
X7.77600 Y-3.50590
X7.77600 Y-3.50690
X7.77700 Y-3.50690
X7.77700 Y-3.50790
X7.77800 Y-3.50790
X7.77800 Y-3.50890
X7.77900 Y-3.50890
X7.77900 Y-3.50990
X7.78000 Y-3.50990
X7.78000 Y-3.51090
X7.78100 Y-3.51090
X7.78100 Y-3.51190
X7.78200 Y-3.51190
X7.78200 Y-3.51290
X7.78300 Y-3.51290
X7.78300 Y-3.51390
X7.78400 Y-3.51390
X7.78400 Y-3.51490
X7.78500 Y-3.51490
X7.78500 Y-3.51590
X7.78600 Y-3.51590
X7.78600 Y-3.51690
X7.78700 Y-3.51690
X7.78700 Y-3.51790
X7.78800 Y-3.51790
X7.78800 Y-3.51890
X7.78900 Y-3.51890
X7.78900 Y-3.51990
X7.79000 Y-3.51990
X7.79000 Y-3.52090
X7.79100 Y-3.52090
X7.79100 Y-3.52190
X7.79200 Y-3.52190
X7.79200 Y-3.52290
X7.79300 Y-3.52290
X7.79300 Y-3.52390
X7.79400 Y-3.52390
X7.79400 Y-3.52490
X7.79500 Y-3.52490
X7.79500 Y-3.52590
X7.79600 Y-3.52590
X7.79600 Y-3.52690
X7.79700 Y-3.52690
X7.79700 Y-3.52790
X7.79800 Y-3.52790
X7.79800 Y-3.52890
X7.79900 Y-3.52890
X7.79900 Y-3.52990
X7.80000 Y-3.52990
X7.80000 Y-3.53090
X7.80100 Y-3.53090
X7.80100 Y-3.53190
X7.80200 Y-3.53190
X7.80200 Y-3.53290
X7.80300 Y-3.53290
X7.80300 Y-3.53390
X7.80400 Y-3.53390
X7.80400 Y-3.53490
X7.80500 Y-3.53490
X7.80500 Y-3.53590
X7.80600 Y-3.53590
X7.80600 Y-3.53690
X7.80700 Y-3.53690
X7.80700 Y-3.53790
X7.80800 Y-3.53790
X7.80800 Y-3.53890
X7.80900 Y-3.53890
X7.80900 Y-3.53990
X7.81000 Y-3.53990
X7.81000 Y-3.54090
X7.81100 Y-3.54090
X7.81100 Y-3.54290
X7.81200 Y-3.54290
X7.81200 Y-3.58390
X7.81100 Y-3.58390
X7.81100 Y-3.58590
X7.81000 Y-3.58590
X7.81000 Y-3.58690
X7.80900 Y-3.58690
X7.80900 Y-3.58790
X7.80800 Y-3.58790
X7.80800 Y-3.58890
X7.80700 Y-3.58890
X7.80700 Y-3.58990
X7.80600 Y-3.58990
X7.80600 Y-3.59090
X7.80500 Y-3.59090
X7.80500 Y-3.59190
X7.80400 Y-3.59190
X7.80400 Y-3.59290
X7.80300 Y-3.59290
X7.80300 Y-3.59390
X7.80200 Y-3.59390
X7.80200 Y-3.59490
X7.80100 Y-3.59490
X7.80100 Y-3.59590
X7.80000 Y-3.59590
X7.80000 Y-3.59690
X7.74900 Y-3.59690
X7.74900 Y-3.58690
X7.76700 Y-3.58690
X7.76700 Y-3.58390
X7.76000 Y-3.58390
X7.76000 Y-3.58290
X7.75900 Y-3.58290
X7.75900 Y-3.58090
X7.77000 Y-3.58090
X7.77000 Y-3.58690
X7.79400 Y-3.58690
X7.79400 Y-3.58590
X7.79500 Y-3.58590
X7.79500 Y-3.58490
X7.79600 Y-3.58490
X7.79600 Y-3.58390
X7.79700 Y-3.58390
X7.79700 Y-3.58290
X7.79800 Y-3.58290
X7.79800 Y-3.58190
X7.79900 Y-3.58190
X7.79900 Y-3.58090
X7.80000 Y-3.58090
X7.80000 Y-3.57990
X7.80100 Y-3.57990
X7.80100 Y-3.57890
X7.80200 Y-3.57890
X7.80200 Y-3.54790
X7.80100 Y-3.54790
X7.80100 Y-3.54690
X7.80000 Y-3.54690
X7.80000 Y-3.54590
X7.79900 Y-3.54590
X7.79900 Y-3.54490
X7.79800 Y-3.54490
X7.79800 Y-3.54390
X7.79700 Y-3.54390
X7.79700 Y-3.54290
X7.79600 Y-3.54290
X7.79600 Y-3.54190
X7.79500 Y-3.54190
X7.79500 Y-3.54090
X7.79400 Y-3.54090
X7.79400 Y-3.53990
X7.79300 Y-3.53990
X7.79300 Y-3.53890
X7.79200 Y-3.53890
X7.79200 Y-3.53790
X7.79100 Y-3.53790
X7.79100 Y-3.53690
X7.79000 Y-3.53690
X7.79000 Y-3.53590
X7.78900 Y-3.53590
X7.78900 Y-3.53490
X7.78800 Y-3.53490
X7.78800 Y-3.53390
X7.78700 Y-3.53390
X7.78700 Y-3.53290
X7.78600 Y-3.53290
X7.78600 Y-3.53190
X7.78500 Y-3.53190
X7.78500 Y-3.53090
X7.78400 Y-3.53090
X7.78400 Y-3.52990
X7.78300 Y-3.52990
X7.78300 Y-3.52890
X7.78200 Y-3.52890
X7.78200 Y-3.52790
X7.78100 Y-3.52790
X7.78100 Y-3.52690
X7.78000 Y-3.52690
X7.78000 Y-3.52590
X7.77900 Y-3.52590
X7.77900 Y-3.52490
X7.77800 Y-3.52490
X7.77800 Y-3.52390
X7.77700 Y-3.52390
X7.77700 Y-3.52290
X7.77600 Y-3.52290
X7.77600 Y-3.52190
X7.77500 Y-3.52190
X7.77500 Y-3.52090
X7.77400 Y-3.52090
X7.77400 Y-3.51990
X7.77300 Y-3.51990
X7.77300 Y-3.51890
X7.77200 Y-3.51890
X7.77200 Y-3.51790
X7.77100 Y-3.51790
X7.77100 Y-3.51690
X7.77000 Y-3.51690
X7.77000 Y-3.51590
X7.76900 Y-3.51590
X7.76900 Y-3.51490
X7.76800 Y-3.51490
X7.76800 Y-3.51390
X7.76700 Y-3.51390
X7.76700 Y-3.51290
X7.76600 Y-3.51290
X7.76600 Y-3.51190
X7.76500 Y-3.51190
X7.76500 Y-3.51090
X7.76400 Y-3.51090
X7.76400 Y-3.50990
X7.76300 Y-3.50990
X7.76300 Y-3.50890
X7.76200 Y-3.50890
X7.76200 Y-3.50790
X7.76100 Y-3.50790
X7.76100 Y-3.50690
X7.76000 Y-3.50690
X7.76000 Y-3.50590
X7.75900 Y-3.50590
X7.75900 Y-3.50490
X7.75800 Y-3.50490
X7.75800 Y-3.50390
X7.75700 Y-3.50390
X7.75700 Y-3.50290
X7.75600 Y-3.50290
X7.75600 Y-3.50190
X7.75500 Y-3.50190
X7.75500 Y-3.50090
X7.56400 Y-3.50090
X7.56400 Y-3.50190
X7.56500 Y-3.50190
X7.56500 Y-3.50290
X7.56600 Y-3.50290
X7.56600 Y-3.50390
X7.56700 Y-3.50390
X7.56700 Y-3.50490
X7.56800 Y-3.50490
X7.56800 Y-3.50590
X7.56900 Y-3.50590
X7.56900 Y-3.50690
X7.57000 Y-3.50690
X7.57000 Y-3.50790
X7.57100 Y-3.50790
X7.57100 Y-3.50890
X7.57200 Y-3.50890
X7.57200 Y-3.50990
X7.57300 Y-3.50990
X7.57300 Y-3.51090
X7.57400 Y-3.51090
X7.57400 Y-3.51190
X7.57500 Y-3.51190
X7.57500 Y-3.51290
X7.57600 Y-3.51290
X7.57600 Y-3.51390
X7.57700 Y-3.51390
X7.57700 Y-3.51490
X7.57800 Y-3.51490
X7.57800 Y-3.51590
X7.57900 Y-3.51590
X7.57900 Y-3.51690
X7.58000 Y-3.51690
X7.58000 Y-3.51790
X7.58100 Y-3.51790
X7.58100 Y-3.51890
X7.58200 Y-3.51890
X7.58200 Y-3.51990
X7.58300 Y-3.51990
X7.58300 Y-3.52090
X7.58400 Y-3.52090
X7.58400 Y-3.52190
X7.58500 Y-3.52190
X7.58500 Y-3.52290
X7.58600 Y-3.52290
X7.58600 Y-3.52390
X7.58700 Y-3.52390
X7.58700 Y-3.52490
X7.58800 Y-3.52490
X7.58800 Y-3.52590
X7.58900 Y-3.52590
X7.58900 Y-3.52690
X7.59000 Y-3.52690
X7.59000 Y-3.52790
X7.59100 Y-3.52790
X7.59100 Y-3.52890
X7.59200 Y-3.52890
X7.59200 Y-3.52990
X7.59300 Y-3.52990
X7.59300 Y-3.53090
X7.59400 Y-3.53090
X7.59400 Y-3.53190
X7.59500 Y-3.53190
X7.59500 Y-3.53290
X7.59600 Y-3.53290
X7.59600 Y-3.53390
X7.59700 Y-3.53390
X7.59700 Y-3.53490
X7.59800 Y-3.53490
X7.59800 Y-3.53590
X7.59900 Y-3.53590
X7.59900 Y-3.53690
X7.60000 Y-3.53690
X7.60000 Y-3.53790
X7.60100 Y-3.53790
X7.60100 Y-3.53890
X7.60200 Y-3.53890
X7.60200 Y-3.53990
X7.60300 Y-3.53990
X7.60300 Y-3.54090
X7.60400 Y-3.54090
X7.60400 Y-3.54190
X7.60500 Y-3.54190
X7.60500 Y-3.54290
X7.60600 Y-3.54290
X7.60600 Y-3.54390
X7.60700 Y-3.54390
X7.60700 Y-3.54490
X7.60800 Y-3.54490
X7.60800 Y-3.54590
X7.60900 Y-3.54590
X7.60900 Y-3.54690
X7.61000 Y-3.54690
X7.61000 Y-3.54790
X7.61100 Y-3.54790
X7.61100 Y-3.54890
X7.61200 Y-3.54890
X7.61200 Y-3.54990
X7.61300 Y-3.54990
X7.61300 Y-3.55090
X7.61400 Y-3.55090
X7.61400 Y-3.55190
X7.61500 Y-3.55190
X7.61500 Y-3.55290
X7.61600 Y-3.55290
X7.61600 Y-3.55390
X7.61700 Y-3.55390
X7.61700 Y-3.55490
X7.61800 Y-3.55490
X7.61800 Y-3.55590
X7.61900 Y-3.55590
X7.61900 Y-3.55690
X7.62000 Y-3.55690
X7.62000 Y-3.55790
X7.62100 Y-3.55790
X7.62100 Y-3.55890
X7.62200 Y-3.55890
X7.62200 Y-3.55990
X7.62300 Y-3.55990
X7.62300 Y-3.56090
X7.62400 Y-3.56090
X7.62400 Y-3.56190
X7.62500 Y-3.56190
X7.62500 Y-3.56290
X7.62600 Y-3.56290
X7.62600 Y-3.56390
X7.62700 Y-3.56390
X7.62700 Y-3.56490
X7.62800 Y-3.56490
X7.62800 Y-3.56590
X7.62900 Y-3.56590
X7.62900 Y-3.56690
X7.63000 Y-3.56690
X7.63000 Y-3.56790
X7.63100 Y-3.56790
X7.63100 Y-3.56890
X7.63200 Y-3.56890
X7.63200 Y-3.56990
X7.63300 Y-3.56990
X7.63300 Y-3.57090
X7.63400 Y-3.57090
X7.63400 Y-3.57190
X7.63500 Y-3.57190
X7.63500 Y-3.57290
X7.63600 Y-3.57290
X7.63600 Y-3.57390
X7.63700 Y-3.57390
X7.63700 Y-3.57490
X7.63800 Y-3.57490
X7.63800 Y-3.57590
X7.63900 Y-3.57590
X7.63900 Y-3.57690
X7.64000 Y-3.57690
X7.64000 Y-3.57790
X7.64100 Y-3.57790
X7.64100 Y-3.57890
X7.64200 Y-3.57890
X7.64200 Y-3.57990
X7.64300 Y-3.57990
X7.64300 Y-3.58090
X7.64400 Y-3.58090
X7.64400 Y-3.58190
X7.64500 Y-3.58190
X7.64500 Y-3.58290
X7.64600 Y-3.58290
X7.64600 Y-3.58390
X7.64700 Y-3.58390
X7.64700 Y-3.58490
X7.64800 Y-3.58490
X7.64800 Y-3.58590
X7.68800 Y-3.58590
X7.68800 Y-3.58090
X7.69900 Y-3.58090
X7.69900 Y-3.58290
X7.69800 Y-3.58290
X7.69800 Y-3.58390
X7.69100 Y-3.58390
X7.69100 Y-3.58590
X7.70900 Y-3.58590
X7.70900 Y-3.59690
X7.64400 Y-3.59690
X7.64400 Y-3.59590
X7.64200 Y-3.59590
X7.64200 Y-3.59490
X7.64100 Y-3.59490
X7.64100 Y-3.59390
X7.64000 Y-3.59390
X7.64000 Y-3.59290
X7.63900 Y-3.59290
X7.63900 Y-3.59190
X7.63800 Y-3.59190
X7.63800 Y-3.59090
X7.63700 Y-3.59090
X7.63700 Y-3.58990
X7.63600 Y-3.58990
X7.63600 Y-3.58890
X7.63500 Y-3.58890
X7.63500 Y-3.58790
X7.63400 Y-3.58790
X7.63400 Y-3.58690
X7.63300 Y-3.58690
X7.63300 Y-3.58590
X7.63200 Y-3.58590
X7.63200 Y-3.58490
X7.63100 Y-3.58490
X7.63100 Y-3.58390
X7.63000 Y-3.58390
X7.63000 Y-3.58290
X7.62900 Y-3.58290
X7.62900 Y-3.58190
X7.62800 Y-3.58190
X7.62800 Y-3.58090
X7.62700 Y-3.58090
X7.62700 Y-3.57990
X7.62600 Y-3.57990
X7.62600 Y-3.57890
X7.62500 Y-3.57890
X7.62500 Y-3.57790
X7.62400 Y-3.57790
X7.62400 Y-3.57690
X7.62300 Y-3.57690
X7.62300 Y-3.57590
X7.62200 Y-3.57590
X7.62200 Y-3.57490
X7.62100 Y-3.57490
X7.62100 Y-3.57390
X7.62000 Y-3.57390
X7.62000 Y-3.57290
X7.61900 Y-3.57290
X7.61900 Y-3.57190
X7.61800 Y-3.57190
X7.61800 Y-3.57090
X7.61700 Y-3.57090
X7.61700 Y-3.56990
X7.61600 Y-3.56990
X7.61600 Y-3.56890
X7.61500 Y-3.56890
X7.61500 Y-3.56790
X7.61400 Y-3.56790
X7.61400 Y-3.56690
X7.61300 Y-3.56690
X7.61300 Y-3.56590
X7.61200 Y-3.56590
X7.61200 Y-3.56490
X7.61100 Y-3.56490
X7.61100 Y-3.56390
X7.61000 Y-3.56390
X7.61000 Y-3.56290
X7.60900 Y-3.56290
X7.60900 Y-3.56190
X7.60800 Y-3.56190
X7.60800 Y-3.56090
X7.60700 Y-3.56090
X7.60700 Y-3.55990
X7.60600 Y-3.55990
X7.60600 Y-3.55890
X7.60500 Y-3.55890
X7.60500 Y-3.55790
X7.60400 Y-3.55790
X7.60400 Y-3.55690
X7.60300 Y-3.55690
X7.60300 Y-3.55590
X7.60200 Y-3.55590
X7.60200 Y-3.55490
X7.60100 Y-3.55490
X7.60100 Y-3.55390
X7.60000 Y-3.55390
X7.60000 Y-3.55290
X7.59900 Y-3.55290
X7.59900 Y-3.55190
X7.59800 Y-3.55190
X7.59800 Y-3.55090
X7.59700 Y-3.55090
X7.59700 Y-3.54990
X7.59600 Y-3.54990
X7.59600 Y-3.54890
X7.59500 Y-3.54890
X7.59500 Y-3.54790
X7.59400 Y-3.54790
X7.59400 Y-3.54690
X7.59300 Y-3.54690
X7.59300 Y-3.54590
X7.59200 Y-3.54590
X7.59200 Y-3.54490
X7.59100 Y-3.54490
X7.59100 Y-3.54390
X7.59000 Y-3.54390
X7.59000 Y-3.54290
X7.58900 Y-3.54290
X7.58900 Y-3.54190
X7.58800 Y-3.54190
X7.58800 Y-3.54090
X7.58700 Y-3.54090
X7.58700 Y-3.53990
X7.58600 Y-3.53990
X7.58600 Y-3.53890
X7.58500 Y-3.53890
X7.58500 Y-3.53790
X7.58400 Y-3.53790
X7.58400 Y-3.53690
X7.58300 Y-3.53690
X7.58300 Y-3.53590
X7.58200 Y-3.53590
X7.58200 Y-3.53490
X7.58100 Y-3.53490
X7.58100 Y-3.53390
X7.58000 Y-3.53390
X7.58000 Y-3.53290
X7.57900 Y-3.53290
X7.57900 Y-3.53190
X7.57800 Y-3.53190
X7.57800 Y-3.53090
X7.57700 Y-3.53090
X7.57700 Y-3.52990
X7.57600 Y-3.52990
X7.57600 Y-3.52890
X7.57500 Y-3.52890
X7.57500 Y-3.52790
X7.57400 Y-3.52790
X7.57400 Y-3.52690
X7.57300 Y-3.52690
X7.57300 Y-3.52590
X7.57200 Y-3.52590
X7.57200 Y-3.52490
X7.57100 Y-3.52490
X7.57100 Y-3.52390
X7.57000 Y-3.52390
X7.57000 Y-3.52290
X7.56900 Y-3.52290
X7.56900 Y-3.52190
X7.56800 Y-3.52190
X7.56800 Y-3.52090
X7.56700 Y-3.52090
X7.56700 Y-3.51990
X7.56600 Y-3.51990
X7.56600 Y-3.51890
X7.56500 Y-3.51890
X7.56500 Y-3.51790
X7.56400 Y-3.51790
X7.56400 Y-3.51690
X7.56300 Y-3.51690
X7.56300 Y-3.51590
X7.56200 Y-3.51590
X7.56200 Y-3.51490
X7.56100 Y-3.51490
X7.56100 Y-3.51390
X7.56000 Y-3.51390
X7.56000 Y-3.51290
X7.55900 Y-3.51290
X7.55900 Y-3.51190
X7.55800 Y-3.51190
X7.55800 Y-3.51090
X7.55700 Y-3.51090
X7.55700 Y-3.50990
X7.55600 Y-3.50990
X7.55600 Y-3.50890
X7.55500 Y-3.50890
X7.55500 Y-3.50790
X7.55400 Y-3.50790
X7.55400 Y-3.50690
X7.55300 Y-3.50690
X7.55300 Y-3.50590
X7.55200 Y-3.50590
X7.55200 Y-3.50490
X7.55100 Y-3.50490
X7.55100 Y-3.50390
X7.55000 Y-3.50390
X7.55000 Y-3.50290
X7.54900 Y-3.50290
X7.54900 Y-3.50190
X7.54800 Y-3.50190
X7.54800 Y-3.50090
X7.54700 Y-3.50090
X7.54700 Y-3.49990
X7.54600 Y-3.49990
X7.54600 Y-3.49890
X7.54500 Y-3.49890
X7.54500 Y-3.49790
X7.54400 Y-3.49790
X7.54400 Y-3.49690
X7.54300 Y-3.49690
X7.54300 Y-3.49590
X7.54200 Y-3.49590
X7.54200 Y-3.49490
X7.54100 Y-3.49490
X7.54100 Y-3.49390
X7.54000 Y-3.49390
X7.54000 Y-3.49290
X7.53900 Y-3.49290
X7.53900 Y-3.49190
X7.53800 Y-3.49190
X7.53800 Y-3.49090
X7.53700 Y-3.49090
X7.53700 Y-3.48990
X7.53600 Y-3.48990
X7.53600 Y-3.48890
X7.53500 Y-3.48890
X7.53500 Y-3.48790
X7.53400 Y-3.48790
X7.53400 Y-3.48690
X7.53300 Y-3.48690
X7.53300 Y-3.48590
X7.53200 Y-3.48590
X7.53200 Y-3.48490
X7.53100 Y-3.48490
X7.53100 Y-3.48390
X7.53000 Y-3.48390
X7.53000 Y-3.48290
X7.52900 Y-3.48290
X7.52900 Y-3.48190
X7.52800 Y-3.48190
X7.52800 Y-3.48090
X7.52700 Y-3.48090
X7.52700 Y-3.47990
X7.52600 Y-3.47990
X7.52600 Y-3.47890
X7.52500 Y-3.47890
X7.52500 Y-3.47790
X7.52400 Y-3.47790
X7.52400 Y-3.47690
X7.52300 Y-3.47690
X7.52300 Y-3.47590
X7.52200 Y-3.47590
X7.52200 Y-3.47490
X7.52100 Y-3.47490
X7.52100 Y-3.47390
X7.52000 Y-3.47390
X7.52000 Y-3.47290
X7.51900 Y-3.47290
X7.51900 Y-3.47190
X7.51800 Y-3.47190
X7.51800 Y-3.47090
X7.51700 Y-3.47090
X7.51700 Y-3.46990
X7.51600 Y-3.46990
X7.51600 Y-3.46890
X7.51500 Y-3.46890
X7.51500 Y-3.46790
X7.51400 Y-3.46790
X7.51400 Y-3.46690
X7.51300 Y-3.46690
X7.51300 Y-3.46590
X7.51200 Y-3.46590
X7.51200 Y-3.46490
X7.51100 Y-3.46490
X7.51100 Y-3.46390
X7.51000 Y-3.46390
X7.51000 Y-3.46290
X7.50900 Y-3.46290
X7.50900 Y-3.46190
X7.50800 Y-3.46190
X7.50800 Y-3.46090
X7.50700 Y-3.46090
X7.50700 Y-3.45990
X7.50600 Y-3.45990
X7.50600 Y-3.45890
X7.50500 Y-3.45890
X7.50500 Y-3.45790
X7.50400 Y-3.45790
X7.50400 Y-3.45690
X7.50300 Y-3.45690
X7.50300 Y-3.45590
X7.50200 Y-3.45590
X7.50200 Y-3.45490
X7.50100 Y-3.45490
X7.50100 Y-3.45390
X7.50000 Y-3.45390
X7.50000 Y-3.45290
X7.49900 Y-3.45290
X7.49900 Y-3.45190
X7.49800 Y-3.45190
X7.49800 Y-3.45090
X7.49700 Y-3.45090
X7.49700 Y-3.44990
X7.49600 Y-3.44990
X7.49600 Y-3.44890
X7.49500 Y-3.44890
X7.49500 Y-3.44790
X7.49400 Y-3.44790
X7.49400 Y-3.44690
X7.49300 Y-3.44690
X7.49300 Y-3.44590
X7.49200 Y-3.44590
X7.49200 Y-3.44490
X7.49100 Y-3.44490
X7.49100 Y-3.44390
X7.49000 Y-3.44390
X7.49000 Y-3.44290
X7.48900 Y-3.44290
X7.48900 Y-3.44190
X7.48800 Y-3.44190
X7.48800 Y-3.44090
X7.48700 Y-3.44090
X7.48700 Y-3.43990
X7.48600 Y-3.43990
X7.48600 Y-3.43890
X7.48500 Y-3.43890
X7.48500 Y-3.43790
X7.48400 Y-3.43790
X7.48400 Y-3.43690
X7.48300 Y-3.43690
X7.48300 Y-3.43590
X7.48200 Y-3.43590
X7.48200 Y-3.43490
X7.48100 Y-3.43490
X7.48100 Y-3.43390
X7.48000 Y-3.43390
X7.48000 Y-3.43290
X7.47900 Y-3.43290
X7.47900 Y-3.43190
X7.47800 Y-3.43190
X7.47800 Y-3.43090
X7.47700 Y-3.43090
X7.47700 Y-3.42990
X7.47600 Y-3.42990
X7.47600 Y-3.42890
X7.47500 Y-3.42890
X7.47500 Y-3.42790
X7.47400 Y-3.42790
X7.47400 Y-3.42690
X7.47300 Y-3.42690
X7.47300 Y-3.42590
X7.47200 Y-3.42590
X7.47200 Y-3.42490
X7.47100 Y-3.42490
X7.47100 Y-3.42390
X7.47000 Y-3.42390
X7.47000 Y-3.42290
X7.46900 Y-3.42290
X7.46900 Y-3.42190
X7.46800 Y-3.42190
X7.46800 Y-3.42090
X7.46700 Y-3.42090
X7.46700 Y-3.41990
X7.46600 Y-3.41990
X7.46600 Y-3.41890
X7.46500 Y-3.41890
X7.46500 Y-3.41790
X7.46400 Y-3.41790
X7.46400 Y-3.41690
X7.46300 Y-3.41690
X7.46300 Y-3.41590
X7.46200 Y-3.41590
X7.46200 Y-3.41490
X7.46100 Y-3.41490
X7.46100 Y-3.41390
X7.46000 Y-3.41390
X7.46000 Y-3.41290
X7.45900 Y-3.41290
X7.45900 Y-3.41190
X7.45800 Y-3.41190
X7.45800 Y-3.41090
X7.45700 Y-3.41090
X7.45700 Y-3.40990
X7.45600 Y-3.40990
X7.45600 Y-3.40890
X7.45500 Y-3.40890
X7.45500 Y-3.40790
X7.45400 Y-3.40790
X7.45400 Y-3.40690
X7.45300 Y-3.40690
X7.45300 Y-3.40590
X7.45200 Y-3.40590
X7.45200 Y-3.40490
X7.45100 Y-3.40490
X7.45100 Y-3.40390
X7.45000 Y-3.40390
X7.45000 Y-3.40290
X7.44900 Y-3.40290
X7.44900 Y-3.40190
X7.44800 Y-3.40190
X7.44800 Y-3.40090
X7.44700 Y-3.40090
X7.44700 Y-3.39990
X7.44600 Y-3.39990
X7.44600 Y-3.39890
X7.44500 Y-3.39890
X7.44500 Y-3.39790
X7.44400 Y-3.39790
X7.44400 Y-3.39690
X7.44300 Y-3.39690
X7.44300 Y-3.39590
X7.44200 Y-3.39590
X7.44200 Y-3.39490
X7.44100 Y-3.39490
X7.44100 Y-3.39390
X7.44000 Y-3.39390
X7.44000 Y-3.39290
X7.43900 Y-3.39290
X7.43900 Y-3.39190
X7.43800 Y-3.39190
X7.43800 Y-3.39090
X7.43700 Y-3.39090
X7.43700 Y-3.38990
X7.43600 Y-3.38990
X7.43600 Y-3.38890
X7.43500 Y-3.38890
X7.43500 Y-3.38790
X7.43400 Y-3.38790
X7.43400 Y-3.38690
X7.43300 Y-3.38690
X7.43300 Y-3.38590
X7.43200 Y-3.38590
X7.43200 Y-3.38490
X7.43100 Y-3.38490
X7.43100 Y-3.38390
X7.43000 Y-3.38390
X7.43000 Y-3.38290
X7.42900 Y-3.38290
X7.42900 Y-3.38190
X7.42800 Y-3.38190
X7.42800 Y-3.38090
X7.42700 Y-3.38090
X7.42700 Y-3.37990
X7.42600 Y-3.37990
X7.42600 Y-3.37890
X7.42500 Y-3.37890
X7.42500 Y-3.37790
X7.42400 Y-3.37790
X7.42400 Y-3.37690
X7.42300 Y-3.37690
X7.42300 Y-3.37590
X7.42200 Y-3.37590
X7.42200 Y-3.37490
X7.42100 Y-3.37490
X7.42100 Y-3.37390
X7.42000 Y-3.37390
X7.42000 Y-3.37290
X7.41900 Y-3.37290
X7.41900 Y-3.37190
X7.41800 Y-3.37190
X7.41800 Y-3.37090
X7.41700 Y-3.37090
X7.41700 Y-3.36990
X7.41600 Y-3.36990
X7.41600 Y-3.36890
X7.41500 Y-3.36890
X7.41500 Y-3.36790
X7.41400 Y-3.36790
X7.41400 Y-3.36690
X7.41300 Y-3.36690
X7.41300 Y-3.36590
X7.41200 Y-3.36590
X7.41200 Y-3.36490
X7.41100 Y-3.36490
X7.41100 Y-3.36390
X7.41000 Y-3.36390
X7.41000 Y-3.36290
X7.40900 Y-3.36290
X7.40900 Y-3.36190
X7.40800 Y-3.36190
X7.40800 Y-3.36090
X7.40700 Y-3.36090
X7.40700 Y-3.35990
X7.19200 Y-3.35990
X7.19200 Y-3.76090
X7.19300 Y-3.76090
X7.19300 Y-3.76190
X7.19400 Y-3.76190
X7.19400 Y-3.76290
X7.19500 Y-3.76290
X7.19500 Y-3.76390
X7.19600 Y-3.76390
X7.19600 Y-3.76490
X7.19700 Y-3.76490
X7.19700 Y-3.76590
X7.19800 Y-3.76590
X7.19800 Y-3.76690
X7.19900 Y-3.76690
X7.19900 Y-3.76790
X7.20000 Y-3.76790
X7.20000 Y-3.76890
X7.20100 Y-3.76890
X7.20100 Y-3.76990
X7.20200 Y-3.76990
X7.20200 Y-3.77090
X7.20300 Y-3.77090
X7.20300 Y-3.77190
X7.20400 Y-3.77190
X7.20400 Y-3.77290
X7.20500 Y-3.77290
X7.20500 Y-3.77390
X7.20600 Y-3.77390
X7.20600 Y-3.77490
X7.20700 Y-3.77490
X7.20700 Y-3.77590
X7.20800 Y-3.77590
X7.20800 Y-3.77690
X7.20900 Y-3.77690
X7.20900 Y-3.77790
X7.21000 Y-3.77790
X7.21000 Y-3.77890
X7.21100 Y-3.77890
X7.21100 Y-3.77990
X7.21200 Y-3.77990
X7.21200 Y-3.78090
X7.21300 Y-3.78090
X7.21300 Y-3.78190
X7.21400 Y-3.78190
X7.21400 Y-3.78290
X7.21500 Y-3.78290
X7.21500 Y-3.78390
X7.21600 Y-3.78390
X7.21600 Y-3.78490
X7.21700 Y-3.78490
X7.21700 Y-3.78590
X7.21800 Y-3.78590
X7.21800 Y-3.78690
X7.21900 Y-3.78690
X7.21900 Y-3.78790
X7.22000 Y-3.78790
X7.22000 Y-3.78890
X7.22100 Y-3.78890
X7.22100 Y-3.78990
X7.22200 Y-3.78990
X7.22200 Y-3.79090
X7.22300 Y-3.79090
X7.22300 Y-3.79190
X7.22400 Y-3.79190
X7.22400 Y-3.79290
X7.22500 Y-3.79290
X7.22500 Y-3.79390
X7.22600 Y-3.79390
X7.22600 Y-3.79490
X7.22700 Y-3.79490
X7.22700 Y-3.79590
X7.22800 Y-3.79590
X7.22800 Y-3.79690
X7.22900 Y-3.79690
X7.22900 Y-3.79790
X7.23000 Y-3.79790
X7.23000 Y-3.79890
X7.23100 Y-3.79890
X7.23100 Y-3.79990
X7.23200 Y-3.79990
X7.23200 Y-3.80090
X7.23300 Y-3.80090
X7.23300 Y-3.80190
X7.23400 Y-3.80190
X7.23400 Y-3.80290
X7.23500 Y-3.80290
X7.23500 Y-3.80390
X7.23600 Y-3.80390
X7.23600 Y-3.80490
X7.23700 Y-3.80490
X7.23700 Y-3.80590
X7.23800 Y-3.80590
X7.23800 Y-3.80690
X7.23900 Y-3.80690
X7.23900 Y-3.80790
X7.24000 Y-3.80790
X7.24000 Y-3.80890
X7.24100 Y-3.80890
X7.24100 Y-3.80990
X7.24200 Y-3.80990
X7.24200 Y-3.81090
X7.24300 Y-3.81090
X7.24300 Y-3.81190
X7.24400 Y-3.81190
X7.24400 Y-3.81290
X7.24500 Y-3.81290
X7.24500 Y-3.81390
X7.24600 Y-3.81390
X7.24600 Y-3.81490
X7.24700 Y-3.81490
X7.24700 Y-3.81590
X7.24800 Y-3.81590
X7.24800 Y-3.81690
X7.24900 Y-3.81690
X7.24900 Y-3.81790
X7.25000 Y-3.81790
X7.25000 Y-3.81890
X7.25100 Y-3.81890
X7.25100 Y-3.81990
X7.25200 Y-3.81990
X7.25200 Y-3.82090
X7.25300 Y-3.82090
X7.25300 Y-3.82190
X7.25400 Y-3.82190
X7.25400 Y-3.82290
X7.25500 Y-3.82290
X7.25500 Y-3.82390
X7.25600 Y-3.82390
X7.25600 Y-3.82490
X7.25700 Y-3.82490
X7.25700 Y-3.82590
X7.25800 Y-3.82590
X7.25800 Y-3.82690
X7.25900 Y-3.82690
X7.25900 Y-3.82790
X7.26000 Y-3.82790
X7.26000 Y-3.82890
X7.26100 Y-3.82890
X7.26100 Y-3.82990
X7.26200 Y-3.82990
X7.26200 Y-3.83090
X7.26300 Y-3.83090
X7.26300 Y-3.83190
X7.26400 Y-3.83190
X7.26400 Y-3.83290
X7.26500 Y-3.83290
X7.26500 Y-3.83390
X7.26600 Y-3.83390
X7.26600 Y-3.83490
X7.26700 Y-3.83490
X7.26700 Y-3.83590
X7.26800 Y-3.83590
X7.26800 Y-3.83690
X7.26900 Y-3.83690
X7.26900 Y-3.83790
X7.27000 Y-3.83790
X7.27000 Y-3.83890
X7.27100 Y-3.83890
X7.27100 Y-3.83990
X7.58600 Y-3.83990
X7.58600 Y-3.83890
X7.58700 Y-3.83890
X7.58700 Y-3.83790
X7.58800 Y-3.83790
X7.58800 Y-3.83690
X7.58900 Y-3.83690
X7.58900 Y-3.83590
X7.59000 Y-3.83590
X7.59000 Y-3.83490
X7.59100 Y-3.83490
X7.59100 Y-3.83390
X7.59200 Y-3.83390
X7.59200 Y-3.83290
X7.59300 Y-3.83290
X7.59300 Y-3.83190
X7.59400 Y-3.83190
X7.59400 Y-3.83090
X7.59500 Y-3.83090
X7.59500 Y-3.82990
X7.59600 Y-3.82990
X7.59600 Y-3.82890
X7.59700 Y-3.82890
X7.59700 Y-3.82790
X7.59800 Y-3.82790
X7.59800 Y-3.82690
X7.59900 Y-3.82690
X7.59900 Y-3.82590
X7.60000 Y-3.82590
X7.60000 Y-3.82490
X7.60100 Y-3.82490
X7.60100 Y-3.82390
X7.60200 Y-3.82390
X7.60200 Y-3.82290
X7.60300 Y-3.82290
X7.60300 Y-3.82190
X7.60400 Y-3.82190
X7.60400 Y-3.82090
X7.60500 Y-3.82090
X7.60500 Y-3.81990
X7.60600 Y-3.81990
X7.60600 Y-3.81890
X7.60700 Y-3.81890
X7.60700 Y-3.81790
X7.60800 Y-3.81790
X7.60800 Y-3.81690
X7.60900 Y-3.81690
X7.60900 Y-3.81590
X7.61000 Y-3.81590
X7.61000 Y-3.81490
X7.61100 Y-3.81490
X7.61100 Y-3.81390
X7.61200 Y-3.81390
X7.61200 Y-3.81290
X7.61300 Y-3.81290
X7.61300 Y-3.81190
X7.61400 Y-3.81190
X7.61400 Y-3.81090
X7.61500 Y-3.81090
X7.61500 Y-3.80990
X7.61600 Y-3.80990
X7.61600 Y-3.80890
X7.61700 Y-3.80890
X7.61700 Y-3.80790
X7.61800 Y-3.80790
X7.61800 Y-3.80690
X7.61900 Y-3.80690
X7.61900 Y-3.80590
X7.62000 Y-3.80590
X7.62000 Y-3.80490
X7.62100 Y-3.80490
X7.62100 Y-3.80390
X7.62200 Y-3.80390
X7.62200 Y-3.80290
X7.62300 Y-3.80290
X7.62300 Y-3.80190
X7.62400 Y-3.80190
X7.62400 Y-3.80090
X7.62500 Y-3.80090
X7.62500 Y-3.79990
X7.62600 Y-3.79990
X7.62600 Y-3.79890
X7.62700 Y-3.79890
X7.62700 Y-3.79790
X7.62800 Y-3.79790
X7.62800 Y-3.79690
X7.62900 Y-3.79690
X7.62900 Y-3.79590
X7.63100 Y-3.79590
X7.63100 Y-3.79490
X7.69000 Y-3.79490
X7.69000 Y-3.77190
X7.72600 Y-3.77190
X7.72600 Y-3.82790
X7.71400 Y-3.82790
X7.71400 Y-3.85890
X7.75700 Y-3.85890
X7.75700 Y-3.85990
X7.75900 Y-3.85990
X7.75900 Y-3.86090
X7.76000 Y-3.86090
X7.76000 Y-3.86190
X7.76100 Y-3.86190
X7.76100 Y-3.86290
X7.76200 Y-3.86290
X7.76200 Y-3.86390
X7.76300 Y-3.86390
X7.76300 Y-3.86490
X7.76400 Y-3.86490
X7.76400 Y-3.86590
X7.76500 Y-3.86590
X7.76500 Y-3.86690
X7.76600 Y-3.86690
X7.76600 Y-3.86790
X7.76700 Y-3.86790
X7.76700 Y-3.86890
X7.76800 Y-3.86890
X7.76800 Y-3.86990
X7.76900 Y-3.86990
X7.76900 Y-3.87090
X7.77000 Y-3.87090
X7.77000 Y-3.87190
X7.77100 Y-3.87190
X7.77100 Y-3.87290
X7.77200 Y-3.87290
X7.77200 Y-3.87390
X7.77300 Y-3.87390
X7.77300 Y-3.87490
X7.77400 Y-3.87490
X7.77400 Y-3.87590
X7.77500 Y-3.87590
X7.77500 Y-3.87690
X7.77600 Y-3.87690
X7.77600 Y-3.87890
X7.77700 Y-3.87890
X7.77700 Y-3.89790
X7.78200 Y-3.89790
X7.78200 Y-3.91390
X7.76200 Y-3.91390
X7.76200 Y-3.90390
X7.76700 Y-3.90390
X7.76700 Y-3.88390
X7.76600 Y-3.88390
X7.76600 Y-3.88290
X7.76500 Y-3.88290
X7.76500 Y-3.88190
X7.76400 Y-3.88190
X7.76400 Y-3.88090
X7.76300 Y-3.88090
X7.76300 Y-3.87990
X7.76200 Y-3.87990
X7.76200 Y-3.87890
X7.76100 Y-3.87890
X7.76100 Y-3.87790
X7.76000 Y-3.87790
X7.76000 Y-3.87690
X7.75900 Y-3.87690
X7.75900 Y-3.87590
X7.75800 Y-3.87590
X7.75800 Y-3.87490
X7.75700 Y-3.87490
X7.75700 Y-3.87390
X7.75600 Y-3.87390
X7.75600 Y-3.87290
X7.75500 Y-3.87290
X7.75500 Y-3.87190
X7.75400 Y-3.87190
X7.75400 Y-3.87090
X7.75300 Y-3.87090
X7.75300 Y-3.86990
X7.71400 Y-3.86990
X7.71400 Y-3.90090
X7.71500 Y-3.90090
X7.71500 Y-3.90290
X7.72100 Y-3.90290
X7.72100 Y-3.91390
X7.70100 Y-3.91390
X7.70100 Y-3.90690
X7.70000 Y-3.90690
X7.70000 Y-3.89790
X7.70300 Y-3.89790
X7.70300 Y-3.82790
X7.69000 Y-3.82790
X7.69000 Y-3.80590
X7.63500 Y-3.80590
X7.63500 Y-3.80690
X7.63400 Y-3.80690
X7.63400 Y-3.80790
X7.63300 Y-3.80790
X7.63300 Y-3.80890
X7.63200 Y-3.80890
X7.63200 Y-3.80990
X7.63100 Y-3.80990
X7.63100 Y-3.81090
X7.63000 Y-3.81090
X7.63000 Y-3.81190
X7.62900 Y-3.81190
X7.62900 Y-3.81290
X7.62800 Y-3.81290
X7.62800 Y-3.81390
X7.62700 Y-3.81390
X7.62700 Y-3.81490
X7.62600 Y-3.81490
X7.62600 Y-3.81590
X7.62500 Y-3.81590
X7.62500 Y-3.81690
X7.62400 Y-3.81690
X7.62400 Y-3.81790
X7.62300 Y-3.81790
X7.62300 Y-3.81890
X7.62200 Y-3.81890
X7.62200 Y-3.81990
X7.62100 Y-3.81990
X7.62100 Y-3.82090
X7.62000 Y-3.82090
X7.62000 Y-3.82190
X7.61900 Y-3.82190
X7.61900 Y-3.82290
X7.61800 Y-3.82290
X7.61800 Y-3.82390
X7.61700 Y-3.82390
X7.61700 Y-3.82490
X7.61600 Y-3.82490
X7.61600 Y-3.82590
X7.61500 Y-3.82590
X7.61500 Y-3.82690
X7.61400 Y-3.82690
X7.61400 Y-3.82790
X7.61300 Y-3.82790
X7.61300 Y-3.82890
X7.61200 Y-3.82890
X7.61200 Y-3.82990
X7.61100 Y-3.82990
X7.61100 Y-3.83090
X7.61000 Y-3.83090
X7.61000 Y-3.83190
X7.60900 Y-3.83190
X7.60900 Y-3.83290
X7.60800 Y-3.83290
X7.60800 Y-3.83390
X7.60700 Y-3.83390
X7.60700 Y-3.83490
X7.60600 Y-3.83490
X7.60600 Y-3.83590
X7.60500 Y-3.83590
X7.60500 Y-3.83690
X7.60400 Y-3.83690
X7.60400 Y-3.83790
X7.60300 Y-3.83790
X7.60300 Y-3.83890
X7.60200 Y-3.83890
X7.60200 Y-3.83990
X7.60100 Y-3.83990
X7.60100 Y-3.84090
X7.60000 Y-3.84090
X7.60000 Y-3.84190
X7.59900 Y-3.84190
X7.59900 Y-3.84290
X7.59800 Y-3.84290
X7.59800 Y-3.84390
X7.59700 Y-3.84390
X7.59700 Y-3.84490
X7.59600 Y-3.84490
X7.59600 Y-3.84590
X7.59500 Y-3.84590
X7.59500 Y-3.84690
X7.59400 Y-3.84690
X7.59400 Y-3.84790
X7.59300 Y-3.84790
X7.59300 Y-3.84890
X7.59200 Y-3.84890
X7.59200 Y-3.84990
X7.59100 Y-3.84990
X7.59100 Y-3.85090
X7.26600 Y-3.85090
X7.26600 Y-3.84990
X7.26500 Y-3.84990
X7.26500 Y-3.84890
X7.26400 Y-3.84890
X7.26400 Y-3.84790
X7.26300 Y-3.84790
X7.26300 Y-3.84690
X7.26200 Y-3.84690
X7.26200 Y-3.84590
X7.26100 Y-3.84590
X7.26100 Y-3.84490
X7.26000 Y-3.84490
X7.26000 Y-3.84390
X7.25900 Y-3.84390
X7.25900 Y-3.84290
X7.25800 Y-3.84290
X7.25800 Y-3.84190
X7.25700 Y-3.84190
X7.25700 Y-3.84090
X7.25600 Y-3.84090
X7.25600 Y-3.83990
X7.25500 Y-3.83990
X7.25500 Y-3.83890
X7.25400 Y-3.83890
X7.25400 Y-3.83790
X7.25300 Y-3.83790
X7.25300 Y-3.83690
X7.25200 Y-3.83690
X7.25200 Y-3.83590
X7.25100 Y-3.83590
X7.25100 Y-3.83490
X7.25000 Y-3.83490
X7.25000 Y-3.83390
X7.24900 Y-3.83390
X7.24900 Y-3.83290
X7.24800 Y-3.83290
X7.24800 Y-3.83190
X7.24700 Y-3.83190
X7.24700 Y-3.83090
X7.24600 Y-3.83090
X7.24600 Y-3.82990
X7.24500 Y-3.82990
X7.24500 Y-3.82890
X7.24400 Y-3.82890
X7.24400 Y-3.82790
X7.24300 Y-3.82790
X7.24300 Y-3.82690
X7.24200 Y-3.82690
X7.24200 Y-3.82590
X7.24100 Y-3.82590
X7.24100 Y-3.82490
X7.24000 Y-3.82490
X7.24000 Y-3.82390
X7.23900 Y-3.82390
X7.23900 Y-3.82290
X7.23800 Y-3.82290
X7.23800 Y-3.82190
X7.23700 Y-3.82190
X7.23700 Y-3.82090
X7.23600 Y-3.82090
X7.23600 Y-3.81990
X7.23500 Y-3.81990
X7.23500 Y-3.81890
X7.23400 Y-3.81890
X7.23400 Y-3.81790
X7.23300 Y-3.81790
X7.23300 Y-3.81690
X7.23200 Y-3.81690
X7.23200 Y-3.81590
X7.23100 Y-3.81590
X7.23100 Y-3.81490
X7.23000 Y-3.81490
X7.23000 Y-3.81390
X7.22900 Y-3.81390
X7.22900 Y-3.81290
X7.22800 Y-3.81290
X7.22800 Y-3.81190
X7.22700 Y-3.81190
X7.22700 Y-3.81090
X7.22600 Y-3.81090
X7.22600 Y-3.80990
X7.22500 Y-3.80990
X7.22500 Y-3.80890
X7.22400 Y-3.80890
X7.22400 Y-3.80790
X7.22300 Y-3.80790
X7.22300 Y-3.80690
X7.22200 Y-3.80690
X7.22200 Y-3.80590
X7.22100 Y-3.80590
X7.22100 Y-3.80490
X7.22000 Y-3.80490
X7.22000 Y-3.80390
X7.21900 Y-3.80390
X7.21900 Y-3.80290
X7.21800 Y-3.80290
X7.21800 Y-3.80190
X7.21700 Y-3.80190
X7.21700 Y-3.80090
X7.21600 Y-3.80090
X7.21600 Y-3.79990
X7.21500 Y-3.79990
X7.21500 Y-3.79890
X7.21400 Y-3.79890
X7.21400 Y-3.79790
X7.21300 Y-3.79790
X7.21300 Y-3.79690
X7.21200 Y-3.79690
X7.21200 Y-3.79590
X7.21100 Y-3.79590
X7.21100 Y-3.79490
X7.21000 Y-3.79490
X7.21000 Y-3.79390
X7.20900 Y-3.79390
X7.20900 Y-3.79290
X7.20800 Y-3.79290
X7.20800 Y-3.79190
X7.20700 Y-3.79190
X7.20700 Y-3.79090
X7.20600 Y-3.79090
X7.20600 Y-3.78990
X7.20500 Y-3.78990
X7.20500 Y-3.78890
X7.20400 Y-3.78890
X7.20400 Y-3.78790
X7.20300 Y-3.78790
X7.20300 Y-3.78690
X7.20200 Y-3.78690
X7.20200 Y-3.78590
X7.20100 Y-3.78590
X7.20100 Y-3.78490
X7.20000 Y-3.78490
X7.20000 Y-3.78390
X7.19900 Y-3.78390
X7.19900 Y-3.78290
X7.19800 Y-3.78290
X7.19800 Y-3.78190
X7.19700 Y-3.78190
X7.19700 Y-3.78090
X7.19600 Y-3.78090
X7.19600 Y-3.77990
X7.19500 Y-3.77990
X7.19500 Y-3.77890
X7.19400 Y-3.77890
X7.19400 Y-3.77790
X7.19300 Y-3.77790
X7.19300 Y-3.77690
X7.19200 Y-3.77690
X7.19200 Y-3.77590
X7.19100 Y-3.77590
X7.19100 Y-3.77490
X7.19000 Y-3.77490
X7.19000 Y-3.77390
X7.18900 Y-3.77390
X7.18900 Y-3.77290
X7.18800 Y-3.77290
X7.18800 Y-3.77190
X7.18700 Y-3.77190
X7.18700 Y-3.77090
X7.18600 Y-3.77090
X7.18600 Y-3.76990
X7.18500 Y-3.76990
X7.18500 Y-3.76890
X7.18400 Y-3.76890
X7.18400 Y-3.76790
X7.18300 Y-3.76790
X7.18300 Y-3.76590
X7.18200 Y-3.76590
X7.18200 Y-3.35990
X6.63800 Y-3.35990
X6.63800 Y-3.36090
X6.63700 Y-3.36090
X6.63700 Y-3.36190
X6.63600 Y-3.36190
X6.63600 Y-3.36290
X6.63500 Y-3.36290
X6.63500 Y-3.36390
X6.63400 Y-3.36390
X6.63400 Y-3.36490
X6.63300 Y-3.36490
X6.63300 Y-3.36590
X6.63200 Y-3.36590
X6.63200 Y-3.36690
X6.63100 Y-3.36690
X6.63100 Y-3.36790
X6.63000 Y-3.36790
X6.63000 Y-3.36890
X6.62900 Y-3.36890
X6.62900 Y-3.36990
X6.62800 Y-3.36990
X6.62800 Y-3.37090
X6.62700 Y-3.37090
X6.62700 Y-3.37190
X6.62600 Y-3.37190
X6.62600 Y-3.37290
X6.62500 Y-3.37290
X6.62500 Y-3.37390
X6.62400 Y-3.37390
X6.62400 Y-3.37490
X6.62300 Y-3.37490
X6.62300 Y-3.37590
X6.62200 Y-3.37590
X6.62200 Y-3.37690
X6.62100 Y-3.37690
X6.62100 Y-3.37790
X6.62000 Y-3.37790
X6.62000 Y-3.37890
X6.61900 Y-3.37890
X6.61900 Y-3.37990
X6.61800 Y-3.37990
X6.61800 Y-3.38090
X6.61700 Y-3.38090
X6.61700 Y-3.38190
X6.61600 Y-3.38190
X6.61600 Y-3.38290
X6.61500 Y-3.38290
X6.61500 Y-3.38390
X6.61400 Y-3.38390
X6.61400 Y-3.38490
X6.61300 Y-3.38490
X6.61300 Y-3.38590
X6.61200 Y-3.38590
X6.61200 Y-3.38690
X6.61100 Y-3.38690
X6.61100 Y-3.38790
X6.61000 Y-3.38790
X6.61000 Y-3.38890
X6.60900 Y-3.38890
X6.60900 Y-3.38990
X6.60800 Y-3.38990
X6.60800 Y-3.39090
X6.60700 Y-3.39090
X6.60700 Y-3.39190
X6.60600 Y-3.39190
X6.60600 Y-3.39290
X6.60500 Y-3.39290
X6.60500 Y-3.39390
X6.60400 Y-3.39390
X6.60400 Y-3.39490
X6.60300 Y-3.39490
X6.60300 Y-3.39590
X6.60200 Y-3.39590
X6.60200 Y-3.39690
X6.60100 Y-3.39690
X6.60100 Y-3.39790
X6.60000 Y-3.39790
X6.60000 Y-3.39890
X6.59900 Y-3.39890
X6.59900 Y-3.39990
X6.59800 Y-3.39990
X6.59800 Y-3.40090
X6.59700 Y-3.40090
X6.59700 Y-3.40190
X6.59600 Y-3.40190
X6.59600 Y-3.40290
X6.59500 Y-3.40290
X6.59500 Y-3.40390
X6.59400 Y-3.40390
X6.59400 Y-3.40490
X6.59300 Y-3.40490
X6.59300 Y-3.40590
X6.59200 Y-3.40590
X6.59200 Y-3.40690
X6.59100 Y-3.40690
X6.59100 Y-3.40790
X6.59000 Y-3.40790
X6.59000 Y-3.40890
X6.58900 Y-3.40890
X6.58900 Y-3.40990
X6.58800 Y-3.40990
X6.58800 Y-3.41090
X6.58700 Y-3.41090
X6.58700 Y-3.41190
X6.58600 Y-3.41190
X6.58600 Y-3.41290
X6.58500 Y-3.41290
X6.58500 Y-3.41390
X6.58400 Y-3.41390
X6.58400 Y-3.41490
X6.58300 Y-3.41490
X6.58300 Y-3.41590
X6.58200 Y-3.41590
X6.58200 Y-3.41690
X6.58100 Y-3.41690
X6.58100 Y-3.41790
X6.58000 Y-3.41790
X6.58000 Y-3.41890
X6.57900 Y-3.41890
X6.57900 Y-3.41990
X6.57800 Y-3.41990
X6.57800 Y-3.42090
X6.57700 Y-3.42090
X6.57700 Y-3.42190
X6.57600 Y-3.42190
X6.57600 Y-3.42290
X6.57500 Y-3.42290
X6.57500 Y-3.42390
X6.57400 Y-3.42390
X6.57400 Y-3.42490
X6.57300 Y-3.42490
X6.57300 Y-3.42590
X6.57200 Y-3.42590
X6.57200 Y-3.42690
X6.57100 Y-3.42690
X6.57100 Y-3.42790
X6.57000 Y-3.42790
X6.57000 Y-3.42890
X6.56900 Y-3.42890
X6.56900 Y-3.42990
X6.56800 Y-3.42990
X6.56800 Y-3.43090
X6.56700 Y-3.43090
X6.56700 Y-3.43190
X6.56600 Y-3.43190
X6.56600 Y-3.43290
X6.56500 Y-3.43290
X6.56500 Y-3.43390
X6.56400 Y-3.43390
X6.56400 Y-3.43490
X6.56300 Y-3.43490
X6.56300 Y-3.43590
X6.56200 Y-3.43590
X6.56200 Y-3.43690
X6.56100 Y-3.43690
X6.56100 Y-3.43790
X6.56000 Y-3.43790
X6.56000 Y-3.43890
X6.55900 Y-3.43890
X6.55900 Y-3.43990
X6.55800 Y-3.43990
X6.55800 Y-3.44090
X6.55700 Y-3.44090
X6.55700 Y-3.44190
X6.55600 Y-3.44190
X6.55600 Y-3.44290
X6.55500 Y-3.44290
X6.55500 Y-3.44390
X6.55400 Y-3.44390
X6.55400 Y-3.44490
X6.55300 Y-3.44490
X6.55300 Y-3.44590
X6.55200 Y-3.44590
X6.55200 Y-3.44690
X6.55100 Y-3.44690
X6.55100 Y-3.44790
X6.55000 Y-3.44790
X6.55000 Y-3.44890
X6.54900 Y-3.44890
X6.54900 Y-3.44990
X6.54800 Y-3.44990
X6.54800 Y-3.45090
X6.54700 Y-3.45090
X6.54700 Y-3.45190
X6.54600 Y-3.45190
X6.54600 Y-3.45290
X6.54500 Y-3.45290
X6.54500 Y-3.45390
X6.54400 Y-3.45390
X6.54400 Y-3.47790
X6.54600 Y-3.47790
X6.54600 Y-3.47890
X6.54700 Y-3.47890
X6.54700 Y-3.47990
X6.54800 Y-3.47990
X6.54800 Y-3.48090
X6.55000 Y-3.48090
X6.55000 Y-3.48190
X6.55100 Y-3.48190
X6.55100 Y-3.48290
X6.55200 Y-3.48290
X6.55200 Y-3.48390
X6.55400 Y-3.48390
X6.55400 Y-3.48490
X6.55500 Y-3.48490
X6.55500 Y-3.48590
X6.55600 Y-3.48590
X6.55600 Y-3.48890
X6.55700 Y-3.48890
X6.55700 Y-3.49190
X6.55800 Y-3.49190
X6.55800 Y-3.49590
X6.55900 Y-3.49590
X6.55900 Y-3.49990
X6.55800 Y-3.49990
X6.55800 Y-3.50290
X6.55700 Y-3.50290
X6.55700 Y-3.50590
X6.55600 Y-3.50590
X6.55600 Y-3.50890
X6.55500 Y-3.50890
X6.55500 Y-3.50990
X6.55400 Y-3.50990
X6.55400 Y-3.51090
X6.55300 Y-3.51090
X6.55300 Y-3.51190
X6.55100 Y-3.51190
X6.55100 Y-3.51290
X6.55000 Y-3.51290
X6.55000 Y-3.51390
X6.54900 Y-3.51390
X6.54900 Y-3.51490
X6.54700 Y-3.51490
X6.54700 Y-3.51590
X6.54600 Y-3.51590
X6.54600 Y-3.51690
X6.54100 Y-3.51690
X6.54100 Y-3.51790
X6.24200 Y-3.51790
X6.24200 Y-3.51890
X6.24100 Y-3.51890
X6.24100 Y-3.51990
X6.24000 Y-3.51990
X6.24000 Y-3.52090
X6.23900 Y-3.52090
X6.23900 Y-3.52190
X6.23800 Y-3.52190
X6.23800 Y-3.52290
X6.23700 Y-3.52290
X6.23700 Y-3.52390
X6.23600 Y-3.52390
X6.23600 Y-3.52490
X6.23500 Y-3.52490
X6.23500 Y-3.52590
X6.23400 Y-3.52590
X6.23400 Y-3.52690
X6.23300 Y-3.52690
X6.23300 Y-3.52790
X6.23200 Y-3.52790
X6.23200 Y-3.52890
X6.23100 Y-3.52890
X6.23100 Y-3.52990
X6.23000 Y-3.52990
X6.23000 Y-3.53090
X6.22900 Y-3.53090
X6.22900 Y-3.53190
X6.22800 Y-3.53190
X6.22800 Y-3.53290
X6.22700 Y-3.53290
X6.22700 Y-3.53390
X6.22600 Y-3.53390
X6.22600 Y-3.53490
X6.22500 Y-3.53490
X6.22500 Y-3.53590
X6.22400 Y-3.53590
X6.22400 Y-3.53690
X6.22300 Y-3.53690
X6.22300 Y-3.53790
X6.22200 Y-3.53790
X6.22200 Y-3.53890
X6.22100 Y-3.53890
X6.22100 Y-3.53990
X6.22000 Y-3.53990
X6.22000 Y-3.54090
X6.21900 Y-3.54090
X6.21900 Y-3.54190
X6.21800 Y-3.54190
X6.21800 Y-3.54290
X6.21700 Y-3.54290
X6.21700 Y-3.54390
X6.21600 Y-3.54390
X6.21600 Y-3.54490
X6.21500 Y-3.54490
X6.21500 Y-3.54590
X6.21400 Y-3.54590
X6.21400 Y-3.54690
X6.21300 Y-3.54690
X6.21300 Y-3.54790
X6.21200 Y-3.54790
X6.21200 Y-3.54890
X6.21100 Y-3.54890
X6.21100 Y-3.54990
X6.21000 Y-3.54990
X6.21000 Y-3.55090
X6.20900 Y-3.55090
X6.20900 Y-3.55190
X6.20800 Y-3.55190
X6.20800 Y-3.55290
X6.20700 Y-3.55290
X6.20700 Y-3.55390
X6.20600 Y-3.55390
X6.20600 Y-3.55490
X6.20500 Y-3.55490
X6.20500 Y-3.55590
X6.20400 Y-3.55590
X6.20400 Y-3.55690
X6.20300 Y-3.55690
X6.20300 Y-3.55790
X6.20200 Y-3.55790
X6.20200 Y-3.55890
X6.20100 Y-3.55890
X6.20100 Y-3.55990
X6.20000 Y-3.55990
X6.20000 Y-3.56090
X6.19900 Y-3.56090
X6.19900 Y-3.56190
X6.19800 Y-3.56190
X6.19800 Y-3.56290
X6.19700 Y-3.56290
X6.19700 Y-3.56390
X6.19600 Y-3.56390
X6.19600 Y-3.56490
X6.19500 Y-3.56490
X6.19500 Y-3.56590
X6.19400 Y-3.56590
X6.19400 Y-3.56690
X6.19300 Y-3.56690
X6.19300 Y-3.56790
X6.19200 Y-3.56790
X6.19200 Y-3.56890
X6.19100 Y-3.56890
X6.19100 Y-3.56990
X6.19000 Y-3.56990
X6.19000 Y-3.57090
X6.18900 Y-3.57090
X6.18900 Y-3.57190
X6.18800 Y-3.57190
X6.18800 Y-3.57290
X6.18700 Y-3.57290
X6.18700 Y-3.57390
X6.18600 Y-3.57390
X6.18600 Y-3.57490
X6.18500 Y-3.57490
X6.18500 Y-3.57590
X6.18400 Y-3.57590
X6.18400 Y-3.57690
X6.18300 Y-3.57690
X6.18300 Y-3.57790
X6.18200 Y-3.57790
X6.18200 Y-3.57890
X6.18100 Y-3.57890
X6.18100 Y-3.57990
X6.18000 Y-3.57990
X6.18000 Y-3.58090
X6.17900 Y-3.58090
X6.17900 Y-3.58190
X6.17800 Y-3.58190
X6.17800 Y-3.58290
X6.17700 Y-3.58290
X6.17700 Y-3.58390
X6.17600 Y-3.58390
X6.17600 Y-3.58490
X6.17500 Y-3.58490
X6.17500 Y-3.58590
X6.17400 Y-3.58590
X6.17400 Y-3.58690
X6.17300 Y-3.58690
X6.17300 Y-3.58790
X6.17200 Y-3.58790
X6.17200 Y-3.58890
X6.17100 Y-3.58890
X6.17100 Y-3.58990
X6.17000 Y-3.58990
X6.17000 Y-3.59090
X6.16900 Y-3.59090
X6.16900 Y-3.59190
X6.16800 Y-3.59190
X6.16800 Y-3.59290
X6.16700 Y-3.59290
X6.16700 Y-3.59390
X6.16600 Y-3.59390
X6.16600 Y-3.59490
X6.16500 Y-3.59490
X6.16500 Y-3.59590
X6.16400 Y-3.59590
X6.16400 Y-3.59690
X6.16300 Y-3.59690
X6.16300 Y-3.59790
X6.16200 Y-3.59790
X6.16200 Y-3.59890
X6.16100 Y-3.59890
X6.16100 Y-3.59990
X6.16000 Y-3.59990
X6.16000 Y-3.60090
X6.15900 Y-3.60090
X6.15900 Y-3.60190
X6.15800 Y-3.60190
X6.15800 Y-3.60290
X6.15700 Y-3.60290
X6.15700 Y-3.60390
X6.15600 Y-3.60390
X6.15600 Y-3.60490
X6.15500 Y-3.60490
X6.15500 Y-3.60590
X6.15400 Y-3.60590
X6.15400 Y-3.60690
X6.15300 Y-3.60690
X6.15300 Y-3.60790
X6.15200 Y-3.60790
X6.15200 Y-3.60890
X6.15100 Y-3.60890
X6.15100 Y-3.60990
X6.15000 Y-3.60990
X6.15000 Y-3.61090
X6.14900 Y-3.61090
X6.14900 Y-3.61190
X6.14800 Y-3.61190
X6.14800 Y-3.61290
X6.14700 Y-3.61290
X6.14700 Y-3.61390
X6.14600 Y-3.61390
X6.14600 Y-3.61490
X6.14500 Y-3.61490
X6.14500 Y-3.61590
X6.14400 Y-3.61590
X6.14400 Y-3.61690
X6.14300 Y-3.61690
X6.14300 Y-3.61790
X6.14200 Y-3.61790
X6.14200 Y-3.61890
X6.14100 Y-3.61890
X6.14100 Y-3.61990
X6.14000 Y-3.61990
X6.14000 Y-3.62090
X6.13900 Y-3.62090
X6.13900 Y-3.62190
X6.13800 Y-3.62190
X6.13800 Y-3.62290
X6.13700 Y-3.62290
X6.13700 Y-3.62390
X6.13600 Y-3.62390
X6.13600 Y-3.62490
X6.13500 Y-3.62490
X6.13500 Y-3.62590
X6.13400 Y-3.62590
X6.13400 Y-3.62690
X6.13300 Y-3.62690
X6.13300 Y-3.62790
X6.13200 Y-3.62790
X6.13200 Y-3.62890
X6.13100 Y-3.62890
X6.13100 Y-3.62990
X6.13000 Y-3.62990
X6.13000 Y-3.63090
X6.12900 Y-3.63090
X6.12900 Y-3.63190
X6.12800 Y-3.63190
X6.12800 Y-3.63290
X6.12700 Y-3.63290
X6.12700 Y-3.63390
X6.12600 Y-3.63390
X6.12600 Y-3.63490
X6.12500 Y-3.63490
X6.12500 Y-3.63590
X6.12400 Y-3.63590
X6.12400 Y-3.63690
X6.12300 Y-3.63690
X6.12300 Y-3.63790
X6.12200 Y-3.63790
X6.12200 Y-3.63890
X6.12100 Y-3.63890
X6.12100 Y-3.63990
X6.12000 Y-3.63990
X6.12000 Y-3.64090
X6.11900 Y-3.64090
X6.11900 Y-3.64190
X6.11800 Y-3.64190
X6.11800 Y-3.64290
X6.11700 Y-3.64290
X6.11700 Y-3.64390
X6.11600 Y-3.64390
X6.11600 Y-3.64490
X6.11500 Y-3.64490
X6.11500 Y-3.64590
X6.11400 Y-3.64590
X6.11400 Y-3.64690
X6.11300 Y-3.64690
X6.11300 Y-3.64790
X6.11200 Y-3.64790
X6.11200 Y-3.64890
X6.11100 Y-3.64890
X6.11100 Y-3.64990
X6.11000 Y-3.64990
X6.11000 Y-3.65090
X6.10900 Y-3.65090
X6.10900 Y-3.65190
X6.10800 Y-3.65190
X6.10800 Y-3.65290
X6.10700 Y-3.65290
X6.10700 Y-3.65390
X6.10600 Y-3.65390
X6.10600 Y-3.65490
X6.10500 Y-3.65490
X6.10500 Y-3.65590
X6.10400 Y-3.65590
X6.10400 Y-3.65690
X6.10300 Y-3.65690
X6.10300 Y-3.65790
X6.10200 Y-3.65790
X6.10200 Y-3.65890
X6.10100 Y-3.65890
X6.10100 Y-3.65990
X6.10000 Y-3.65990
X6.10000 Y-3.66090
X6.09900 Y-3.66090
X6.09900 Y-3.66190
X6.09800 Y-3.66190
X6.09800 Y-3.66290
X6.09700 Y-3.66290
X6.09700 Y-3.66390
X6.09600 Y-3.66390
X6.09600 Y-4.85490
X6.09700 Y-4.85490
X6.09700 Y-4.85590
X6.09800 Y-4.85590
X6.09800 Y-4.85690
X6.09900 Y-4.85690
X6.09900 Y-4.85790
X6.10000 Y-4.85790
X6.10000 Y-4.85890
X6.10100 Y-4.85890
X6.10100 Y-4.85990
X6.10200 Y-4.85990
X6.10200 Y-4.86090
X6.10300 Y-4.86090
X6.10300 Y-4.86190
X6.10400 Y-4.86190
X6.10400 Y-4.86290
X6.10500 Y-4.86290
X6.10500 Y-4.86390
X6.10600 Y-4.86390
X6.10600 Y-4.86490
X6.10700 Y-4.86490
X6.10700 Y-4.86590
X6.10800 Y-4.86590
X6.10800 Y-4.86690
X6.10900 Y-4.86690
X6.10900 Y-4.86790
X6.11000 Y-4.86790
X6.11000 Y-4.86890
X6.11100 Y-4.86890
X6.11100 Y-4.86990
X6.11200 Y-4.86990
X6.11200 Y-4.87090
X6.11300 Y-4.87090
X6.11300 Y-4.87190
X6.11400 Y-4.87190
X6.11400 Y-4.87290
X6.11500 Y-4.87290
X6.11500 Y-4.87390
X6.11600 Y-4.87390
X6.11600 Y-4.87490
X6.11700 Y-4.87490
X6.11700 Y-4.87590
X6.11800 Y-4.87590
X6.11800 Y-4.87690
X6.11900 Y-4.87690
X6.11900 Y-4.87790
X6.12000 Y-4.87790
X6.12000 Y-4.87890
X6.12100 Y-4.87890
X6.12100 Y-4.87990
X6.12200 Y-4.87990
X6.12200 Y-4.88090
X6.12300 Y-4.88090
X6.12300 Y-4.88190
X6.12400 Y-4.88190
X6.12400 Y-4.88290
X6.12500 Y-4.88290
X6.12500 Y-4.88390
X6.12600 Y-4.88390
X6.12600 Y-4.88490
X6.12700 Y-4.88490
X6.12700 Y-4.88590
X6.12800 Y-4.88590
X6.12800 Y-4.88690
X6.12900 Y-4.88690
X6.12900 Y-4.88790
X6.13000 Y-4.88790
X6.13000 Y-4.88890
X6.13100 Y-4.88890
X6.13100 Y-4.88990
X6.13200 Y-4.88990
X6.13200 Y-4.89090
X6.13300 Y-4.89090
X6.13300 Y-4.89190
X6.13400 Y-4.89190
X6.13400 Y-4.89290
X6.13500 Y-4.89290
X6.13500 Y-4.89390
X6.13600 Y-4.89390
X6.13600 Y-4.89490
X6.13700 Y-4.89490
X6.13700 Y-4.89590
X6.13800 Y-4.89590
X6.13800 Y-4.89690
X6.13900 Y-4.89690
X6.13900 Y-4.89790
X6.14000 Y-4.89790
X6.14000 Y-4.89890
X6.14100 Y-4.89890
X6.14100 Y-4.89990
X6.14200 Y-4.89990
X6.14200 Y-4.90090
X6.14300 Y-4.90090
X6.14300 Y-4.90190
X6.14400 Y-4.90190
X6.14400 Y-4.90290
X6.14500 Y-4.90290
X6.14500 Y-4.90390
X6.14600 Y-4.90390
X6.14600 Y-4.90490
X6.14700 Y-4.90490
X6.14700 Y-4.90590
X6.14800 Y-4.90590
X6.14800 Y-4.90690
X6.14900 Y-4.90690
X6.14900 Y-4.90790
X6.15000 Y-4.90790
X6.15000 Y-4.90890
X6.15100 Y-4.90890
X6.15100 Y-4.90990
X6.15200 Y-4.90990
X6.15200 Y-4.91090
X6.15300 Y-4.91090
X6.15300 Y-4.91190
X6.15400 Y-4.91190
X6.15400 Y-4.91290
X6.15500 Y-4.91290
X6.15500 Y-4.91390
X6.15600 Y-4.91390
X6.15600 Y-4.91490
X6.15700 Y-4.91490
X6.15700 Y-4.91590
X6.15800 Y-4.91590
X6.15800 Y-4.91690
X6.15900 Y-4.91690
X6.15900 Y-4.91790
X6.16000 Y-4.91790
X6.16000 Y-4.91890
X6.16100 Y-4.91890
X6.16100 Y-4.91990
X6.16200 Y-4.91990
X6.16200 Y-4.92090
X6.16300 Y-4.92090
X6.16300 Y-4.92190
X6.16400 Y-4.92190
X6.16400 Y-4.92290
X6.16500 Y-4.92290
X6.16500 Y-4.92390
X6.16600 Y-4.92390
X6.16600 Y-4.92490
X6.16700 Y-4.92490
X6.16700 Y-4.92590
X6.16800 Y-4.92590
X6.16800 Y-4.92690
X6.16900 Y-4.92690
X6.16900 Y-4.92790
X6.17000 Y-4.92790
X6.17000 Y-4.92890
X6.17100 Y-4.92890
X6.17100 Y-4.92990
X6.17200 Y-4.92990
X6.17200 Y-4.93090
X6.17300 Y-4.93090
X6.17300 Y-4.93190
X6.17400 Y-4.93190
X6.17400 Y-4.93290
X6.17500 Y-4.93290
X6.17500 Y-4.93390
X6.17600 Y-4.93390
X6.17600 Y-4.93490
X6.17700 Y-4.93490
X6.17700 Y-4.93590
X6.17800 Y-4.93590
X6.17800 Y-4.93690
X6.17900 Y-4.93690
X6.17900 Y-4.93790
X6.18000 Y-4.93790
X6.18000 Y-4.93890
X6.18100 Y-4.93890
X6.18100 Y-4.93990
X6.18200 Y-4.93990
X6.18200 Y-4.94090
X6.18300 Y-4.94090
X6.18300 Y-4.94190
X6.18400 Y-4.94190
X6.18400 Y-4.94290
X6.18500 Y-4.94290
X6.18500 Y-4.94390
X6.18600 Y-4.94390
X6.18600 Y-4.94490
X6.18700 Y-4.94490
X6.18700 Y-4.94590
X6.18800 Y-4.94590
X6.18800 Y-4.94690
X6.18900 Y-4.94690
X6.18900 Y-4.94790
X6.19000 Y-4.94790
X6.19000 Y-4.94890
X6.19100 Y-4.94890
X6.19100 Y-4.94990
X6.19200 Y-4.94990
X6.19200 Y-4.95090
X6.19300 Y-4.95090
X6.19300 Y-4.95190
X6.19400 Y-4.95190
X6.19400 Y-4.95290
X6.19500 Y-4.95290
X6.19500 Y-4.95390
X6.19600 Y-4.95390
X6.19600 Y-4.95490
X6.19700 Y-4.95490
X6.19700 Y-4.95590
X6.19800 Y-4.95590
X6.19800 Y-4.95690
X6.19900 Y-4.95690
X6.19900 Y-4.95790
X6.20000 Y-4.95790
X6.20000 Y-4.95890
X6.20100 Y-4.95890
X6.20100 Y-4.95990
X6.20200 Y-4.95990
X6.20200 Y-4.96090
X6.20300 Y-4.96090
X6.20300 Y-4.96190
X6.20400 Y-4.96190
X6.20400 Y-4.96290
X6.20500 Y-4.96290
X6.20500 Y-4.96390
X6.20600 Y-4.96390
X6.20600 Y-4.96490
X6.20700 Y-4.96490
X6.20700 Y-4.96590
X6.20800 Y-4.96590
X6.20800 Y-4.96690
X6.20900 Y-4.96690
X6.20900 Y-4.96790
X6.21000 Y-4.96790
X6.21000 Y-4.96890
X6.21100 Y-4.96890
X6.21100 Y-4.97090
X6.21200 Y-4.97090
X6.21200 Y-4.97390
X6.21300 Y-4.97390
X6.21300 Y-4.97790
X6.21400 Y-4.97790
X6.21400 Y-4.98090
X6.21500 Y-4.98090
X6.21500 Y-5.08690
X6.23400 Y-5.08690
X6.23400 Y-5.16690
X6.20500 Y-5.16690
X6.20500 Y-5.32690
X6.23400 Y-5.32690
X6.23400 Y-5.40690
X6.21500 Y-5.40690
X6.21500 Y-5.42590
X6.21600 Y-5.42590
X6.21600 Y-5.42690
X6.21700 Y-5.42690
X6.21700 Y-5.42790
X6.21800 Y-5.42790
X6.21800 Y-5.42890
X6.21900 Y-5.42890
X6.21900 Y-5.42990
X6.22000 Y-5.42990
X6.22000 Y-5.43090
X6.22100 Y-5.43090
X6.22100 Y-5.43190
X6.22200 Y-5.43190
X6.22200 Y-5.43290
X6.22300 Y-5.43290
X6.22300 Y-5.43390
X6.22400 Y-5.43390
X6.22400 Y-5.43490
X6.22500 Y-5.43490
X6.22500 Y-5.43590
X6.22600 Y-5.43590
X6.22600 Y-5.43690
X6.22700 Y-5.43690
X6.22700 Y-5.43790
X6.22800 Y-5.43790
X6.22800 Y-5.43890
X6.22900 Y-5.43890
X6.22900 Y-5.43990
X6.23000 Y-5.43990
X6.23000 Y-5.44090
X6.23100 Y-5.44090
X6.23100 Y-5.44190
X6.23200 Y-5.44190
X6.23200 Y-5.44290
X6.23300 Y-5.44290
X6.23300 Y-5.44390
X6.23400 Y-5.44390
X6.23400 Y-5.44490
X6.23500 Y-5.44490
X6.23500 Y-5.44590
X6.23600 Y-5.44590
X6.23600 Y-5.44690
X6.23700 Y-5.44690
X6.23700 Y-5.44790
X6.23800 Y-5.44790
X6.23800 Y-5.44890
X6.23900 Y-5.44890
X6.23900 Y-5.44990
X6.24000 Y-5.44990
X6.24000 Y-5.45090
X6.24100 Y-5.45090
X6.24100 Y-5.45190
X6.24200 Y-5.45190
X6.24200 Y-5.45290
X6.24300 Y-5.45290
X6.24300 Y-5.45390
X6.24400 Y-5.45390
X6.24400 Y-5.45490
X6.24500 Y-5.45490
X6.24500 Y-5.45590
X6.24600 Y-5.45590
X6.24600 Y-5.45690
X6.24700 Y-5.45690
X6.24700 Y-5.45790
X6.24800 Y-5.45790
X6.24800 Y-5.45890
X6.24900 Y-5.45890
X6.24900 Y-5.45990
X6.25000 Y-5.45990
X6.25000 Y-5.46090
X6.25100 Y-5.46090
X6.25100 Y-5.46190
X6.25200 Y-5.46190
X6.25200 Y-5.46290
X6.25300 Y-5.46290
X6.25300 Y-5.46390
X6.25400 Y-5.46390
X6.25400 Y-5.46490
X6.25500 Y-5.46490
X6.25500 Y-5.46590
X6.25600 Y-5.46590
X6.25600 Y-5.46690
X6.25700 Y-5.46690
X6.25700 Y-5.46790
X6.25800 Y-5.46790
X6.25800 Y-5.46890
X6.25900 Y-5.46890
X6.25900 Y-5.46990
X6.26000 Y-5.46990
X6.26000 Y-5.47090
X6.26100 Y-5.47090
X6.26100 Y-5.47190
X6.26200 Y-5.47190
X6.26200 Y-5.47290
X6.26300 Y-5.47290
X6.26300 Y-5.47390
X6.26400 Y-5.47390
X6.26400 Y-5.47490
X6.26500 Y-5.47490
X6.26500 Y-5.47590
X6.26600 Y-5.47590
X6.26600 Y-5.47690
X6.26700 Y-5.47690
X6.26700 Y-5.47790
X6.26800 Y-5.47790
X6.26800 Y-5.47890
X6.26900 Y-5.47890
X6.26900 Y-5.47990
X6.27000 Y-5.47990
X6.27000 Y-5.48090
X6.27100 Y-5.48090
X6.27100 Y-5.48190
X6.27200 Y-5.48190
X6.27200 Y-5.48290
X6.27300 Y-5.48290
X6.27300 Y-5.48390
X6.27400 Y-5.48390
X6.27400 Y-5.48490
X6.27500 Y-5.48490
X6.27500 Y-5.48590
X6.27600 Y-5.48590
X6.27600 Y-5.48690
X6.27700 Y-5.48690
X6.27700 Y-5.48790
X6.27800 Y-5.48790
X6.27800 Y-5.48890
X6.27900 Y-5.48890
X6.27900 Y-5.48990
X6.28000 Y-5.48990
X6.28000 Y-5.49090
X6.28100 Y-5.49090
X6.28100 Y-5.49190
X6.28200 Y-5.49190
X6.28200 Y-5.49290
X6.28300 Y-5.49290
X6.28300 Y-5.49390
X6.28400 Y-5.49390
X6.28400 Y-5.49490
X6.28500 Y-5.49490
X6.28500 Y-5.49590
X6.28600 Y-5.49590
X6.28600 Y-5.49690
X6.28700 Y-5.49690
X6.28700 Y-5.49790
X6.28800 Y-5.49790
X6.28800 Y-5.49890
X6.28900 Y-5.49890
X6.28900 Y-5.49990
X6.29000 Y-5.49990
X6.29000 Y-5.50090
X6.29100 Y-5.50090
X6.29100 Y-5.50190
X6.29200 Y-5.50190
X6.29200 Y-5.50290
X6.29300 Y-5.50290
X6.29300 Y-5.50390
X6.29400 Y-5.50390
X6.29400 Y-5.50490
X6.29500 Y-5.50490
X6.29500 Y-5.50590
X6.29600 Y-5.50590
X6.29600 Y-5.50690
X6.29700 Y-5.50690
X6.29700 Y-5.50790
X6.29800 Y-5.50790
X6.29800 Y-5.50890
X6.29900 Y-5.50890
X6.29900 Y-5.50990
X6.30000 Y-5.50990
X6.30000 Y-5.51090
X6.30100 Y-5.51090
X6.30100 Y-5.51190
X6.30200 Y-5.51190
X6.30200 Y-5.51290
X6.30300 Y-5.51290
X6.30300 Y-5.51390
X6.30400 Y-5.51390
X6.30400 Y-5.51490
X6.30500 Y-5.51490
X6.30500 Y-5.51590
X6.30600 Y-5.51590
X6.30600 Y-5.51690
X6.30700 Y-5.51690
X6.30700 Y-5.51790
X6.30800 Y-5.51790
X6.30800 Y-5.51890
X6.30900 Y-5.51890
X6.30900 Y-5.51990
X6.31000 Y-5.51990
X6.31000 Y-5.52090
X6.31100 Y-5.52090
X6.31100 Y-5.52190
X6.31200 Y-5.52190
X6.31200 Y-5.52290
X6.31300 Y-5.52290
X6.31300 Y-5.52390
X6.31400 Y-5.52390
X6.31400 Y-5.52490
X6.31500 Y-5.52490
X6.31500 Y-5.52590
X6.31600 Y-5.52590
X6.31600 Y-5.52690
X6.31700 Y-5.52690
X6.31700 Y-5.52790
X6.31800 Y-5.52790
X6.31800 Y-5.52890
X6.31900 Y-5.52890
X6.31900 Y-5.52990
X6.32000 Y-5.52990
X6.32000 Y-5.53090
X6.32100 Y-5.53090
X6.32100 Y-5.53190
X6.32200 Y-5.53190
X6.32200 Y-5.53290
X6.32300 Y-5.53290
X6.32300 Y-5.53390
X6.32400 Y-5.53390
X6.32400 Y-5.53490
X6.32500 Y-5.53490
X6.32500 Y-5.53590
X6.32600 Y-5.53590
X6.32600 Y-5.53690
X6.32700 Y-5.53690
X6.32700 Y-5.53790
X6.32800 Y-5.53790
X6.32800 Y-5.53890
X6.32900 Y-5.53890
X6.32900 Y-5.53990
X6.33000 Y-5.53990
X6.33000 Y-5.54090
X6.33100 Y-5.54090
X6.33100 Y-5.54190
X6.33200 Y-5.54190
X6.33200 Y-5.54290
X6.33300 Y-5.54290
X6.33300 Y-5.54390
X6.33400 Y-5.54390
X6.33400 Y-5.54490
X6.33500 Y-5.54490
X6.33500 Y-5.54590
X6.33600 Y-5.54590
X6.33600 Y-5.54690
X6.33700 Y-5.54690
X6.33700 Y-5.54790
X6.33800 Y-5.54790
X6.33800 Y-5.54890
X6.33900 Y-5.54890
X6.33900 Y-5.54990
X6.34000 Y-5.54990
X6.34000 Y-5.55090
X6.34100 Y-5.55090
X6.34100 Y-5.55190
X6.34200 Y-5.55190
X6.34200 Y-5.55290
X6.34300 Y-5.55290
X6.34300 Y-5.55390
X6.34400 Y-5.55390
X6.34400 Y-5.55490
X7.82200 Y-5.55490
X7.82200 Y-5.55390
X7.82300 Y-5.55390
X7.82300 Y-5.55290
X7.82400 Y-5.55290
X7.82400 Y-5.55190
X7.82500 Y-5.55190
X7.82500 Y-5.55090
X7.82600 Y-5.55090
X7.82600 Y-5.54990
X7.82700 Y-5.54990
X7.82700 Y-5.54890
X7.82800 Y-5.54890
X7.82800 Y-5.54790
X7.82900 Y-5.54790
X7.82900 Y-5.54690
X7.83000 Y-5.54690
X7.83000 Y-5.54590
X7.83100 Y-5.54590
X7.83100 Y-5.54490
X7.83200 Y-5.54490
X7.83200 Y-5.54390
X7.83300 Y-5.54390
X7.83300 Y-5.54290
X7.83400 Y-5.54290
X7.83400 Y-5.54190
X7.83500 Y-5.54190
X7.83500 Y-5.54090
X7.83600 Y-5.54090
X7.83600 Y-5.53990
X7.83700 Y-5.53990
X7.83700 Y-5.53890
X7.83800 Y-5.53890
X7.83800 Y-5.53790
X7.83900 Y-5.53790
X7.83900 Y-5.53690
X7.84000 Y-5.53690
X7.84000 Y-5.53590
X7.84100 Y-5.53590
X7.84100 Y-5.53490
X7.84200 Y-5.53490
X7.84200 Y-5.53390
X7.84300 Y-5.53390
X7.84300 Y-5.53290
X7.84400 Y-5.53290
X7.84400 Y-5.53190
X7.84500 Y-5.53190
X7.84500 Y-5.53090
X7.84600 Y-5.53090
X7.84600 Y-5.52990
X7.84700 Y-5.52990
X7.84700 Y-5.52890
X7.84800 Y-5.52890
X7.84800 Y-5.52790
X7.84900 Y-5.52790
X7.84900 Y-5.52690
X7.85000 Y-5.52690
X7.85000 Y-5.52590
X7.85100 Y-5.52590
X7.85100 Y-5.52490
X7.85200 Y-5.52490
X7.85200 Y-5.52390
X7.85300 Y-5.52390
X7.85300 Y-5.52290
X7.85400 Y-5.52290
X7.85400 Y-5.52190
X7.85500 Y-5.52190
X7.85500 Y-5.52090
X7.85600 Y-5.52090
X7.85600 Y-5.51990
X7.85700 Y-5.51990
X7.85700 Y-5.51890
X7.85800 Y-5.51890
X7.85800 Y-5.51790
X7.85900 Y-5.51790
X7.85900 Y-5.51690
X7.86000 Y-5.51690
X7.86000 Y-5.51590
X7.86100 Y-5.51590
X7.86100 Y-5.51490
X7.86200 Y-5.51490
X7.86200 Y-5.51390
X7.86300 Y-5.51390
X7.86300 Y-5.51290
X7.86400 Y-5.51290
X7.86400 Y-5.51190
X7.86500 Y-5.51190
X7.86500 Y-5.51090
X7.86600 Y-5.51090
X7.86600 Y-5.50990
X7.86700 Y-5.50990
X7.86700 Y-5.50890
X7.86800 Y-5.50890
X7.86800 Y-5.50790
X7.86900 Y-5.50790
X7.86900 Y-5.50690
X7.87000 Y-5.50690
X7.87000 Y-5.50590
X7.87100 Y-5.50590
X7.87100 Y-5.50490
X7.87200 Y-5.50490
X7.87200 Y-5.50390
X7.87300 Y-5.50390
X7.87300 Y-5.50290
X7.87400 Y-5.50290
X7.87400 Y-5.50190
X7.87500 Y-5.50190
X7.87500 Y-5.50090
X7.87600 Y-5.50090
X7.87600 Y-5.49990
X7.87700 Y-5.49990
X7.87700 Y-5.49890
X7.87800 Y-5.49890
X7.87800 Y-5.49790
X7.87900 Y-5.49790
X7.87900 Y-5.49690
X7.88000 Y-5.49690
X7.88000 Y-5.49590
X7.88100 Y-5.49590
X7.88100 Y-5.49490
X7.88200 Y-5.49490
X7.88200 Y-5.49390
X7.88300 Y-5.49390
X7.88300 Y-5.49290
X7.88400 Y-5.49290
X7.88400 Y-5.49190
X7.88500 Y-5.49190
X7.88500 Y-5.49090
X7.88600 Y-5.49090
X7.88600 Y-5.48990
X7.88700 Y-5.48990
X7.88700 Y-5.48890
X7.88800 Y-5.48890
X7.88800 Y-5.48790
X7.88900 Y-5.48790
X7.88900 Y-5.48690
X7.89000 Y-5.48690
X7.89000 Y-5.48590
X7.89100 Y-5.48590
X7.89100 Y-5.48490
X7.89200 Y-5.48490
X7.89200 Y-5.48390
X7.89300 Y-5.48390
X7.89300 Y-5.48290
X7.89400 Y-5.48290
X7.89400 Y-5.48190
X7.89500 Y-5.48190
X7.89500 Y-5.48090
X7.89600 Y-5.48090
X7.89600 Y-5.47990
X7.89700 Y-5.47990
X7.89700 Y-5.47890
X7.89800 Y-5.47890
X7.89800 Y-5.47790
X7.89900 Y-5.47790
X7.89900 Y-5.47690
X7.90000 Y-5.47690
X7.90000 Y-5.47590
X7.90100 Y-5.47590
X7.90100 Y-5.47490
X7.90200 Y-5.47490
X7.90200 Y-5.47390
X7.90300 Y-5.47390
X7.90300 Y-5.47290
X7.90400 Y-5.47290
X7.90400 Y-5.47190
X7.90500 Y-5.47190
X7.90500 Y-5.47090
X7.90600 Y-5.47090
X7.90600 Y-5.46990
X7.90700 Y-5.46990
X7.90700 Y-5.46890
X7.90800 Y-5.46890
X7.90800 Y-5.46790
X7.90900 Y-5.46790
X7.90900 Y-5.46690
X7.91000 Y-5.46690
X7.91000 Y-5.46590
X7.91100 Y-5.46590
X7.91100 Y-5.46490
X7.91200 Y-5.46490
X7.91200 Y-5.46390
X7.91300 Y-5.46390
X7.91300 Y-5.46290
X7.91400 Y-5.46290
X7.91400 Y-5.46190
X7.91500 Y-5.46190
X7.91500 Y-5.46090
X7.91600 Y-5.46090
X7.91600 Y-5.45990
X7.91700 Y-5.45990
X7.91700 Y-5.45890
X7.91800 Y-5.45890
X7.91800 Y-5.45790
X7.91900 Y-5.45790
X7.91900 Y-5.45690
X7.92000 Y-5.45690
X7.92000 Y-5.45590
X7.92100 Y-5.45590
X7.92100 Y-5.45490
X7.92200 Y-5.45490
X7.92200 Y-5.45390
X7.92300 Y-5.45390
X7.92300 Y-5.45290
X7.92400 Y-5.45290
X7.92400 Y-5.45190
X7.92500 Y-5.45190
X7.92500 Y-5.45090
X7.92600 Y-5.45090
X7.92600 Y-5.44990
X7.92700 Y-5.44990
X7.92700 Y-5.44890
X7.92800 Y-5.44890
X7.92800 Y-5.44790
X7.92900 Y-5.44790
X7.92900 Y-5.44690
X7.93000 Y-5.44690
X7.93000 Y-5.44590
X7.93100 Y-5.44590
X7.93100 Y-5.44490
X7.93200 Y-5.44490
X7.93200 Y-5.44390
X7.93300 Y-5.44390
X7.93300 Y-5.44290
X7.93400 Y-5.44290
X7.93400 Y-5.44190
X7.93500 Y-5.44190
X7.93500 Y-5.44090
X7.93600 Y-5.44090
X7.93600 Y-5.43990
X7.93700 Y-5.43990
X7.93700 Y-5.43890
X7.93800 Y-5.43890
X7.93800 Y-5.43790
X7.93900 Y-5.43790
X7.93900 Y-5.43690
X7.94000 Y-5.43690
X7.94000 Y-5.43590
X7.94100 Y-5.43590
X7.94100 Y-5.43490
X7.94200 Y-5.43490
X7.94200 Y-5.43390
X7.94300 Y-5.43390
X7.94300 Y-5.43290
X7.94400 Y-5.43290
X7.94400 Y-5.43190
X7.94500 Y-5.43190
X7.94500 Y-5.43090
X7.94600 Y-5.43090
X7.94600 Y-5.42990
X7.94700 Y-5.42990
X7.94700 Y-5.42890
X7.94800 Y-5.42890
X7.94800 Y-5.42790
X7.94900 Y-5.42790
X7.94900 Y-5.42690
X7.95000 Y-5.42690
X7.95000 Y-5.42590
X7.95100 Y-5.42590
X7.95100 Y-5.42490
X7.95200 Y-5.42490
X7.95200 Y-5.42390
X7.95300 Y-5.42390
X7.95300 Y-5.42290
X7.95400 Y-5.42290
X7.95400 Y-5.42190
X7.95500 Y-5.42190
X7.95500 Y-5.42090
X7.95600 Y-5.42090
X7.95600 Y-5.41990
X7.95700 Y-5.41990
X7.95700 Y-5.41890
X7.95800 Y-5.41890
X7.95800 Y-5.41790
X7.95900 Y-5.41790
X7.95900 Y-5.41690
X7.96000 Y-5.41690
X7.96000 Y-5.41590
X7.96100 Y-5.41590
X7.96100 Y-5.41490
X7.96200 Y-5.41490
X7.96200 Y-5.41390
X7.96300 Y-5.41390
X7.96300 Y-5.41290
X7.96400 Y-5.41290
X7.96400 Y-5.41190
X7.96500 Y-5.41190
X7.96500 Y-5.41090
X7.96600 Y-5.41090
X7.96600 Y-5.40990
X7.96700 Y-5.40990
X7.96700 Y-5.40890
X7.96800 Y-5.40890
X7.96800 Y-5.40790
X7.96900 Y-5.40790
X7.96900 Y-5.40690
X7.97000 Y-5.40690
X7.97000 Y-5.40590
X7.97100 Y-5.40590
X7.97100 Y-5.40490
X7.97200 Y-5.40490
X7.97200 Y-5.40390
X7.97300 Y-5.40390
X7.97300 Y-5.40290
X7.97400 Y-5.40290
X7.97400 Y-5.40190
X7.97500 Y-5.40190
X7.97500 Y-5.40090
X7.97600 Y-5.40090
X7.97600 Y-5.39990
X7.97700 Y-5.39990
X7.97700 Y-5.39890
X7.97800 Y-5.39890
X7.97800 Y-5.39790
X7.97900 Y-5.39790
X7.97900 Y-5.39690
X7.98000 Y-5.39690
X7.98000 Y-5.39590
X7.98100 Y-5.39590
X7.98100 Y-5.39490
X7.98200 Y-5.39490
X7.98200 Y-5.39390
X7.98300 Y-5.39390
X7.98300 Y-5.39290
X7.98400 Y-5.39290
X7.98400 Y-5.39190
X7.98500 Y-5.39190
X7.98500 Y-5.39090
X7.98600 Y-5.39090
X7.98600 Y-5.38990
X7.98700 Y-5.38990
X7.98700 Y-5.38890
X7.98800 Y-5.38890
X7.98800 Y-5.38790
X7.98900 Y-5.38790
X7.98900 Y-5.38690
X7.99000 Y-5.38690
X7.99000 Y-5.38590
X7.99100 Y-5.38590
X7.99100 Y-5.38490
X7.99200 Y-5.38490
X7.99200 Y-5.38390
X7.99300 Y-5.38390
X7.99300 Y-5.38290
X7.99400 Y-5.38290
X7.99400 Y-5.38190
X7.99500 Y-5.38190
X7.99500 Y-5.38090
X7.99600 Y-5.38090
X7.99600 Y-5.37990
X7.99700 Y-5.37990
X7.99700 Y-5.37890
X7.99800 Y-5.37890
X7.99800 Y-5.37790
X7.99900 Y-5.37790
X7.99900 Y-5.37690
X8.00000 Y-5.37690
X8.00000 Y-5.37590
X8.00100 Y-5.37590
X8.00100 Y-5.37490
X8.00200 Y-5.37490
X8.00200 Y-5.37390
X8.00300 Y-5.37390
X8.00300 Y-5.37290
X8.00400 Y-5.37290
X8.00400 Y-5.37190
X8.00500 Y-5.37190
X8.00500 Y-5.37090
X8.00600 Y-5.37090
X8.00600 Y-5.36990
X8.00700 Y-5.36990
X8.00700 Y-5.36890
X8.00800 Y-5.36890
X8.00800 Y-5.36790
X8.00900 Y-5.36790
X8.00900 Y-5.36690
X8.01000 Y-5.36690
X8.01000 Y-5.36590
X8.01100 Y-5.36590
X8.01100 Y-5.36490
X8.01200 Y-5.36490
X8.01200 Y-5.36390
X8.01300 Y-5.36390
X8.01300 Y-5.36290
X8.01400 Y-5.36290
X8.01400 Y-5.36190
X8.01500 Y-5.36190
X8.01500 Y-5.36090
X8.01600 Y-5.36090
X8.01600 Y-5.35990
X8.01700 Y-5.35990
X8.01700 Y-5.35890
X8.01800 Y-5.35890
X8.01800 Y-5.35790
X8.01900 Y-5.35790
X8.01900 Y-5.35690
X8.02000 Y-5.35690
X8.02000 Y-5.35590
X8.02100 Y-5.35590
X8.02100 Y-5.35490
X8.02200 Y-5.35490
X8.02200 Y-5.35390
X8.02300 Y-5.35390
X8.02300 Y-4.91190
X8.02200 Y-4.91190
X8.02200 Y-4.91090
X8.02100 Y-4.91090
X8.02100 Y-4.90990
X8.02000 Y-4.90990
X8.02000 Y-4.90890
X8.01900 Y-4.90890
X8.01900 Y-4.90790
X8.01800 Y-4.90790
X8.01800 Y-4.90690
X8.01700 Y-4.90690
X8.01700 Y-4.90590
X8.01600 Y-4.90590
X8.01600 Y-4.90490
X8.01500 Y-4.90490
X8.01500 Y-4.90390
X8.01400 Y-4.90390
X8.01400 Y-4.90290
X8.01300 Y-4.90290
X8.01300 Y-4.90190
X8.01200 Y-4.90190
X8.01200 Y-4.90090
X8.01100 Y-4.90090
X8.01100 Y-4.89990
X8.01000 Y-4.89990
X8.01000 Y-4.89890
X8.00900 Y-4.89890
X8.00900 Y-4.89790
X8.00800 Y-4.89790
X8.00800 Y-4.89690
X8.00700 Y-4.89690
X8.00700 Y-4.89590
X8.00600 Y-4.89590
X8.00600 Y-4.89490
X8.00500 Y-4.89490
X8.00500 Y-4.89390
X8.00400 Y-4.89390
X8.00400 Y-4.89290
X8.00300 Y-4.89290
X8.00300 Y-4.89190
X8.00200 Y-4.89190
X8.00200 Y-4.89090
X8.00100 Y-4.89090
X8.00100 Y-4.88990
X8.00000 Y-4.88990
X8.00000 Y-4.88890
X7.99900 Y-4.88890
X7.99900 Y-4.88790
X7.99800 Y-4.88790
X7.99800 Y-4.88690
X7.99700 Y-4.88690
X7.99700 Y-4.88590
X7.99600 Y-4.88590
X7.99600 Y-4.88490
X7.99500 Y-4.88490
X7.99500 Y-4.88390
X7.99400 Y-4.88390
X7.99400 Y-4.88290
X7.99300 Y-4.88290
X7.99300 Y-4.88190
X7.99200 Y-4.88190
X7.99200 Y-4.88090
X7.99100 Y-4.88090
X7.99100 Y-4.87990
X7.99000 Y-4.87990
X7.99000 Y-4.87890
X7.98900 Y-4.87890
X7.98900 Y-4.87790
X7.98800 Y-4.87790
X7.98800 Y-4.87690
X7.98700 Y-4.87690
X7.98700 Y-4.87590
X7.98600 Y-4.87590
X7.98600 Y-4.87490
X7.98500 Y-4.87490
X7.98500 Y-4.87390
X7.98400 Y-4.87390
X7.98400 Y-4.87290
X7.98300 Y-4.87290
X7.98300 Y-4.87190
X7.98200 Y-4.87190
X7.98200 Y-4.87090
X7.96500 Y-4.87090
X7.96500 Y-4.87190
X7.96400 Y-4.87190
X7.96400 Y-4.87290
X7.96300 Y-4.87290
X7.96300 Y-4.87390
X7.96200 Y-4.87390
X7.96200 Y-4.87490
X7.96100 Y-4.87490
X7.96100 Y-4.87590
X7.96000 Y-4.87590
X7.96000 Y-4.87690
X7.95900 Y-4.87690
X7.95900 Y-4.87790
X7.95800 Y-4.87790
X7.95800 Y-4.87890
X7.95700 Y-4.87890
X7.95700 Y-4.87990
X7.95600 Y-4.87990
X7.95600 Y-4.88090
X7.95500 Y-4.88090
X7.95500 Y-4.88190
X7.95400 Y-4.88190
X7.95400 Y-4.88290
X7.95300 Y-4.88290
X7.95300 Y-4.88390
X7.95200 Y-4.88390
X7.95200 Y-4.88490
X7.95100 Y-4.88490
X7.95100 Y-4.88590
X7.95000 Y-4.88590
X7.95000 Y-4.88690
X7.94900 Y-4.88690
X7.94900 Y-4.88790
X7.94800 Y-4.88790
X7.94800 Y-4.88890
X7.94700 Y-4.88890
X7.94700 Y-4.88990
X7.94600 Y-4.88990
X7.94600 Y-4.89090
X7.94500 Y-4.89090
X7.94500 Y-4.89190
X7.94400 Y-4.89190
X7.94400 Y-4.89290
X7.94300 Y-4.89290
X7.94300 Y-4.89390
X7.94200 Y-4.89390
X7.94200 Y-4.89490
X7.94100 Y-4.89490
X7.94100 Y-4.89590
X7.94000 Y-4.89590
X7.94000 Y-4.89690
X7.93900 Y-4.89690
X7.93900 Y-4.89790
X7.93800 Y-4.89790
X7.93800 Y-4.89890
X7.93700 Y-4.89890
X7.93700 Y-4.89990
X7.93600 Y-4.89990
X7.93600 Y-4.90090
X7.93500 Y-4.90090
X7.93500 Y-4.90190
X7.93400 Y-4.90190
X7.93400 Y-4.90290
X7.93300 Y-4.90290
X7.93300 Y-4.90390
X7.93200 Y-4.90390
X7.93200 Y-4.90490
X7.93100 Y-4.90490
X7.93100 Y-4.90590
X7.93000 Y-4.90590
X7.93000 Y-4.90690
X7.92900 Y-4.90690
X7.92900 Y-4.90790
X7.92800 Y-4.90790
X7.92800 Y-4.90890
X7.92700 Y-4.90890
X7.92700 Y-4.90990
X7.92600 Y-4.90990
X7.92600 Y-4.91090
X7.92500 Y-4.91090
X7.92500 Y-4.91190
X7.92400 Y-4.91190
X7.92400 Y-4.91290
X7.92300 Y-4.91290
X7.92300 Y-4.91390
X7.92200 Y-4.91390
X7.92200 Y-4.91490
X7.92100 Y-4.91490
X7.92100 Y-4.91590
X7.92000 Y-4.91590
X7.92000 Y-4.91690
X7.91900 Y-4.91690
X7.91900 Y-4.93490
X7.89800 Y-4.93490
X7.89800 Y-4.93590
X7.88400 Y-4.93590
X7.88400 Y-4.93490
X7.86300 Y-4.93490
X7.86300 Y-4.89890
X7.88100 Y-4.89890
X7.88100 Y-4.89790
X7.88200 Y-4.89790
X7.88200 Y-4.89690
X7.88300 Y-4.89690
X7.88300 Y-4.89590
X7.88400 Y-4.89590
X7.88400 Y-4.89490
X7.88500 Y-4.89490
X7.88500 Y-4.89390
X7.88600 Y-4.89390
X7.88600 Y-4.82290
X7.88700 Y-4.82290
X7.88700 Y-4.82090
X7.88800 Y-4.82090
X7.88800 Y-4.81990
X7.88900 Y-4.81990
X7.88900 Y-4.81890
X7.89000 Y-4.81890
X7.89000 Y-4.81790
X7.89100 Y-4.81790
X7.89100 Y-4.81690
X7.89200 Y-4.81690
X7.89200 Y-4.81590
X7.89300 Y-4.81590
X7.89300 Y-4.81490
X7.89400 Y-4.81490
X7.89400 Y-4.81390
X7.89500 Y-4.81390
X7.89500 Y-4.81290
X7.89600 Y-4.81290
X7.89600 Y-4.81190
X7.89700 Y-4.81190
X7.89700 Y-4.81090
X7.89800 Y-4.81090
X7.89800 Y-4.80990
X7.89900 Y-4.80990
X7.89900 Y-4.80890
X7.90000 Y-4.80890
X7.90000 Y-4.80790
X7.90100 Y-4.80790
X7.90100 Y-4.80690
X7.90200 Y-4.80690
X7.90200 Y-4.80590
X7.90300 Y-4.80590
X7.90300 Y-4.80490
X7.90400 Y-4.80490
X7.90400 Y-4.80390
X7.90500 Y-4.80390
X7.90500 Y-4.80290
X7.90600 Y-4.80290
X7.90600 Y-4.80190
X7.90700 Y-4.80190
X7.90700 Y-4.80090
X7.90800 Y-4.80090
X7.90800 Y-4.79990
X7.90900 Y-4.79990
X7.90900 Y-4.79890
X7.91000 Y-4.79890
X7.91000 Y-4.79790
X7.91100 Y-4.79790
X7.91100 Y-4.79690
X7.91200 Y-4.79690
X7.91200 Y-4.79590
X7.91300 Y-4.79590
X7.91300 Y-4.79490
X7.91400 Y-4.79490
X7.91400 Y-4.79390
X7.91500 Y-4.79390
X7.91500 Y-4.79290
X7.91600 Y-4.79290
X7.91600 Y-4.62390
X7.91500 Y-4.62390
X7.91500 Y-4.62290
X7.91400 Y-4.62290
X7.91400 Y-4.62190
X7.91300 Y-4.62190
X7.91300 Y-4.62090
X7.91200 Y-4.62090
X7.91200 Y-4.61990
X7.91100 Y-4.61990
X7.91100 Y-4.61890
X7.91000 Y-4.61890
X7.91000 Y-4.61790
X7.90900 Y-4.61790
X7.90900 Y-4.61690
X7.90800 Y-4.61690
X7.90800 Y-4.61590
X7.90700 Y-4.61590
X7.90700 Y-4.61490
X7.90600 Y-4.61490
X7.90600 Y-4.61390
X7.90500 Y-4.61390
X7.90500 Y-4.61290
X7.90400 Y-4.61290
X7.90400 Y-4.61190
X7.90300 Y-4.61190
X7.90300 Y-4.61090
X7.90200 Y-4.61090
X7.90200 Y-4.60990
X7.90100 Y-4.60990
X7.90100 Y-4.60890
X7.90000 Y-4.60890
X7.90000 Y-4.60790
X7.89900 Y-4.60790
X7.89900 Y-4.60690
X7.89800 Y-4.60690
X7.89800 Y-4.60590
X7.89700 Y-4.60590
X7.89700 Y-4.60490
X7.89600 Y-4.60490
X7.89600 Y-4.60390
X7.89500 Y-4.60390
X7.89500 Y-4.60290
X7.89400 Y-4.60290
X7.89400 Y-4.60190
X7.89300 Y-4.60190
X7.89300 Y-4.60090
X7.89200 Y-4.60090
X7.89200 Y-4.59990
X7.89100 Y-4.59990
X7.89100 Y-4.59890
X7.76800 Y-4.59890
X7.76800 Y-4.59990
X7.76700 Y-4.59990
X7.76700 Y-4.60090
X7.76600 Y-4.60090
X7.76600 Y-4.60190
X7.76500 Y-4.60190
X7.76500 Y-4.60290
X7.76400 Y-4.60290
X7.76400 Y-4.60390
X7.76300 Y-4.60390
X7.76300 Y-4.60490
X7.76200 Y-4.60490
X7.76200 Y-4.60590
X7.76100 Y-4.60590
X7.76100 Y-4.60690
X7.76000 Y-4.60690
X7.76000 Y-4.60790
X7.75900 Y-4.60790
X7.75900 Y-4.60890
X7.75800 Y-4.60890
X7.75800 Y-4.60990
X7.75700 Y-4.60990
X7.75700 Y-4.61090
X7.75600 Y-4.61090
X7.75600 Y-4.61190
X7.75500 Y-4.61190
X7.75500 Y-4.61290
X7.75400 Y-4.61290
X7.75400 Y-4.61390
X7.75300 Y-4.61390
X7.75300 Y-4.61490
X7.75200 Y-4.61490
X7.75200 Y-4.61590
X7.75100 Y-4.61590
X7.75100 Y-4.61690
X7.75000 Y-4.61690
X7.75000 Y-4.61790
X7.74900 Y-4.61790
X7.74900 Y-4.61890
X7.74800 Y-4.61890
X7.74800 Y-4.61990
X7.74700 Y-4.61990
X7.74700 Y-4.62090
X7.74600 Y-4.62090
X7.74600 Y-4.62190
X7.74500 Y-4.62190
X7.74500 Y-4.62290
X7.74400 Y-4.62290
X7.74400 Y-4.62390
X7.74300 Y-4.62390
X7.74300 Y-4.62490
X7.74200 Y-4.62490
X7.74200 Y-4.62590
X7.74100 Y-4.62590
X7.74100 Y-4.62690
X7.74000 Y-4.62690
X7.74000 Y-4.62790
X7.73900 Y-4.62790
X7.73900 Y-4.62890
X7.73800 Y-4.62890
X7.73800 Y-4.62990
X7.73700 Y-4.62990
X7.73700 Y-4.63090
X7.73600 Y-4.63090
X7.73600 Y-4.63190
X7.73500 Y-4.63190
X7.73500 Y-4.63290
X7.73400 Y-4.63290
X7.73400 Y-4.63390
X7.73300 Y-4.63390
X7.73300 Y-4.63490
X7.73200 Y-4.63490
X7.73200 Y-4.63590
X7.73100 Y-4.63590
X7.73100 Y-4.63690
X7.73000 Y-4.63690
X7.73000 Y-4.63790
X7.72900 Y-4.63790
X7.72900 Y-4.63890
X7.72800 Y-4.63890
X7.72800 Y-4.63990
X7.72700 Y-4.63990
X7.72700 Y-4.64090
X7.72600 Y-4.64090
X7.72600 Y-4.64190
X7.72500 Y-4.64190
X7.72500 Y-4.64290
X7.72400 Y-4.64290
X7.72400 Y-4.64390
X7.72200 Y-4.64390
X7.72200 Y-4.64490
X7.72100 Y-4.64490
X7.72100 Y-4.64590
X7.72000 Y-4.64590
X7.72000 Y-4.64690
X7.71900 Y-4.64690
X7.71900 Y-4.64790
X7.71800 Y-4.64790
X7.71800 Y-4.64890
X7.67300 Y-4.64890
X7.67300 Y-4.63890
X7.69100 Y-4.63890
X7.69100 Y-4.63590
X7.68400 Y-4.63590
X7.68400 Y-4.63490
X7.68300 Y-4.63490
X7.68300 Y-4.63290
X7.69400 Y-4.63290
X7.69400 Y-4.63890
X7.71200 Y-4.63890
X7.71200 Y-4.63790
X7.71300 Y-4.63790
X7.71300 Y-4.63690
X7.71400 Y-4.63690
X7.71400 Y-4.61390
X7.71300 Y-4.61390
X7.71300 Y-4.61290
X7.71200 Y-4.61290
X7.71200 Y-4.61190
X7.71100 Y-4.61190
X7.71100 Y-4.61090
X7.71000 Y-4.61090
X7.71000 Y-4.60990
X7.70900 Y-4.60990
X7.70900 Y-4.60890
X7.70800 Y-4.60890
X7.70800 Y-4.60790
X7.70700 Y-4.60790
X7.70700 Y-4.60690
X7.70600 Y-4.60690
X7.70600 Y-4.60590
X7.70500 Y-4.60590
X7.70500 Y-4.60490
X7.70400 Y-4.60490
X7.70400 Y-4.60390
X7.70300 Y-4.60390
X7.70300 Y-4.60290
X7.70200 Y-4.60290
X7.70200 Y-4.60190
X7.70100 Y-4.60190
X7.70100 Y-4.60090
X7.70000 Y-4.60090
X7.70000 Y-4.59990
X7.69900 Y-4.59990
X7.69900 Y-4.59890
X7.69800 Y-4.59890
X7.69800 Y-4.59790
X7.69700 Y-4.59790
X7.69700 Y-4.59690
X7.69600 Y-4.59690
X7.69600 Y-4.59590
X7.63500 Y-4.59590
X7.63500 Y-4.59690
X7.63400 Y-4.59690
X7.63400 Y-4.59790
X7.63300 Y-4.59790
X7.63300 Y-4.59890
X7.63200 Y-4.59890
X7.63200 Y-4.59990
X7.63100 Y-4.59990
X7.63100 Y-4.60090
X7.63000 Y-4.60090
X7.63000 Y-4.60190
X7.62900 Y-4.60190
X7.62900 Y-4.60290
X7.62800 Y-4.60290
X7.62800 Y-4.63790
X7.63300 Y-4.63790
X7.63300 Y-4.64890
X7.61200 Y-4.64890
X7.61200 Y-4.63290
X7.61700 Y-4.63290
X7.61700 Y-4.59990
X7.61800 Y-4.59990
X7.61800 Y-4.59690
X7.61900 Y-4.59690
X7.61900 Y-4.59590
X7.62000 Y-4.59590
X7.62000 Y-4.59490
X7.62100 Y-4.59490
X7.62100 Y-4.59390
X7.62200 Y-4.59390
X7.62200 Y-4.59290
X7.62300 Y-4.59290
X7.62300 Y-4.59190
X7.62400 Y-4.59190
X7.62400 Y-4.59090
X7.62500 Y-4.59090
X7.62500 Y-4.58990
X7.62600 Y-4.58990
X7.62600 Y-4.58890
X7.62700 Y-4.58890
X7.62700 Y-4.58790
X7.62800 Y-4.58790
X7.62800 Y-4.58690
X7.62900 Y-4.58690
X7.62900 Y-4.58590
X7.70200 Y-4.58590
X7.70200 Y-4.58690
X7.70300 Y-4.58690
X7.70300 Y-4.58790
X7.70400 Y-4.58790
X7.70400 Y-4.58890
X7.70500 Y-4.58890
X7.70500 Y-4.58990
X7.70600 Y-4.58990
X7.70600 Y-4.59090
X7.70700 Y-4.59090
X7.70700 Y-4.59190
X7.70800 Y-4.59190
X7.70800 Y-4.59290
X7.70900 Y-4.59290
X7.70900 Y-4.59390
X7.71000 Y-4.59390
X7.71000 Y-4.59490
X7.71100 Y-4.59490
X7.71100 Y-4.59590
X7.71200 Y-4.59590
X7.71200 Y-4.59690
X7.71300 Y-4.59690
X7.71300 Y-4.59790
X7.71400 Y-4.59790
X7.71400 Y-4.59890
X7.71500 Y-4.59890
X7.71500 Y-4.59990
X7.71600 Y-4.59990
X7.71600 Y-4.60090
X7.71700 Y-4.60090
X7.71700 Y-4.60190
X7.71800 Y-4.60190
X7.71800 Y-4.60290
X7.71900 Y-4.60290
X7.71900 Y-4.60390
X7.72000 Y-4.60390
X7.72000 Y-4.60490
X7.72100 Y-4.60490
X7.72100 Y-4.60590
X7.72200 Y-4.60590
X7.72200 Y-4.60690
X7.72300 Y-4.60690
X7.72300 Y-4.60890
X7.72400 Y-4.60890
X7.72400 Y-4.61090
X7.72500 Y-4.61090
X7.72500 Y-4.62590
X7.72600 Y-4.62590
X7.72600 Y-4.62490
X7.72700 Y-4.62490
X7.72700 Y-4.62390
X7.72800 Y-4.62390
X7.72800 Y-4.62290
X7.72900 Y-4.62290
X7.72900 Y-4.62190
X7.73000 Y-4.62190
X7.73000 Y-4.62090
X7.73100 Y-4.62090
X7.73100 Y-4.61990
X7.73200 Y-4.61990
X7.73200 Y-4.61890
X7.73300 Y-4.61890
X7.73300 Y-4.61790
X7.73400 Y-4.61790
X7.73400 Y-4.61690
X7.73500 Y-4.61690
X7.73500 Y-4.61590
X7.73600 Y-4.61590
X7.73600 Y-4.61490
X7.73700 Y-4.61490
X7.73700 Y-4.61390
X7.73800 Y-4.61390
X7.73800 Y-4.61290
X7.73900 Y-4.61290
X7.73900 Y-4.61190
X7.74000 Y-4.61190
X7.74000 Y-4.61090
X7.74100 Y-4.61090
X7.74100 Y-4.60990
X7.74200 Y-4.60990
X7.74200 Y-4.60890
X7.74300 Y-4.60890
X7.74300 Y-4.60790
X7.74400 Y-4.60790
X7.74400 Y-4.60690
X7.74500 Y-4.60690
X7.74500 Y-4.60590
X7.74600 Y-4.60590
X7.74600 Y-4.60490
X7.74700 Y-4.60490
X7.74700 Y-4.60390
X7.74800 Y-4.60390
X7.74800 Y-4.60290
X7.74900 Y-4.60290
X7.74900 Y-4.60190
X7.75000 Y-4.60190
X7.75000 Y-4.60090
X7.75100 Y-4.60090
X7.75100 Y-4.59990
X7.75200 Y-4.59990
X7.75200 Y-4.59890
X7.75300 Y-4.59890
X7.75300 Y-4.59790
X7.75400 Y-4.59790
X7.75400 Y-4.59690
X7.75500 Y-4.59690
X7.75500 Y-4.59590
X7.75600 Y-4.59590
X7.75600 Y-4.59490
X7.75700 Y-4.59490
X7.75700 Y-4.59390
X7.75800 Y-4.59390
X7.75800 Y-4.59290
X7.75900 Y-4.59290
X7.75900 Y-4.59190
X7.76000 Y-4.59190
X7.76000 Y-4.59090
X7.76100 Y-4.59090
X7.76100 Y-4.58990
X7.76200 Y-4.58990
X7.76200 Y-4.58890
X7.89700 Y-4.58890
X7.89700 Y-4.58990
X7.89800 Y-4.58990
X7.89800 Y-4.59090
X7.89900 Y-4.59090
X7.89900 Y-4.59190
X7.90000 Y-4.59190
X7.90000 Y-4.59290
X7.90100 Y-4.59290
X7.90100 Y-4.59390
X7.90200 Y-4.59390
X7.90200 Y-4.59490
X7.90300 Y-4.59490
X7.90300 Y-4.59590
X7.90400 Y-4.59590
X7.90400 Y-4.59690
X7.90500 Y-4.59690
X7.90500 Y-4.59790
X7.90600 Y-4.59790
X7.90600 Y-4.59890
X7.90700 Y-4.59890
X7.90700 Y-4.59990
X7.90800 Y-4.59990
X7.90800 Y-4.60090
X7.90900 Y-4.60090
X7.90900 Y-4.60190
X7.91000 Y-4.60190
X7.91000 Y-4.60290
X7.91100 Y-4.60290
X7.91100 Y-4.60390
X7.91200 Y-4.60390
X7.91200 Y-4.60490
X7.91300 Y-4.60490
X7.91300 Y-4.60590
X7.91400 Y-4.60590
X7.91400 Y-4.60690
X7.91500 Y-4.60690
X7.91500 Y-4.60790
X7.91600 Y-4.60790
X7.91600 Y-4.60890
X7.91700 Y-4.60890
X7.91700 Y-4.60990
X7.91800 Y-4.60990
X7.91800 Y-4.61090
X7.91900 Y-4.61090
X7.91900 Y-4.61190
X7.92000 Y-4.61190
X7.92000 Y-4.61290
X7.92100 Y-4.61290
X7.92100 Y-4.61390
X7.92200 Y-4.61390
X7.92200 Y-4.61490
X7.92300 Y-4.61490
X7.92300 Y-4.61590
X7.92400 Y-4.61590
X7.92400 Y-4.61690
X7.92500 Y-4.61690
X7.92500 Y-4.61790
X7.92600 Y-4.61790
X7.92600 Y-4.61990
X7.92700 Y-4.61990
X7.92700 Y-4.79690
X7.92600 Y-4.79690
X7.92600 Y-4.79890
X7.92500 Y-4.79890
X7.92500 Y-4.79990
X7.92400 Y-4.79990
X7.92400 Y-4.80090
X7.92300 Y-4.80090
X7.92300 Y-4.80190
X7.92200 Y-4.80190
X7.92200 Y-4.80290
X7.92100 Y-4.80290
X7.92100 Y-4.80390
X7.92000 Y-4.80390
X7.92000 Y-4.80490
X7.91900 Y-4.80490
X7.91900 Y-4.80590
X7.91800 Y-4.80590
X7.91800 Y-4.80690
X7.91700 Y-4.80690
X7.91700 Y-4.80790
X7.91600 Y-4.80790
X7.91600 Y-4.80890
X7.91500 Y-4.80890
X7.91500 Y-4.80990
X7.91400 Y-4.80990
X7.91400 Y-4.81090
X7.91300 Y-4.81090
X7.91300 Y-4.81190
X7.91200 Y-4.81190
X7.91200 Y-4.81290
X7.91100 Y-4.81290
X7.91100 Y-4.81390
X7.91000 Y-4.81390
X7.91000 Y-4.81490
X7.90900 Y-4.81490
X7.90900 Y-4.81590
X7.90800 Y-4.81590
X7.90800 Y-4.81690
X7.90700 Y-4.81690
X7.90700 Y-4.81790
X7.90600 Y-4.81790
X7.90600 Y-4.81890
X7.90500 Y-4.81890
X7.90500 Y-4.81990
X7.90400 Y-4.81990
X7.90400 Y-4.82090
X7.90300 Y-4.82090
X7.90300 Y-4.82190
X7.90200 Y-4.82190
X7.90200 Y-4.82290
X7.90100 Y-4.82290
X7.90100 Y-4.82390
X7.90000 Y-4.82390
X7.90000 Y-4.82490
X7.89900 Y-4.82490
X7.89900 Y-4.82590
X7.89800 Y-4.82590
X7.89800 Y-4.82690
X7.89700 Y-4.82690
X7.89700 Y-4.88190
X7.89800 Y-4.88190
X7.89800 Y-4.88090
X7.89900 Y-4.88090
X7.89900 Y-4.87990
X7.90000 Y-4.87990
X7.90000 Y-4.87890
X7.90100 Y-4.87890
X7.90100 Y-4.87790
X7.90200 Y-4.87790
X7.90200 Y-4.87690
X7.90300 Y-4.87690
X7.90300 Y-4.87590
X7.90400 Y-4.87590
X7.90400 Y-4.87490
X7.90500 Y-4.87490
X7.90500 Y-4.87390
X7.90600 Y-4.87390
X7.90600 Y-4.87290
X7.90700 Y-4.87290
X7.90700 Y-4.87190
X7.90800 Y-4.87190
X7.90800 Y-4.87090
X7.90900 Y-4.87090
X7.90900 Y-4.86990
X7.91000 Y-4.86990
X7.91000 Y-4.86890
X7.91100 Y-4.86890
X7.91100 Y-4.86790
X7.91200 Y-4.86790
X7.91200 Y-4.86690
X7.91300 Y-4.86690
X7.91300 Y-4.86590
X7.91400 Y-4.86590
X7.91400 Y-4.86490
X7.91500 Y-4.86490
X7.91500 Y-4.86390
X7.91600 Y-4.86390
X7.91600 Y-4.86290
X7.91700 Y-4.86290
X7.91700 Y-4.86190
X7.91800 Y-4.86190
X7.91800 Y-4.86090
X7.91900 Y-4.86090
X7.91900 Y-4.85990
X7.92000 Y-4.85990
X7.92000 Y-4.85890
X7.92100 Y-4.85890
X7.92100 Y-4.85790
X7.92200 Y-4.85790
X7.92200 Y-4.85690
X7.92300 Y-4.85690
X7.92300 Y-4.85590
X7.92400 Y-4.85590
X7.92400 Y-4.85490
X7.92500 Y-4.85490
X7.92500 Y-4.85390
X7.92600 Y-4.85390
X7.92600 Y-4.85290
X7.92700 Y-4.85290
X7.92700 Y-4.85190
X7.92800 Y-4.85190
X7.92800 Y-4.85090
X7.92900 Y-4.85090
X7.92900 Y-4.84990
X7.93000 Y-4.84990
X7.93000 Y-4.84890
X7.93100 Y-4.84890
X7.93100 Y-4.84790
X7.93200 Y-4.84790
X7.93200 Y-4.84690
X7.93300 Y-4.84690
X7.93300 Y-4.84590
X7.93400 Y-4.84590
X7.93400 Y-4.84490
X7.93500 Y-4.84490
X7.93500 Y-4.84390
X7.93600 Y-4.84390
X7.93600 Y-4.84290
X7.93700 Y-4.84290
X7.93700 Y-4.84190
X7.93800 Y-4.84190
X7.93800 Y-4.84090
X7.93900 Y-4.84090
X7.93900 Y-4.83990
X7.94000 Y-4.83990
X7.94000 Y-4.83890
X7.94100 Y-4.83890
X7.94100 Y-4.83790
X7.94200 Y-4.83790
X7.94200 Y-4.83690
X7.94400 Y-4.83690
X7.94400 Y-4.83590
X7.94500 Y-4.83590
X7.94500 Y-4.83490
X7.94600 Y-4.83490
X7.94600 Y-4.83390
X7.94800 Y-4.83390
X7.94800 Y-4.83290
X7.94900 Y-4.83290
X7.94900 Y-4.83190
X7.95100 Y-4.83190
X7.95100 Y-4.83090
X7.95600 Y-4.83090
X7.95600 Y-4.82990
X7.99100 Y-4.82990
X7.99100 Y-4.83090
X7.99700 Y-4.83090
X7.99700 Y-4.83190
X7.99900 Y-4.83190
X7.99900 Y-4.83290
X8.00000 Y-4.83290
X8.00000 Y-4.83390
X8.00200 Y-4.83390
X8.00200 Y-4.83490
X8.00400 Y-4.83490
X8.00400 Y-4.83590
X8.00500 Y-4.83590
X8.00500 Y-4.83690
X8.00600 Y-4.83690
X8.00600 Y-4.83790
X8.00700 Y-4.83790
X8.00700 Y-4.83890
X8.00800 Y-4.83890
X8.00800 Y-4.83990
X8.00900 Y-4.83990
X8.00900 Y-4.84090
X8.01000 Y-4.84090
X8.01000 Y-4.84190
X8.01100 Y-4.84190
X8.01100 Y-4.84290
X8.01200 Y-4.84290
X8.01200 Y-4.84390
X8.01300 Y-4.84390
X8.01300 Y-4.84490
X8.01400 Y-4.84490
X8.01400 Y-4.84590
X8.01500 Y-4.84590
X8.01500 Y-4.84690
X8.01600 Y-4.84690
X8.01600 Y-4.84790
X8.01700 Y-4.84790
X8.01700 Y-4.84890
X8.01800 Y-4.84890
X8.01800 Y-4.84990
X8.01900 Y-4.84990
X8.01900 Y-4.85090
X8.02000 Y-4.85090
X8.02000 Y-4.85190
X8.02100 Y-4.85190
X8.02100 Y-4.85290
X8.02200 Y-4.85290
X8.02200 Y-4.85390
X8.02300 Y-4.85390
X8.02300 Y-4.85490
X8.02400 Y-4.85490
X8.02400 Y-4.85590
X8.02500 Y-4.85590
X8.02500 Y-4.85690
X8.02600 Y-4.85690
X8.02600 Y-4.85790
X8.02700 Y-4.85790
X8.02700 Y-4.85890
X8.02800 Y-4.85890
X8.02800 Y-4.85990
X8.02900 Y-4.85990
X8.02900 Y-4.86090
X8.03000 Y-4.86090
X8.03000 Y-4.86190
X8.03100 Y-4.86190
X8.03100 Y-4.86290
X8.03200 Y-4.86290
X8.03200 Y-4.86390
X8.03300 Y-4.86390
X8.03300 Y-4.86490
X8.03400 Y-4.86490
X8.03400 Y-4.86590
X8.03500 Y-4.86590
X8.03500 Y-4.86690
X8.03600 Y-4.86690
X8.03600 Y-4.86790
X8.03700 Y-4.86790
X8.03700 Y-4.86890
X8.03800 Y-4.86890
X8.03800 Y-4.86990
X8.03900 Y-4.86990
X8.03900 Y-4.87090
X8.04000 Y-4.87090
X8.04000 Y-4.87190
X8.04100 Y-4.87190
X8.04100 Y-4.87290
X8.04200 Y-4.87290
X8.04200 Y-4.87390
X8.04300 Y-4.87390
X8.04300 Y-4.87490
X8.04400 Y-4.87490
X8.04400 Y-4.87590
X8.04500 Y-4.87590
X8.04500 Y-4.87690
X8.04600 Y-4.87690
X8.04600 Y-4.87790
X8.04700 Y-4.87790
X8.04700 Y-4.87890
X8.04800 Y-4.87890
X8.04800 Y-4.87990
X8.04900 Y-4.87990
X8.04900 Y-4.88090
X8.05000 Y-4.88090
X8.05000 Y-4.88190
X8.05100 Y-4.88190
X8.05100 Y-4.88290
X8.05200 Y-4.88290
X8.05200 Y-4.88390
X8.05300 Y-4.88390
X8.05300 Y-4.88490
X8.05400 Y-4.88490
X8.05400 Y-4.88590
X8.05500 Y-4.88590
X8.05500 Y-4.88690
X8.05600 Y-4.88690
X8.05600 Y-4.88790
X8.05700 Y-4.88790
X8.05700 Y-4.88890
X8.05800 Y-4.88890
X8.05800 Y-4.88990
X8.05900 Y-4.88990
X8.05900 Y-4.89190
X8.06000 Y-4.89190
X8.06000 Y-4.89490
X8.06100 Y-4.89490
X8.06100 Y-4.89790
X8.06200 Y-4.89790
X8.06200 Y-4.90090
X8.06300 Y-4.90090
X8.06300 Y-5.36490
X8.06200 Y-5.36490
X8.06200 Y-5.36790
X8.06100 Y-5.36790
X8.06100 Y-5.37090
X8.06000 Y-5.37090
X8.06000 Y-5.37390
X8.05900 Y-5.37390
X8.05900 Y-5.37490
X8.05800 Y-5.37490
X8.05800 Y-5.37590
X8.05700 Y-5.37590
X8.05700 Y-5.37790
X8.05600 Y-5.37790
X8.05600 Y-5.37890
X8.05500 Y-5.37890
X8.05500 Y-5.37990
X8.05400 Y-5.37990
X8.05400 Y-5.38090
X8.05300 Y-5.38090
X8.05300 Y-5.38190
X8.05200 Y-5.38190
X8.05200 Y-5.38290
X8.05100 Y-5.38290
X8.05100 Y-5.38390
X8.05000 Y-5.38390
X8.05000 Y-5.38490
X8.04900 Y-5.38490
X8.04900 Y-5.38590
X8.04800 Y-5.38590
X8.04800 Y-5.38690
X8.04700 Y-5.38690
X8.04700 Y-5.38790
X8.04600 Y-5.38790
X8.04600 Y-5.38890
X8.04500 Y-5.38890
X8.04500 Y-5.38990
X8.04400 Y-5.38990
X8.04400 Y-5.39090
X8.04300 Y-5.39090
X8.04300 Y-5.39190
X8.04200 Y-5.39190
X8.04200 Y-5.39290
X8.04100 Y-5.39290
X8.04100 Y-5.39390
X8.04000 Y-5.39390
X8.04000 Y-5.39490
X8.03900 Y-5.39490
X8.03900 Y-5.39590
X8.03800 Y-5.39590
X8.03800 Y-5.39690
X8.03700 Y-5.39690
X8.03700 Y-5.39790
X8.03600 Y-5.39790
X8.03600 Y-5.39890
X8.03500 Y-5.39890
X8.03500 Y-5.39990
X8.03400 Y-5.39990
X8.03400 Y-5.40090
X8.03300 Y-5.40090
X8.03300 Y-5.40190
X8.03200 Y-5.40190
X8.03200 Y-5.40290
X8.03100 Y-5.40290
X8.03100 Y-5.40390
X8.03000 Y-5.40390
X8.03000 Y-5.40490
X8.02900 Y-5.40490
X8.02900 Y-5.40590
X8.02800 Y-5.40590
X8.02800 Y-5.40690
