( pcb2gcode 1.1.4 )

G94     ( Inches per minute feed rate. )
G20     ( Units == INCHES.             )
G90     ( Absolute coordinates.        )
S30000  ( RPM spindle speed.           )
M3      ( Spindle on clockwise.        )

G64 P0.00500 ( set maximum deviation from commanded toolpath )

G04 P0 ( dwell for no time -- G64 should not smooth over this point )
G00 Z0.19685 ( retract )

G00 X1.78100 Y-1.72320 ( rapid move to begin. )
G01 Z-0.00039 F39.37008 ( plunge. )
G04 P0 ( dwell for no time -- G64 should not smooth over this point )
X1.78100 Y-1.72320
X1.78500 Y-1.72320
X1.78500 Y-1.72420
X1.78900 Y-1.72420
X1.78900 Y-1.72520
X1.79100 Y-1.72520
X1.79100 Y-1.72620
X1.79300 Y-1.72620
X1.79300 Y-1.72720
X1.79500 Y-1.72720
X1.79500 Y-1.72820
X1.79800 Y-1.72820
X1.79800 Y-1.72920
X1.79900 Y-1.72920
X1.79900 Y-1.73020
X1.80000 Y-1.73020
X1.80000 Y-1.73120
X1.80200 Y-1.73120
X1.80200 Y-1.73220
X1.80300 Y-1.73220
X1.80300 Y-1.73320
X1.80500 Y-1.73320
X1.80500 Y-1.73420
X1.80600 Y-1.73420
X1.80600 Y-1.73520
X1.80700 Y-1.73520
X1.80700 Y-1.73720
X1.80800 Y-1.73720
X1.80800 Y-1.73820
X1.80900 Y-1.73820
X1.80900 Y-1.73920
X1.81000 Y-1.73920
X1.81000 Y-1.74020
X1.81100 Y-1.74020
X1.81100 Y-1.74120
X1.81200 Y-1.74120
X1.81200 Y-1.74320
X1.81300 Y-1.74320
X1.81300 Y-1.74520
X1.81400 Y-1.74520
X1.81400 Y-1.74620
X1.81500 Y-1.74620
X1.81500 Y-1.74820
X1.81600 Y-1.74820
X1.81600 Y-1.75020
X1.81700 Y-1.75020
X1.81700 Y-1.75320
X1.81800 Y-1.75320
X1.81800 Y-1.75720
X1.81900 Y-1.75720
X1.81900 Y-1.76120
X1.82000 Y-1.76120
X1.82000 Y-1.78120
X1.81900 Y-1.78120
X1.81900 Y-1.78620
X1.81800 Y-1.78620
X1.81800 Y-1.78920
X1.81700 Y-1.78920
X1.81700 Y-1.79220
X1.81600 Y-1.79220
X1.81600 Y-1.79520
X1.81500 Y-1.79520
X1.81500 Y-1.79620
X1.81400 Y-1.79620
X1.81400 Y-1.79820
X1.81300 Y-1.79820
X1.81300 Y-1.80020
X1.81200 Y-1.80020
X1.81200 Y-1.80120
X1.81100 Y-1.80120
X1.81100 Y-1.80320
X1.81000 Y-1.80320
X1.81000 Y-1.80420
X1.80900 Y-1.80420
X1.80900 Y-1.80520
X1.80800 Y-1.80520
X1.80800 Y-1.80620
X1.80700 Y-1.80620
X1.80700 Y-1.80720
X1.80600 Y-1.80720
X1.80600 Y-1.80820
X1.80500 Y-1.80820
X1.80500 Y-1.80920
X1.80400 Y-1.80920
X1.80400 Y-1.81020
X1.80300 Y-1.81020
X1.80300 Y-1.81120
X1.80100 Y-1.81120
X1.80100 Y-1.81220
X1.80000 Y-1.81220
X1.80000 Y-1.81320
X1.79800 Y-1.81320
X1.79800 Y-1.81420
X1.79700 Y-1.81420
X1.79700 Y-1.81520
X1.79500 Y-1.81520
X1.79500 Y-1.81620
X1.79200 Y-1.81620
X1.79200 Y-1.81720
X1.79000 Y-1.81720
X1.79000 Y-1.81820
X1.78700 Y-1.81820
X1.78700 Y-1.81920
X1.78300 Y-1.81920
X1.78300 Y-1.82020
X1.77700 Y-1.82020
X1.77700 Y-1.82120
X1.76400 Y-1.82120
X1.76400 Y-1.82020
X1.75800 Y-1.82020
X1.75800 Y-1.81920
X1.75400 Y-1.81920
X1.75400 Y-1.81820
X1.75100 Y-1.81820
X1.75100 Y-1.81720
X1.74900 Y-1.81720
X1.74900 Y-1.81620
X1.74700 Y-1.81620
X1.74700 Y-1.81520
X1.74500 Y-1.81520
X1.74500 Y-1.81420
X1.74300 Y-1.81420
X1.74300 Y-1.81320
X1.74200 Y-1.81320
X1.74200 Y-1.81220
X1.74000 Y-1.81220
X1.74000 Y-1.81120
X1.73900 Y-1.81120
X1.73900 Y-1.81020
X1.73700 Y-1.81020
X1.73700 Y-1.80920
X1.73600 Y-1.80920
X1.73600 Y-1.80820
X1.73500 Y-1.80820
X1.73500 Y-1.80720
X1.73400 Y-1.80720
X1.73400 Y-1.80620
X1.73300 Y-1.80620
X1.73300 Y-1.80420
X1.73200 Y-1.80420
X1.73200 Y-1.80320
X1.73100 Y-1.80320
X1.73100 Y-1.80220
X1.73000 Y-1.80220
X1.73000 Y-1.80120
X1.72900 Y-1.80120
X1.72900 Y-1.79920
X1.72800 Y-1.79920
X1.72800 Y-1.79720
X1.72700 Y-1.79720
X1.72700 Y-1.79620
X1.72600 Y-1.79620
X1.72600 Y-1.79420
X1.72500 Y-1.79420
X1.72500 Y-1.79120
X1.72400 Y-1.79120
X1.72400 Y-1.78820
X1.72300 Y-1.78820
X1.72300 Y-1.78520
X1.72200 Y-1.78520
X1.72200 Y-1.77720
X1.72100 Y-1.77720
X1.72100 Y-1.76620
X1.72200 Y-1.76620
X1.72200 Y-1.75820
X1.72300 Y-1.75820
X1.72300 Y-1.75520
X1.72400 Y-1.75520
X1.72400 Y-1.75220
X1.72500 Y-1.75220
X1.72500 Y-1.74920
X1.72600 Y-1.74920
X1.72600 Y-1.74720
X1.72700 Y-1.74720
X1.72700 Y-1.74520
X1.72800 Y-1.74520
X1.72800 Y-1.74420
X1.72900 Y-1.74420
X1.72900 Y-1.74220
X1.73000 Y-1.74220
X1.73000 Y-1.74020
X1.73100 Y-1.74020
X1.73100 Y-1.73920
X1.73200 Y-1.73920
X1.73200 Y-1.73820
X1.73300 Y-1.73820
X1.73300 Y-1.73720
X1.73400 Y-1.73720
X1.73400 Y-1.73620
X1.73500 Y-1.73620
X1.73500 Y-1.73520
X1.73600 Y-1.73520
X1.73600 Y-1.73420
X1.73700 Y-1.73420
X1.73700 Y-1.73320
X1.73800 Y-1.73320
X1.73800 Y-1.73220
X1.74000 Y-1.73220
X1.74000 Y-1.73120
X1.74100 Y-1.73120
X1.74100 Y-1.73020
X1.74200 Y-1.73020
X1.74200 Y-1.72920
X1.74400 Y-1.72920
X1.74400 Y-1.72820
X1.74600 Y-1.72820
X1.74600 Y-1.72720
X1.74800 Y-1.72720
X1.74800 Y-1.72620
X1.75000 Y-1.72620
X1.75000 Y-1.72520
X1.75300 Y-1.72520
X1.75300 Y-1.72420
X1.75700 Y-1.72420
X1.75700 Y-1.72320
X1.76000 Y-1.72320
X1.76000 Y-1.72220
X1.78100 Y-1.72220
X1.78100 Y-1.72320
G04 P0 ( dwell for no time -- G64 should not smooth over this point )
G00 Z0.19685 ( retract )

G00 X7.68700 Y-1.72320 ( rapid move to begin. )
G01 Z-0.00039 F39.37008 ( plunge. )
G04 P0 ( dwell for no time -- G64 should not smooth over this point )
X7.68700 Y-1.72320
X7.69000 Y-1.72320
X7.69000 Y-1.72420
X7.69400 Y-1.72420
X7.69400 Y-1.72520
X7.69700 Y-1.72520
X7.69700 Y-1.72620
X7.69900 Y-1.72620
X7.69900 Y-1.72720
X7.70100 Y-1.72720
X7.70100 Y-1.72820
X7.70300 Y-1.72820
X7.70300 Y-1.72920
X7.70400 Y-1.72920
X7.70400 Y-1.73020
X7.70600 Y-1.73020
X7.70600 Y-1.73120
X7.70700 Y-1.73120
X7.70700 Y-1.73220
X7.70900 Y-1.73220
X7.70900 Y-1.73320
X7.71000 Y-1.73320
X7.71000 Y-1.73420
X7.71100 Y-1.73420
X7.71100 Y-1.73520
X7.71200 Y-1.73520
X7.71200 Y-1.73620
X7.71300 Y-1.73620
X7.71300 Y-1.73720
X7.71400 Y-1.73720
X7.71400 Y-1.73820
X7.71500 Y-1.73820
X7.71500 Y-1.73920
X7.71600 Y-1.73920
X7.71600 Y-1.74020
X7.71700 Y-1.74020
X7.71700 Y-1.74220
X7.71800 Y-1.74220
X7.71800 Y-1.74420
X7.71900 Y-1.74420
X7.71900 Y-1.74520
X7.72000 Y-1.74520
X7.72000 Y-1.74720
X7.72100 Y-1.74720
X7.72100 Y-1.74920
X7.72200 Y-1.74920
X7.72200 Y-1.75220
X7.72300 Y-1.75220
X7.72300 Y-1.75520
X7.72400 Y-1.75520
X7.72400 Y-1.75820
X7.72500 Y-1.75820
X7.72500 Y-1.76620
X7.72600 Y-1.76620
X7.72600 Y-1.77620
X7.72500 Y-1.77620
X7.72500 Y-1.78420
X7.72400 Y-1.78420
X7.72400 Y-1.78820
X7.72300 Y-1.78820
X7.72300 Y-1.79120
X7.72200 Y-1.79120
X7.72200 Y-1.79420
X7.72100 Y-1.79420
X7.72100 Y-1.79520
X7.72000 Y-1.79520
X7.72000 Y-1.79720
X7.71900 Y-1.79720
X7.71900 Y-1.79920
X7.71800 Y-1.79920
X7.71800 Y-1.80120
X7.71700 Y-1.80120
X7.71700 Y-1.80220
X7.71600 Y-1.80220
X7.71600 Y-1.80320
X7.71500 Y-1.80320
X7.71500 Y-1.80420
X7.71400 Y-1.80420
X7.71400 Y-1.80520
X7.71300 Y-1.80520
X7.71300 Y-1.80720
X7.71200 Y-1.80720
X7.71200 Y-1.80820
X7.71100 Y-1.80820
X7.71100 Y-1.80920
X7.70900 Y-1.80920
X7.70900 Y-1.81020
X7.70800 Y-1.81020
X7.70800 Y-1.81120
X7.70700 Y-1.81120
X7.70700 Y-1.81220
X7.70500 Y-1.81220
X7.70500 Y-1.81320
X7.70400 Y-1.81320
X7.70400 Y-1.81420
X7.70200 Y-1.81420
X7.70200 Y-1.81520
X7.70000 Y-1.81520
X7.70000 Y-1.81620
X7.69800 Y-1.81620
X7.69800 Y-1.81720
X7.69600 Y-1.81720
X7.69600 Y-1.81820
X7.69300 Y-1.81820
X7.69300 Y-1.81920
X7.68900 Y-1.81920
X7.68900 Y-1.82020
X7.68300 Y-1.82020
X7.68300 Y-1.82120
X7.67000 Y-1.82120
X7.67000 Y-1.82020
X7.66400 Y-1.82020
X7.66400 Y-1.81920
X7.66000 Y-1.81920
X7.66000 Y-1.81820
X7.65700 Y-1.81820
X7.65700 Y-1.81720
X7.65500 Y-1.81720
X7.65500 Y-1.81620
X7.65200 Y-1.81620
X7.65200 Y-1.81520
X7.65000 Y-1.81520
X7.65000 Y-1.81420
X7.64900 Y-1.81420
X7.64900 Y-1.81320
X7.64700 Y-1.81320
X7.64700 Y-1.81220
X7.64600 Y-1.81220
X7.64600 Y-1.81120
X7.64400 Y-1.81120
X7.64400 Y-1.81020
X7.64300 Y-1.81020
X7.64300 Y-1.80920
X7.64200 Y-1.80920
X7.64200 Y-1.80820
X7.64100 Y-1.80820
X7.64100 Y-1.80720
X7.64000 Y-1.80720
X7.64000 Y-1.80620
X7.63900 Y-1.80620
X7.63900 Y-1.80520
X7.63800 Y-1.80520
X7.63800 Y-1.80420
X7.63700 Y-1.80420
X7.63700 Y-1.80320
X7.63600 Y-1.80320
X7.63600 Y-1.80220
X7.63500 Y-1.80220
X7.63500 Y-1.80020
X7.63400 Y-1.80020
X7.63400 Y-1.79820
X7.63300 Y-1.79820
X7.63300 Y-1.79620
X7.63200 Y-1.79620
X7.63200 Y-1.79520
X7.63100 Y-1.79520
X7.63100 Y-1.79320
X7.63000 Y-1.79320
X7.63000 Y-1.78920
X7.62900 Y-1.78920
X7.62900 Y-1.78620
X7.62800 Y-1.78620
X7.62800 Y-1.78220
X7.62700 Y-1.78220
X7.62700 Y-1.76020
X7.62800 Y-1.76020
X7.62800 Y-1.75620
X7.62900 Y-1.75620
X7.62900 Y-1.75320
X7.63000 Y-1.75320
X7.63000 Y-1.75020
X7.63100 Y-1.75020
X7.63100 Y-1.74820
X7.63200 Y-1.74820
X7.63200 Y-1.74620
X7.63300 Y-1.74620
X7.63300 Y-1.74420
X7.63400 Y-1.74420
X7.63400 Y-1.74320
X7.63500 Y-1.74320
X7.63500 Y-1.74120
X7.63600 Y-1.74120
X7.63600 Y-1.74020
X7.63700 Y-1.74020
X7.63700 Y-1.73920
X7.63800 Y-1.73920
X7.63800 Y-1.73820
X7.63900 Y-1.73820
X7.63900 Y-1.73620
X7.64000 Y-1.73620
X7.64000 Y-1.73520
X7.64100 Y-1.73520
X7.64100 Y-1.73420
X7.64200 Y-1.73420
X7.64200 Y-1.73320
X7.64400 Y-1.73320
X7.64400 Y-1.73220
X7.64500 Y-1.73220
X7.64500 Y-1.73120
X7.64700 Y-1.73120
X7.64700 Y-1.73020
X7.64800 Y-1.73020
X7.64800 Y-1.72920
X7.64900 Y-1.72920
X7.64900 Y-1.72820
X7.65100 Y-1.72820
X7.65100 Y-1.72720
X7.65400 Y-1.72720
X7.65400 Y-1.72620
X7.65600 Y-1.72620
X7.65600 Y-1.72520
X7.65800 Y-1.72520
X7.65800 Y-1.72420
X7.66200 Y-1.72420
X7.66200 Y-1.72320
X7.66600 Y-1.72320
X7.66600 Y-1.72220
X7.68700 Y-1.72220
X7.68700 Y-1.72320
G04 P0 ( dwell for no time -- G64 should not smooth over this point )
G00 Z0.19685 ( retract )

G00 X1.78100 Y-9.59720 ( rapid move to begin. )
G01 Z-0.00039 F39.37008 ( plunge. )
G04 P0 ( dwell for no time -- G64 should not smooth over this point )
X1.78100 Y-9.59720
X1.78500 Y-9.59720
X1.78500 Y-9.59820
X1.78900 Y-9.59820
X1.78900 Y-9.59920
X1.79100 Y-9.59920
X1.79100 Y-9.60020
X1.79300 Y-9.60020
X1.79300 Y-9.60120
X1.79500 Y-9.60120
X1.79500 Y-9.60220
X1.79800 Y-9.60220
X1.79800 Y-9.60320
X1.79900 Y-9.60320
X1.79900 Y-9.60420
X1.80000 Y-9.60420
X1.80000 Y-9.60520
X1.80200 Y-9.60520
X1.80200 Y-9.60620
X1.80300 Y-9.60620
X1.80300 Y-9.60720
X1.80500 Y-9.60720
X1.80500 Y-9.60820
X1.80600 Y-9.60820
X1.80600 Y-9.60920
X1.80700 Y-9.60920
X1.80700 Y-9.61120
X1.80800 Y-9.61120
X1.80800 Y-9.61220
X1.80900 Y-9.61220
X1.80900 Y-9.61320
X1.81000 Y-9.61320
X1.81000 Y-9.61420
X1.81100 Y-9.61420
X1.81100 Y-9.61520
X1.81200 Y-9.61520
X1.81200 Y-9.61720
X1.81300 Y-9.61720
X1.81300 Y-9.61920
X1.81400 Y-9.61920
X1.81400 Y-9.62020
X1.81500 Y-9.62020
X1.81500 Y-9.62220
X1.81600 Y-9.62220
X1.81600 Y-9.62420
X1.81700 Y-9.62420
X1.81700 Y-9.62720
X1.81800 Y-9.62720
X1.81800 Y-9.63120
X1.81900 Y-9.63120
X1.81900 Y-9.63520
X1.82000 Y-9.63520
X1.82000 Y-9.65520
X1.81900 Y-9.65520
X1.81900 Y-9.66020
X1.81800 Y-9.66020
X1.81800 Y-9.66320
X1.81700 Y-9.66320
X1.81700 Y-9.66620
X1.81600 Y-9.66620
X1.81600 Y-9.66920
X1.81500 Y-9.66920
X1.81500 Y-9.67020
X1.81400 Y-9.67020
X1.81400 Y-9.67220
X1.81300 Y-9.67220
X1.81300 Y-9.67420
X1.81200 Y-9.67420
X1.81200 Y-9.67520
X1.81100 Y-9.67520
X1.81100 Y-9.67720
X1.81000 Y-9.67720
X1.81000 Y-9.67820
X1.80900 Y-9.67820
X1.80900 Y-9.67920
X1.80800 Y-9.67920
X1.80800 Y-9.68020
X1.80700 Y-9.68020
X1.80700 Y-9.68120
X1.80600 Y-9.68120
X1.80600 Y-9.68220
X1.80500 Y-9.68220
X1.80500 Y-9.68320
X1.80400 Y-9.68320
X1.80400 Y-9.68420
X1.80300 Y-9.68420
X1.80300 Y-9.68520
X1.80100 Y-9.68520
X1.80100 Y-9.68620
X1.80000 Y-9.68620
X1.80000 Y-9.68720
X1.79800 Y-9.68720
X1.79800 Y-9.68820
X1.79700 Y-9.68820
X1.79700 Y-9.68920
X1.79500 Y-9.68920
X1.79500 Y-9.69020
X1.79200 Y-9.69020
X1.79200 Y-9.69120
X1.79000 Y-9.69120
X1.79000 Y-9.69220
X1.78700 Y-9.69220
X1.78700 Y-9.69320
X1.78300 Y-9.69320
X1.78300 Y-9.69420
X1.77700 Y-9.69420
X1.77700 Y-9.69520
X1.76400 Y-9.69520
X1.76400 Y-9.69420
X1.75800 Y-9.69420
X1.75800 Y-9.69320
X1.75400 Y-9.69320
X1.75400 Y-9.69220
X1.75100 Y-9.69220
X1.75100 Y-9.69120
X1.74900 Y-9.69120
X1.74900 Y-9.69020
X1.74700 Y-9.69020
X1.74700 Y-9.68920
X1.74500 Y-9.68920
X1.74500 Y-9.68820
X1.74300 Y-9.68820
X1.74300 Y-9.68720
X1.74200 Y-9.68720
X1.74200 Y-9.68620
X1.74000 Y-9.68620
X1.74000 Y-9.68520
X1.73900 Y-9.68520
X1.73900 Y-9.68420
X1.73700 Y-9.68420
X1.73700 Y-9.68320
X1.73600 Y-9.68320
X1.73600 Y-9.68220
X1.73500 Y-9.68220
X1.73500 Y-9.68120
X1.73400 Y-9.68120
X1.73400 Y-9.68020
X1.73300 Y-9.68020
X1.73300 Y-9.67820
X1.73200 Y-9.67820
X1.73200 Y-9.67720
X1.73100 Y-9.67720
X1.73100 Y-9.67620
X1.73000 Y-9.67620
X1.73000 Y-9.67520
X1.72900 Y-9.67520
X1.72900 Y-9.67320
X1.72800 Y-9.67320
X1.72800 Y-9.67120
X1.72700 Y-9.67120
X1.72700 Y-9.67020
X1.72600 Y-9.67020
X1.72600 Y-9.66820
X1.72500 Y-9.66820
X1.72500 Y-9.66520
X1.72400 Y-9.66520
X1.72400 Y-9.66220
X1.72300 Y-9.66220
X1.72300 Y-9.65920
X1.72200 Y-9.65920
X1.72200 Y-9.65120
X1.72100 Y-9.65120
X1.72100 Y-9.64020
X1.72200 Y-9.64020
X1.72200 Y-9.63220
X1.72300 Y-9.63220
X1.72300 Y-9.62920
X1.72400 Y-9.62920
X1.72400 Y-9.62620
X1.72500 Y-9.62620
X1.72500 Y-9.62320
X1.72600 Y-9.62320
X1.72600 Y-9.62120
X1.72700 Y-9.62120
X1.72700 Y-9.61920
X1.72800 Y-9.61920
X1.72800 Y-9.61820
X1.72900 Y-9.61820
X1.72900 Y-9.61620
X1.73000 Y-9.61620
X1.73000 Y-9.61420
X1.73100 Y-9.61420
X1.73100 Y-9.61320
X1.73200 Y-9.61320
X1.73200 Y-9.61220
X1.73300 Y-9.61220
X1.73300 Y-9.61120
X1.73400 Y-9.61120
X1.73400 Y-9.61020
X1.73500 Y-9.61020
X1.73500 Y-9.60920
X1.73600 Y-9.60920
X1.73600 Y-9.60820
X1.73700 Y-9.60820
X1.73700 Y-9.60720
X1.73800 Y-9.60720
X1.73800 Y-9.60620
X1.74000 Y-9.60620
X1.74000 Y-9.60520
X1.74100 Y-9.60520
X1.74100 Y-9.60420
X1.74200 Y-9.60420
X1.74200 Y-9.60320
X1.74400 Y-9.60320
X1.74400 Y-9.60220
X1.74600 Y-9.60220
X1.74600 Y-9.60120
X1.74800 Y-9.60120
X1.74800 Y-9.60020
X1.75000 Y-9.60020
X1.75000 Y-9.59920
X1.75300 Y-9.59920
X1.75300 Y-9.59820
X1.75700 Y-9.59820
X1.75700 Y-9.59720
X1.76000 Y-9.59720
X1.76000 Y-9.59620
X1.78100 Y-9.59620
X1.78100 Y-9.59720
G04 P0 ( dwell for no time -- G64 should not smooth over this point )
G00 Z0.19685 ( retract )

G00 X7.68700 Y-9.59720 ( rapid move to begin. )
G01 Z-0.00039 F39.37008 ( plunge. )
G04 P0 ( dwell for no time -- G64 should not smooth over this point )
X7.68700 Y-9.59720
X7.69000 Y-9.59720
X7.69000 Y-9.59820
X7.69400 Y-9.59820
X7.69400 Y-9.59920
X7.69700 Y-9.59920
X7.69700 Y-9.60020
X7.69900 Y-9.60020
X7.69900 Y-9.60120
X7.70100 Y-9.60120
X7.70100 Y-9.60220
X7.70300 Y-9.60220
X7.70300 Y-9.60320
X7.70400 Y-9.60320
X7.70400 Y-9.60420
X7.70600 Y-9.60420
X7.70600 Y-9.60520
X7.70700 Y-9.60520
X7.70700 Y-9.60620
X7.70900 Y-9.60620
X7.70900 Y-9.60720
X7.71000 Y-9.60720
X7.71000 Y-9.60820
X7.71100 Y-9.60820
X7.71100 Y-9.60920
X7.71200 Y-9.60920
X7.71200 Y-9.61020
X7.71300 Y-9.61020
X7.71300 Y-9.61120
X7.71400 Y-9.61120
X7.71400 Y-9.61220
X7.71500 Y-9.61220
X7.71500 Y-9.61320
X7.71600 Y-9.61320
X7.71600 Y-9.61420
X7.71700 Y-9.61420
X7.71700 Y-9.61620
X7.71800 Y-9.61620
X7.71800 Y-9.61820
X7.71900 Y-9.61820
X7.71900 Y-9.61920
X7.72000 Y-9.61920
X7.72000 Y-9.62120
X7.72100 Y-9.62120
X7.72100 Y-9.62320
X7.72200 Y-9.62320
X7.72200 Y-9.62620
X7.72300 Y-9.62620
X7.72300 Y-9.62920
X7.72400 Y-9.62920
X7.72400 Y-9.63220
X7.72500 Y-9.63220
X7.72500 Y-9.64020
X7.72600 Y-9.64020
X7.72600 Y-9.65020
X7.72500 Y-9.65020
X7.72500 Y-9.65820
X7.72400 Y-9.65820
X7.72400 Y-9.66220
X7.72300 Y-9.66220
X7.72300 Y-9.66520
X7.72200 Y-9.66520
X7.72200 Y-9.66820
X7.72100 Y-9.66820
X7.72100 Y-9.66920
X7.72000 Y-9.66920
X7.72000 Y-9.67120
X7.71900 Y-9.67120
X7.71900 Y-9.67320
X7.71800 Y-9.67320
X7.71800 Y-9.67520
X7.71700 Y-9.67520
X7.71700 Y-9.67620
X7.71600 Y-9.67620
X7.71600 Y-9.67720
X7.71500 Y-9.67720
X7.71500 Y-9.67820
X7.71400 Y-9.67820
X7.71400 Y-9.67920
X7.71300 Y-9.67920
X7.71300 Y-9.68120
X7.71200 Y-9.68120
X7.71200 Y-9.68220
X7.71100 Y-9.68220
X7.71100 Y-9.68320
X7.70900 Y-9.68320
X7.70900 Y-9.68420
X7.70800 Y-9.68420
X7.70800 Y-9.68520
X7.70700 Y-9.68520
X7.70700 Y-9.68620
X7.70500 Y-9.68620
X7.70500 Y-9.68720
X7.70400 Y-9.68720
X7.70400 Y-9.68820
X7.70200 Y-9.68820
X7.70200 Y-9.68920
X7.70000 Y-9.68920
X7.70000 Y-9.69020
X7.69800 Y-9.69020
X7.69800 Y-9.69120
X7.69600 Y-9.69120
X7.69600 Y-9.69220
X7.69300 Y-9.69220
X7.69300 Y-9.69320
X7.68900 Y-9.69320
X7.68900 Y-9.69420
X7.68300 Y-9.69420
X7.68300 Y-9.69520
X7.67000 Y-9.69520
X7.67000 Y-9.69420
X7.66400 Y-9.69420
X7.66400 Y-9.69320
X7.66000 Y-9.69320
X7.66000 Y-9.69220
X7.65700 Y-9.69220
X7.65700 Y-9.69120
X7.65500 Y-9.69120
X7.65500 Y-9.69020
X7.65200 Y-9.69020
X7.65200 Y-9.68920
X7.65000 Y-9.68920
X7.65000 Y-9.68820
X7.64900 Y-9.68820
X7.64900 Y-9.68720
X7.64700 Y-9.68720
X7.64700 Y-9.68620
X7.64600 Y-9.68620
X7.64600 Y-9.68520
X7.64400 Y-9.68520
X7.64400 Y-9.68420
X7.64300 Y-9.68420
X7.64300 Y-9.68320
X7.64200 Y-9.68320
X7.64200 Y-9.68220
X7.64100 Y-9.68220
X7.64100 Y-9.68120
X7.64000 Y-9.68120
X7.64000 Y-9.68020
X7.63900 Y-9.68020
X7.63900 Y-9.67920
X7.63800 Y-9.67920
X7.63800 Y-9.67820
X7.63700 Y-9.67820
X7.63700 Y-9.67720
X7.63600 Y-9.67720
X7.63600 Y-9.67620
X7.63500 Y-9.67620
X7.63500 Y-9.67420
X7.63400 Y-9.67420
X7.63400 Y-9.67220
X7.63300 Y-9.67220
X7.63300 Y-9.67020
X7.63200 Y-9.67020
X7.63200 Y-9.66920
X7.63100 Y-9.66920
X7.63100 Y-9.66720
X7.63000 Y-9.66720
X7.63000 Y-9.66320
X7.62900 Y-9.66320
X7.62900 Y-9.66020
X7.62800 Y-9.66020
X7.62800 Y-9.65620
X7.62700 Y-9.65620
X7.62700 Y-9.63420
X7.62800 Y-9.63420
X7.62800 Y-9.63020
X7.62900 Y-9.63020
X7.62900 Y-9.62720
X7.63000 Y-9.62720
X7.63000 Y-9.62420
X7.63100 Y-9.62420
X7.63100 Y-9.62220
X7.63200 Y-9.62220
X7.63200 Y-9.62020
X7.63300 Y-9.62020
X7.63300 Y-9.61820
X7.63400 Y-9.61820
X7.63400 Y-9.61720
X7.63500 Y-9.61720
X7.63500 Y-9.61520
X7.63600 Y-9.61520
X7.63600 Y-9.61420
X7.63700 Y-9.61420
X7.63700 Y-9.61320
X7.63800 Y-9.61320
X7.63800 Y-9.61220
X7.63900 Y-9.61220
X7.63900 Y-9.61020
X7.64000 Y-9.61020
X7.64000 Y-9.60920
X7.64100 Y-9.60920
X7.64100 Y-9.60820
X7.64200 Y-9.60820
X7.64200 Y-9.60720
X7.64400 Y-9.60720
X7.64400 Y-9.60620
X7.64500 Y-9.60620
X7.64500 Y-9.60520
X7.64700 Y-9.60520
X7.64700 Y-9.60420
X7.64800 Y-9.60420
X7.64800 Y-9.60320
X7.64900 Y-9.60320
X7.64900 Y-9.60220
X7.65100 Y-9.60220
X7.65100 Y-9.60120
X7.65400 Y-9.60120
X7.65400 Y-9.60020
X7.65600 Y-9.60020
X7.65600 Y-9.59920
X7.65800 Y-9.59920
X7.65800 Y-9.59820
X7.66200 Y-9.59820
X7.66200 Y-9.59720
X7.66600 Y-9.59720
X7.66600 Y-9.59620
X7.68700 Y-9.59620
X7.68700 Y-9.59720

G04 P0 ( dwell for no time -- G64 should not smooth over this point )
G00 Z0.19685 ( retract )

M9 ( Coolant off. )
M2 ( Program end. )

