( pcb2gcode 1.1.4 )

( This file uses 3 drill bit sizes. )

G94     ( Inches per minute feed rate. )
G20     ( Units == INCHES.             )
G90     ( Absolute coordinates.        )
S13000  ( RPM spindle speed.           )

G00 Z1.57480 ( Retract )
T1
M5      ( Spindle stop.                )
M6      ( Tool change.                 )
(MSG, CHANGE TOOL BIT: to drill size 0.40000 mm)
M0      ( Temporary machine stop.      )
M3      ( Spindle on clockwise.        )

G81 R0.78740 Z0.20472 F5.11811 X3.91339 Y-3.18504
X4.07283 Y-3.16732
X4.26969 Y-4.16142
X4.49016 Y-3.94488
X4.50591 Y-3.24606
X4.57283 Y-3.93504
X4.58268 Y-3.00591
X4.60748 Y-3.71102
X4.60827 Y-3.37008
X4.61142 Y-3.77717
X4.68898 Y-2.99016
X4.68898 Y-3.61417
X4.77835 Y-3.41969
X4.78543 Y-2.92323
X4.79843 Y-3.48268
X4.82283 Y-3.18504
X4.83346 Y-3.39252
X4.83898 Y-3.67717
X4.89173 Y-3.34646
X4.89567 Y-3.28150
X4.91929 Y-3.22441
X5.01969 Y-4.04134
X5.08465 Y-4.23031
X5.11220 Y-3.01378
X5.15157 Y-4.04921
X5.16535 Y-3.26378
X5.19488 Y-3.31693
X5.24606 Y-3.44685
X5.25000 Y-3.67913
X5.25197 Y-3.86811
X5.25984 Y-4.16142
X5.26772 Y-2.96654
X5.29921 Y-3.71457
X5.29921 Y-3.83465
X5.30118 Y-3.51772
X5.30512 Y-3.31102
X5.30709 Y-3.41929
X5.33272 Y-3.37031
X5.34055 Y-3.47638
X5.34843 Y-3.52559
X5.36024 Y-3.64567
X5.40748 Y-3.40945
X5.41339 Y-3.84449
X5.44291 Y-4.08268
X5.46850 Y-2.91732
X5.47047 Y-3.48819
X5.55118 Y-4.05315
X5.64370 Y-3.31496
X5.67126 Y-3.96654
X5.71654 Y-3.95669
X5.76181 Y-3.94882
X5.78346 Y-3.00984
X5.85827 Y-3.03543
X5.92717 Y-4.07087
X5.95866 Y-3.93898
X5.98425 Y-3.89567
X6.02953 Y-3.90748
X6.07480 Y-3.88976
X6.09843 Y-3.12992
X6.12795 Y-3.89370
X6.13189 Y-3.84449
X6.15157 Y-3.47638
X6.27559 Y-3.09449
X6.29724 Y-3.62008
X6.31102 Y-3.97441
X6.31693 Y-3.04134
X6.36614 Y-3.42717
X6.38976 Y-4.09055
X6.39370 Y-4.17520
X6.41929 Y-3.59843
X6.44291 Y-3.97244
X6.48622 Y-3.03150
X6.50787 Y-4.10039
X6.54921 Y-3.01181
X6.54921 Y-3.42323
X6.55118 Y-3.67913
X6.58858 Y-2.92126


G00 Z1.57480 ( Retract )
T2
M5      ( Spindle stop.                )
M6      ( Tool change.                 )
(MSG, CHANGE TOOL BIT: to drill size 0.60000 mm)
M0      ( Temporary machine stop.      )
M3      ( Spindle on clockwise.        )

G81 R0.78740 Z0.20472 F5.11811 X4.97039 Y-3.49087
X4.97039 Y-3.55087
X5.00039 Y-3.52087
X5.03039 Y-3.49087
X5.03039 Y-3.55087


G00 Z1.57480 ( Retract )
T3
M5      ( Spindle stop.                )
M6      ( Tool change.                 )
(MSG, CHANGE TOOL BIT: to drill size 1.00000 mm)
M0      ( Temporary machine stop.      )
M3      ( Spindle on clockwise.        )

G81 R0.78740 Z0.20472 F5.11811 X5.71457 Y-4.15354
X5.81457 Y-4.15354
X5.91417 Y-4.15354
X6.01417 Y-4.15354
X6.11378 Y-4.15354
X6.21378 Y-4.15354


G00 Z1.57480 ( All done -- retract )

M9 ( Coolant off. )
M2 ( Program end. )

