( pcb2gcode 1.1.4 )

G94     ( Inches per minute feed rate. )
G20     ( Units == INCHES.             )
G90     ( Absolute coordinates.        )
S30000  ( RPM spindle speed.           )
M3      ( Spindle on clockwise.        )

G64 P0.00500 ( set maximum deviation from commanded toolpath )

G04 P0 ( dwell for no time -- G64 should not smooth over this point )
G00 Z0.78740 ( retract )

G00 X5.04300 Y-2.58920 ( rapid move to begin. )
G01 Z0.43307 F39.37008 ( plunge. )
G04 P0 ( dwell for no time -- G64 should not smooth over this point )
X5.04300 Y-2.58920
X5.04500 Y-2.58920
X5.04500 Y-2.59020
X5.04700 Y-2.59020
X5.04700 Y-2.59120
X5.04800 Y-2.59120
X5.04800 Y-2.59220
X5.04900 Y-2.59220
X5.04900 Y-2.59320
X5.05000 Y-2.59320
X5.05000 Y-2.59420
X5.05100 Y-2.59420
X5.05100 Y-2.59520
X5.05200 Y-2.59520
X5.05200 Y-2.59620
X5.05300 Y-2.59620
X5.05300 Y-2.59720
X5.05400 Y-2.59720
X5.05400 Y-2.59820
X5.05500 Y-2.59820
X5.05500 Y-2.59920
X5.05600 Y-2.59920
X5.05600 Y-2.60020
X5.05700 Y-2.60020
X5.05700 Y-2.60120
X5.05800 Y-2.60120
X5.05800 Y-2.60220
X5.05900 Y-2.60220
X5.05900 Y-2.60320
X5.06000 Y-2.60320
X5.06000 Y-2.60420
X5.06100 Y-2.60420
X5.06100 Y-2.60520
X5.06200 Y-2.60520
X5.06200 Y-2.60620
X5.06300 Y-2.60620
X5.06300 Y-2.60720
X5.06400 Y-2.60720
X5.06400 Y-2.60820
X5.06500 Y-2.60820
X5.06500 Y-2.60920
X5.06600 Y-2.60920
X5.06600 Y-2.61020
X5.06700 Y-2.61020
X5.06700 Y-2.61120
X5.06800 Y-2.61120
X5.06800 Y-2.61220
X5.06900 Y-2.61220
X5.06900 Y-2.61320
X5.07000 Y-2.61320
X5.07000 Y-2.61420
X5.07100 Y-2.61420
X5.07100 Y-2.61520
X5.07200 Y-2.61520
X5.07200 Y-2.61620
X5.07300 Y-2.61620
X5.07300 Y-2.61720
X5.07400 Y-2.61720
X5.07400 Y-2.61820
X5.07500 Y-2.61820
X5.07500 Y-2.61920
X5.07600 Y-2.61920
X5.07600 Y-2.62020
X5.07700 Y-2.62020
X5.07700 Y-2.62120
X5.07800 Y-2.62120
X5.07800 Y-2.62220
X5.07900 Y-2.62220
X5.07900 Y-2.62320
X5.08000 Y-2.62320
X5.08000 Y-2.62420
X5.08100 Y-2.62420
X5.08100 Y-2.62520
X5.08200 Y-2.62520
X5.08200 Y-2.62620
X5.08300 Y-2.62620
X5.08300 Y-2.62720
X5.08400 Y-2.62720
X5.08400 Y-2.62820
X5.08500 Y-2.62820
X5.08500 Y-2.62920
X5.08600 Y-2.62920
X5.08600 Y-2.63020
X5.08700 Y-2.63020
X5.08700 Y-2.63120
X5.08800 Y-2.63120
X5.08800 Y-2.63220
X5.08900 Y-2.63220
X5.08900 Y-2.63320
X5.09000 Y-2.63320
X5.09000 Y-2.63420
X5.09100 Y-2.63420
X5.09100 Y-2.63520
X5.09200 Y-2.63520
X5.09200 Y-2.63620
X5.09300 Y-2.63620
X5.09300 Y-2.63720
X5.09400 Y-2.63720
X5.09400 Y-2.63820
X5.09500 Y-2.63820
X5.09500 Y-2.63920
X5.09600 Y-2.63920
X5.09600 Y-2.64020
X5.09700 Y-2.64020
X5.09700 Y-2.64120
X5.09800 Y-2.64120
X5.09800 Y-2.64220
X5.09900 Y-2.64220
X5.09900 Y-2.64320
X5.10000 Y-2.64320
X5.10000 Y-2.64420
X5.10100 Y-2.64420
X5.10100 Y-2.64520
X5.10200 Y-2.64520
X5.10200 Y-2.64620
X5.10300 Y-2.64620
X5.10300 Y-2.64720
X5.10400 Y-2.64720
X5.10400 Y-2.64820
X5.10500 Y-2.64820
X5.10500 Y-2.64920
X5.10600 Y-2.64920
X5.10600 Y-2.65020
X5.10700 Y-2.65020
X5.10700 Y-2.65120
X5.10800 Y-2.65120
X5.10800 Y-2.65220
X5.10900 Y-2.65220
X5.10900 Y-2.65320
X5.11000 Y-2.65320
X5.11000 Y-2.65420
X5.11100 Y-2.65420
X5.11100 Y-2.65520
X5.11200 Y-2.65520
X5.11200 Y-2.65620
X5.11300 Y-2.65620
X5.11300 Y-2.65720
X5.11400 Y-2.65720
X5.11400 Y-2.65820
X5.11500 Y-2.65820
X5.11500 Y-2.65920
X5.11600 Y-2.65920
X5.11600 Y-2.66020
X5.11700 Y-2.66020
X5.11700 Y-2.66120
X5.11800 Y-2.66120
X5.11800 Y-2.66220
X5.11900 Y-2.66220
X5.11900 Y-2.66320
X5.12000 Y-2.66320
X5.12000 Y-2.66420
X5.12100 Y-2.66420
X5.12100 Y-2.66520
X5.12200 Y-2.66520
X5.12200 Y-2.66620
X5.12300 Y-2.66620
X5.12300 Y-2.66720
X5.12400 Y-2.66720
X5.12400 Y-2.66820
X5.12500 Y-2.66820
X5.12500 Y-2.66920
X5.12600 Y-2.66920
X5.12600 Y-2.67020
X5.12700 Y-2.67020
X5.12700 Y-2.67120
X5.12800 Y-2.67120
X5.12800 Y-2.67220
X5.12900 Y-2.67220
X5.12900 Y-2.67320
X5.13000 Y-2.67320
X5.13000 Y-2.67420
X5.13100 Y-2.67420
X5.13100 Y-2.67520
X5.13200 Y-2.67520
X5.13200 Y-2.67620
X5.13300 Y-2.67620
X5.13300 Y-2.67720
X5.13400 Y-2.67720
X5.13400 Y-2.67820
X5.13500 Y-2.67820
X5.13500 Y-2.67920
X5.13600 Y-2.67920
X5.13600 Y-2.68020
X5.13700 Y-2.68020
X5.13700 Y-2.68120
X5.13800 Y-2.68120
X5.13800 Y-2.68220
X5.13900 Y-2.68220
X5.13900 Y-2.68320
X5.14000 Y-2.68320
X5.14000 Y-2.68420
X5.14100 Y-2.68420
X5.14100 Y-2.68520
X5.14200 Y-2.68520
X5.14200 Y-2.68620
X5.14300 Y-2.68620
X5.14300 Y-2.68720
X5.14400 Y-2.68720
X5.14400 Y-2.68820
X5.14500 Y-2.68820
X5.14500 Y-2.68920
X5.14600 Y-2.68920
X5.14600 Y-2.69020
X5.14700 Y-2.69020
X5.14700 Y-2.69120
X5.14800 Y-2.69120
X5.14800 Y-2.69220
X5.14900 Y-2.69220
X5.14900 Y-2.69320
X5.15000 Y-2.69320
X5.15000 Y-2.69420
X5.15100 Y-2.69420
X5.15100 Y-2.69520
X5.15200 Y-2.69520
X5.15200 Y-2.69620
X5.15300 Y-2.69620
X5.15300 Y-2.69720
X5.15400 Y-2.69720
X5.15400 Y-2.69820
X5.15500 Y-2.69820
X5.15500 Y-2.69920
X5.15600 Y-2.69920
X5.15600 Y-2.70020
X5.15700 Y-2.70020
X5.15700 Y-2.70120
X5.15800 Y-2.70120
X5.15800 Y-2.70220
X5.15900 Y-2.70220
X5.15900 Y-2.70320
X5.16000 Y-2.70320
X5.16000 Y-2.70420
X5.16100 Y-2.70420
X5.16100 Y-2.70520
X5.16200 Y-2.70520
X5.16200 Y-2.70620
X5.16300 Y-2.70620
X5.16300 Y-2.70720
X5.16400 Y-2.70720
X5.16400 Y-2.70820
X5.16500 Y-2.70820
X5.16500 Y-2.70920
X5.16600 Y-2.70920
X5.16600 Y-2.71020
X5.16700 Y-2.71020
X5.16700 Y-2.71120
X5.16800 Y-2.71120
X5.16800 Y-2.71220
X5.16900 Y-2.71220
X5.16900 Y-2.71320
X5.17000 Y-2.71320
X5.17000 Y-2.71420
X5.17100 Y-2.71420
X5.17100 Y-2.71520
X5.17200 Y-2.71520
X5.17200 Y-2.71620
X5.17300 Y-2.71620
X5.17300 Y-2.71720
X5.17400 Y-2.71720
X5.17400 Y-2.71820
X5.17500 Y-2.71820
X5.17500 Y-2.71920
X5.17600 Y-2.71920
X5.17600 Y-2.72020
X5.17700 Y-2.72020
X5.17700 Y-2.72120
X5.17800 Y-2.72120
X5.17800 Y-2.72220
X5.17900 Y-2.72220
X5.17900 Y-2.72320
X5.18000 Y-2.72320
X5.18000 Y-2.72420
X5.18100 Y-2.72420
X5.18100 Y-2.72520
X5.18200 Y-2.72520
X5.18200 Y-2.72620
X5.18300 Y-2.72620
X5.18300 Y-2.72720
X5.18400 Y-2.72720
X5.18400 Y-2.72820
X5.18500 Y-2.72820
X5.18500 Y-2.72920
X5.18600 Y-2.72920
X5.18600 Y-2.73020
X5.18700 Y-2.73020
X5.18700 Y-2.73220
X5.18800 Y-2.73220
X5.18800 Y-2.73520
X5.18900 Y-2.73520
X5.18900 Y-2.97520
X5.19000 Y-2.97520
X5.19000 Y-2.97620
X5.19100 Y-2.97620
X5.19100 Y-2.97720
X5.19200 Y-2.97720
X5.19200 Y-2.97820
X5.19300 Y-2.97820
X5.19300 Y-2.97920
X5.19400 Y-2.97920
X5.19400 Y-2.98020
X5.19500 Y-2.98020
X5.19500 Y-2.98120
X5.19600 Y-2.98120
X5.19600 Y-2.98220
X5.19700 Y-2.98220
X5.19700 Y-2.98320
X5.19800 Y-2.98320
X5.19800 Y-2.98420
X5.19900 Y-2.98420
X5.19900 Y-2.98520
X5.20000 Y-2.98520
X5.20000 Y-2.98620
X5.20100 Y-2.98620
X5.20100 Y-2.98720
X5.20200 Y-2.98720
X5.20200 Y-2.98820
X5.20300 Y-2.98820
X5.20300 Y-2.98920
X5.20400 Y-2.98920
X5.20400 Y-2.99020
X5.20500 Y-2.99020
X5.20500 Y-2.99120
X5.20600 Y-2.99120
X5.20600 Y-2.99220
X5.20700 Y-2.99220
X5.20700 Y-2.99320
X5.20800 Y-2.99320
X5.20800 Y-2.99420
X5.20900 Y-2.99420
X5.20900 Y-2.99520
X5.21000 Y-2.99520
X5.21000 Y-2.99620
X5.21100 Y-2.99620
X5.21100 Y-2.99720
X5.21200 Y-2.99720
X5.21200 Y-2.99820
X5.21300 Y-2.99820
X5.21300 Y-2.99920
X5.21400 Y-2.99920
X5.21400 Y-3.00020
X5.21500 Y-3.00020
X5.21500 Y-3.00120
X5.21600 Y-3.00120
X5.21600 Y-3.00220
X5.21700 Y-3.00220
X5.21700 Y-3.00320
X5.21800 Y-3.00320
X5.21800 Y-3.00420
X5.21900 Y-3.00420
X5.21900 Y-3.00520
X5.22000 Y-3.00520
X5.22000 Y-3.00620
X5.22100 Y-3.00620
X5.22100 Y-3.00720
X5.22200 Y-3.00720
X5.22200 Y-3.00820
X5.22300 Y-3.00820
X5.22300 Y-3.00920
X5.22400 Y-3.00920
X5.22400 Y-3.01020
X5.22500 Y-3.01020
X5.22500 Y-3.01120
X5.22600 Y-3.01120
X5.22600 Y-3.01220
X5.22700 Y-3.01220
X5.22700 Y-3.01320
X5.22800 Y-3.01320
X5.22800 Y-3.01420
X5.22900 Y-3.01420
X5.22900 Y-3.01520
X5.23000 Y-3.01520
X5.23000 Y-3.01620
X5.23100 Y-3.01620
X5.23100 Y-3.01720
X5.23200 Y-3.01720
X5.23200 Y-3.01820
X5.23300 Y-3.01820
X5.23300 Y-3.01920
X5.23400 Y-3.01920
X5.23400 Y-3.02020
X5.23500 Y-3.02020
X5.23500 Y-3.02120
X5.23600 Y-3.02120
X5.23600 Y-3.02220
X5.23700 Y-3.02220
X5.23700 Y-3.02320
X5.23800 Y-3.02320
X5.23800 Y-3.02420
X5.23900 Y-3.02420
X5.23900 Y-3.02520
X5.24000 Y-3.02520
X5.24000 Y-3.02620
X5.24100 Y-3.02620
X5.24100 Y-3.02720
X5.24200 Y-3.02720
X5.24200 Y-3.02820
X5.24300 Y-3.02820
X5.24300 Y-3.02920
X5.24400 Y-3.02920
X5.24400 Y-3.03020
X5.24500 Y-3.03020
X5.24500 Y-3.03120
X5.24600 Y-3.03120
X5.24600 Y-3.03220
X5.24700 Y-3.03220
X5.24700 Y-3.03320
X5.24800 Y-3.03320
X5.24800 Y-3.03420
X5.24900 Y-3.03420
X5.24900 Y-3.03520
X5.25000 Y-3.03520
X5.25000 Y-3.03620
X5.25100 Y-3.03620
X5.25100 Y-3.03720
X5.25200 Y-3.03720
X5.25200 Y-3.03820
X5.25300 Y-3.03820
X5.25300 Y-3.03920
X5.25400 Y-3.03920
X5.25400 Y-3.04020
X5.25500 Y-3.04020
X5.25500 Y-3.04120
X5.25600 Y-3.04120
X5.25600 Y-3.04220
X5.25700 Y-3.04220
X5.25700 Y-3.04320
X5.25800 Y-3.04320
X5.25800 Y-3.04420
X5.25900 Y-3.04420
X5.25900 Y-3.04520
X5.26000 Y-3.04520
X5.26000 Y-3.04620
X5.26100 Y-3.04620
X5.26100 Y-3.04720
X5.26200 Y-3.04720
X5.26200 Y-3.04820
X5.26300 Y-3.04820
X5.26300 Y-3.04920
X5.26400 Y-3.04920
X5.26400 Y-3.05020
X5.26500 Y-3.05020
X5.26500 Y-3.05120
X5.26600 Y-3.05120
X5.26600 Y-3.05220
X5.26700 Y-3.05220
X5.26700 Y-3.05320
X5.26800 Y-3.05320
X5.26800 Y-3.05420
X5.26900 Y-3.05420
X5.26900 Y-3.05520
X5.27000 Y-3.05520
X5.27000 Y-3.05620
X5.27100 Y-3.05620
X5.27100 Y-3.05720
X5.27200 Y-3.05720
X5.27200 Y-3.05820
X5.27300 Y-3.05820
X5.27300 Y-3.05920
X5.27400 Y-3.05920
X5.27400 Y-3.06020
X5.27500 Y-3.06020
X5.27500 Y-3.06120
X5.27600 Y-3.06120
X5.27600 Y-3.06220
X5.27700 Y-3.06220
X5.27700 Y-3.06320
X5.27800 Y-3.06320
X5.27800 Y-3.06420
X5.27900 Y-3.06420
X5.27900 Y-3.06520
X5.28000 Y-3.06520
X5.28000 Y-3.06620
X5.28100 Y-3.06620
X5.28100 Y-3.06720
X5.28200 Y-3.06720
X5.28200 Y-3.06820
X5.28300 Y-3.06820
X5.28300 Y-3.06920
X5.28400 Y-3.06920
X5.28400 Y-3.07020
X5.28500 Y-3.07020
X5.28500 Y-3.07120
X5.28600 Y-3.07120
X5.28600 Y-3.07220
X5.28700 Y-3.07220
X5.28700 Y-3.07320
X5.28800 Y-3.07320
X5.28800 Y-3.07420
X5.28900 Y-3.07420
X5.28900 Y-3.07520
X5.29000 Y-3.07520
X5.29000 Y-3.07620
X5.29100 Y-3.07620
X5.29100 Y-3.07720
X5.29200 Y-3.07720
X5.29200 Y-3.07820
X5.29300 Y-3.07820
X5.29300 Y-3.07920
X5.29400 Y-3.07920
X5.29400 Y-3.08020
X5.29500 Y-3.08020
X5.29500 Y-3.08120
X5.29600 Y-3.08120
X5.29600 Y-3.08220
X5.29700 Y-3.08220
X5.29700 Y-3.08320
X5.29800 Y-3.08320
X5.29800 Y-3.08420
X5.29900 Y-3.08420
X5.29900 Y-3.08520
X5.30000 Y-3.08520
X5.30000 Y-3.08620
X5.30100 Y-3.08620
X5.30100 Y-3.08720
X5.30200 Y-3.08720
X5.30200 Y-3.08820
X5.30300 Y-3.08820
X5.30300 Y-3.09020
X5.57800 Y-3.09020
X5.57800 Y-3.09120
X5.58000 Y-3.09120
X5.58000 Y-3.09220
X5.58200 Y-3.09220
X5.58200 Y-3.09320
X5.58300 Y-3.09320
X5.58300 Y-3.09420
X5.58500 Y-3.09420
X5.58500 Y-3.09520
X5.58600 Y-3.09520
X5.58600 Y-3.09620
X5.58700 Y-3.09620
X5.58700 Y-3.09720
X5.58800 Y-3.09720
X5.58800 Y-3.09820
X5.58900 Y-3.09820
X5.58900 Y-3.09920
X5.59000 Y-3.09920
X5.59000 Y-3.10020
X5.59100 Y-3.10020
X5.59100 Y-3.10120
X5.59200 Y-3.10120
X5.59200 Y-3.10220
X5.59300 Y-3.10220
X5.59300 Y-3.10320
X5.59400 Y-3.10320
X5.59400 Y-3.10420
X5.59600 Y-3.10420
X5.59600 Y-3.10520
X5.59700 Y-3.10520
X5.59700 Y-3.10620
X5.59800 Y-3.10620
X5.59800 Y-3.10720
X5.59900 Y-3.10720
X5.59900 Y-3.10820
X5.60000 Y-3.10820
X5.60000 Y-3.10920
X5.60100 Y-3.10920
X5.60100 Y-3.11020
X5.60200 Y-3.11020
X5.60200 Y-3.11120
X5.60300 Y-3.11120
X5.60300 Y-3.11220
X5.60400 Y-3.11220
X5.60400 Y-3.11320
X5.60500 Y-3.11320
X5.60500 Y-3.11420
X5.60600 Y-3.11420
X5.60600 Y-3.11520
X5.60800 Y-3.11520
X5.60800 Y-3.11620
X5.60900 Y-3.11620
X5.60900 Y-3.11720
X5.61000 Y-3.11720
X5.61000 Y-3.11820
X5.61100 Y-3.11820
X5.61100 Y-3.11920
X5.61200 Y-3.11920
X5.61200 Y-3.12020
X5.61300 Y-3.12020
X5.61300 Y-3.12120
X5.61400 Y-3.12120
X5.61400 Y-3.12220
X5.61500 Y-3.12220
X5.61500 Y-3.12320
X5.61600 Y-3.12320
X5.61600 Y-3.12420
X5.61700 Y-3.12420
X5.61700 Y-3.12520
X5.61900 Y-3.12520
X5.61900 Y-3.12620
X5.62000 Y-3.12620
X5.62000 Y-3.12720
X5.62100 Y-3.12720
X5.62100 Y-3.12820
X5.62200 Y-3.12820
X5.62200 Y-3.12920
X5.62300 Y-3.12920
X5.62300 Y-3.13020
X5.62400 Y-3.13020
X5.62400 Y-3.13120
X5.62500 Y-3.13120
X5.62500 Y-3.13220
X5.62600 Y-3.13220
X5.62600 Y-3.13320
X5.62700 Y-3.13320
X5.62700 Y-3.13420
X5.62800 Y-3.13420
X5.62800 Y-3.13520
X5.62900 Y-3.13520
X5.62900 Y-3.13620
X5.63100 Y-3.13620
X5.63100 Y-3.13720
X5.63200 Y-3.13720
X5.63200 Y-3.13820
X5.63300 Y-3.13820
X5.63300 Y-3.13920
X5.63400 Y-3.13920
X5.63400 Y-3.14020
X5.63500 Y-3.14020
X5.63500 Y-3.14120
X5.63600 Y-3.14120
X5.63600 Y-3.14220
X5.63700 Y-3.14220
X5.63700 Y-3.14320
X5.63800 Y-3.14320
X5.63800 Y-3.14420
X5.63900 Y-3.14420
X5.63900 Y-3.14520
X5.64000 Y-3.14520
X5.64000 Y-3.14620
X5.64200 Y-3.14620
X5.64200 Y-3.14720
X5.64300 Y-3.14720
X5.64300 Y-3.14820
X5.64400 Y-3.14820
X5.64400 Y-3.14920
X5.64500 Y-3.14920
X5.64500 Y-3.15020
X5.64600 Y-3.15020
X5.64600 Y-3.15120
X5.64700 Y-3.15120
X5.64700 Y-3.15220
X5.64800 Y-3.15220
X5.64800 Y-3.15320
X5.64900 Y-3.15320
X5.64900 Y-3.15420
X5.65000 Y-3.15420
X5.65000 Y-3.15520
X5.65100 Y-3.15520
X5.65100 Y-3.15620
X5.65200 Y-3.15620
X5.65200 Y-3.15720
X5.65400 Y-3.15720
X5.65400 Y-3.15820
X5.65500 Y-3.15820
X5.65500 Y-3.15920
X5.65600 Y-3.15920
X5.65600 Y-3.16020
X5.65700 Y-3.16020
X5.65700 Y-3.16120
X5.65800 Y-3.16120
X5.65800 Y-3.16220
X5.65900 Y-3.16220
X5.65900 Y-3.16320
X5.66000 Y-3.16320
X5.66000 Y-3.16420
X5.66100 Y-3.16420
X5.66100 Y-3.16520
X5.66200 Y-3.16520
X5.66200 Y-3.16620
X5.66300 Y-3.16620
X5.66300 Y-3.16720
X5.66400 Y-3.16720
X5.66400 Y-3.16820
X5.66600 Y-3.16820
X5.66600 Y-3.16920
X5.66700 Y-3.16920
X5.66700 Y-3.17020
X5.66800 Y-3.17020
X5.66800 Y-3.17120
X5.66900 Y-3.17120
X5.66900 Y-3.17220
X5.67000 Y-3.17220
X5.67000 Y-3.17320
X5.67100 Y-3.17320
X5.67100 Y-3.17420
X5.67200 Y-3.17420
X5.67200 Y-3.17520
X5.67300 Y-3.17520
X5.67300 Y-3.17620
X5.67400 Y-3.17620
X5.67400 Y-3.17720
X5.67500 Y-3.17720
X5.67500 Y-3.17820
X5.67700 Y-3.17820
X5.67700 Y-3.17920
X5.67800 Y-3.17920
X5.67800 Y-3.18020
X5.67900 Y-3.18020
X5.67900 Y-3.18120
X5.68000 Y-3.18120
X5.68000 Y-3.18220
X5.68100 Y-3.18220
X5.68100 Y-3.18320
X5.68200 Y-3.18320
X5.68200 Y-3.18420
X5.68300 Y-3.18420
X5.68300 Y-3.18520
X5.68400 Y-3.18520
X5.68400 Y-3.18620
X5.68500 Y-3.18620
X5.68500 Y-3.18720
X5.68600 Y-3.18720
X5.68600 Y-3.18820
X5.68700 Y-3.18820
X5.68700 Y-3.18920
X5.68900 Y-3.18920
X5.68900 Y-3.19020
X5.69000 Y-3.19020
X5.69000 Y-3.19120
X5.69100 Y-3.19120
X5.69100 Y-3.19220
X5.69200 Y-3.19220
X5.69200 Y-3.19320
X5.69300 Y-3.19320
X5.69300 Y-3.19420
X5.69400 Y-3.19420
X5.69400 Y-3.19520
X5.69500 Y-3.19520
X5.69500 Y-3.19620
X5.69600 Y-3.19620
X5.69600 Y-3.19720
X5.69700 Y-3.19720
X5.69700 Y-3.19820
X5.69800 Y-3.19820
X5.69800 Y-3.19920
X5.70000 Y-3.19920
X5.70000 Y-3.20020
X5.70100 Y-3.20020
X5.70100 Y-3.20120
X5.70200 Y-3.20120
X5.70200 Y-3.20220
X5.70300 Y-3.20220
X5.70300 Y-3.20320
X5.70400 Y-3.20320
X5.70400 Y-3.20420
X5.70500 Y-3.20420
X5.70500 Y-3.20520
X5.70600 Y-3.20520
X5.70600 Y-3.20620
X5.70700 Y-3.20620
X5.70700 Y-3.20720
X5.70800 Y-3.20720
X5.70800 Y-3.20920
X5.70900 Y-3.20920
X5.70900 Y-3.21220
X5.71000 Y-3.21220
X5.71000 Y-3.21520
X5.71100 Y-3.21520
X5.71100 Y-3.54520
X5.71000 Y-3.54520
X5.71000 Y-3.54820
X5.70900 Y-3.54820
X5.70900 Y-3.55120
X5.70800 Y-3.55120
X5.70800 Y-3.55320
X5.70700 Y-3.55320
X5.70700 Y-3.55420
X5.70600 Y-3.55420
X5.70600 Y-3.55520
X5.70500 Y-3.55520
X5.70500 Y-3.55620
X5.70400 Y-3.55620
X5.70400 Y-3.55720
X5.70300 Y-3.55720
X5.70300 Y-3.55820
X5.70200 Y-3.55820
X5.70200 Y-3.55920
X5.70100 Y-3.55920
X5.70100 Y-3.56020
X5.70000 Y-3.56020
X5.70000 Y-3.56120
X5.69900 Y-3.56120
X5.69900 Y-3.56220
X5.69700 Y-3.56220
X5.69700 Y-3.56320
X5.69600 Y-3.56320
X5.69600 Y-3.56420
X5.69500 Y-3.56420
X5.69500 Y-3.56520
X5.69400 Y-3.56520
X5.69400 Y-3.56620
X5.69300 Y-3.56620
X5.69300 Y-3.56720
X5.69200 Y-3.56720
X5.69200 Y-3.56820
X5.69100 Y-3.56820
X5.69100 Y-3.56920
X5.69000 Y-3.56920
X5.69000 Y-3.57020
X5.68900 Y-3.57020
X5.68900 Y-3.57120
X5.68800 Y-3.57120
X5.68800 Y-3.57220
X5.68700 Y-3.57220
X5.68700 Y-3.57320
X5.68500 Y-3.57320
X5.68500 Y-3.57420
X5.68400 Y-3.57420
X5.68400 Y-3.57520
X5.68300 Y-3.57520
X5.68300 Y-3.57620
X5.68200 Y-3.57620
X5.68200 Y-3.57720
X5.68100 Y-3.57720
X5.68100 Y-3.57820
X5.68000 Y-3.57820
X5.68000 Y-3.57920
X5.67900 Y-3.57920
X5.67900 Y-3.58020
X5.67800 Y-3.58020
X5.67800 Y-3.58120
X5.67700 Y-3.58120
X5.67700 Y-3.58220
X5.67600 Y-3.58220
X5.67600 Y-3.58320
X5.67500 Y-3.58320
X5.67500 Y-3.58420
X5.67300 Y-3.58420
X5.67300 Y-3.58520
X5.67200 Y-3.58520
X5.67200 Y-3.58620
X5.67100 Y-3.58620
X5.67100 Y-3.58720
X5.67000 Y-3.58720
X5.67000 Y-3.58820
X5.66900 Y-3.58820
X5.66900 Y-3.58920
X5.66800 Y-3.58920
X5.66800 Y-3.59020
X5.66700 Y-3.59020
X5.66700 Y-3.59120
X5.66600 Y-3.59120
X5.66600 Y-3.59220
X5.66500 Y-3.59220
X5.66500 Y-3.59320
X5.66400 Y-3.59320
X5.66400 Y-3.59420
X5.66300 Y-3.59420
X5.66300 Y-3.59520
X5.66100 Y-3.59520
X5.66100 Y-3.59620
X5.66000 Y-3.59620
X5.66000 Y-3.59720
X5.65900 Y-3.59720
X5.65900 Y-3.59820
X5.65800 Y-3.59820
X5.65800 Y-3.59920
X5.65700 Y-3.59920
X5.65700 Y-3.60020
X5.65600 Y-3.60020
X5.65600 Y-3.60120
X5.65500 Y-3.60120
X5.65500 Y-3.60220
X5.65400 Y-3.60220
X5.65400 Y-3.60320
X5.65300 Y-3.60320
X5.65300 Y-3.60420
X5.65200 Y-3.60420
X5.65200 Y-3.60520
X5.65100 Y-3.60520
X5.65100 Y-3.60620
X5.64900 Y-3.60620
X5.64900 Y-3.60720
X5.64800 Y-3.60720
X5.64800 Y-3.60820
X5.64700 Y-3.60820
X5.64700 Y-3.60920
X5.64600 Y-3.60920
X5.64600 Y-3.61020
X5.64500 Y-3.61020
X5.64500 Y-3.61120
X5.64400 Y-3.61120
X5.64400 Y-3.61220
X5.64300 Y-3.61220
X5.64300 Y-3.61320
X5.64200 Y-3.61320
X5.64200 Y-3.61420
X5.64100 Y-3.61420
X5.64100 Y-3.61520
X5.64000 Y-3.61520
X5.64000 Y-3.61620
X5.63800 Y-3.61620
X5.63800 Y-3.61720
X5.63700 Y-3.61720
X5.63700 Y-3.61820
X5.63600 Y-3.61820
X5.63600 Y-3.61920
X5.63500 Y-3.61920
X5.63500 Y-3.62020
X5.63400 Y-3.62020
X5.63400 Y-3.62120
X5.63300 Y-3.62120
X5.63300 Y-3.62220
X5.63200 Y-3.62220
X5.63200 Y-3.62320
X5.63100 Y-3.62320
X5.63100 Y-3.62420
X5.63000 Y-3.62420
X5.63000 Y-3.62520
X5.62900 Y-3.62520
X5.62900 Y-3.62620
X5.62800 Y-3.62620
X5.62800 Y-3.62720
X5.62600 Y-3.62720
X5.62600 Y-3.62820
X5.62500 Y-3.62820
X5.62500 Y-3.62920
X5.62400 Y-3.62920
X5.62400 Y-3.63020
X5.62300 Y-3.63020
X5.62300 Y-3.63120
X5.62200 Y-3.63120
X5.62200 Y-3.63220
X5.62100 Y-3.63220
X5.62100 Y-3.63320
X5.62000 Y-3.63320
X5.62000 Y-3.63420
X5.61900 Y-3.63420
X5.61900 Y-3.63520
X5.61800 Y-3.63520
X5.61800 Y-3.63620
X5.61700 Y-3.63620
X5.61700 Y-3.63720
X5.61600 Y-3.63720
X5.61600 Y-3.63820
X5.61400 Y-3.63820
X5.61400 Y-3.63920
X5.61300 Y-3.63920
X5.61300 Y-3.64020
X5.61200 Y-3.64020
X5.61200 Y-3.64120
X5.61100 Y-3.64120
X5.61100 Y-3.64220
X5.61000 Y-3.64220
X5.61000 Y-3.64320
X5.60900 Y-3.64320
X5.60900 Y-3.64420
X5.60800 Y-3.64420
X5.60800 Y-3.64520
X5.60700 Y-3.64520
X5.60700 Y-3.64620
X5.60600 Y-3.64620
X5.60600 Y-3.64720
X5.60500 Y-3.64720
X5.60500 Y-3.64820
X5.60400 Y-3.64820
X5.60400 Y-3.64920
X5.60200 Y-3.64920
X5.60200 Y-3.65020
X5.60100 Y-3.65020
X5.60100 Y-3.65120
X5.60000 Y-3.65120
X5.60000 Y-3.65220
X5.59900 Y-3.65220
X5.59900 Y-3.65320
X5.59800 Y-3.65320
X5.59800 Y-3.65420
X5.59900 Y-3.65420
X5.59900 Y-3.65520
X5.60000 Y-3.65520
X5.60000 Y-3.65620
X5.60100 Y-3.65620
X5.60100 Y-3.65720
X5.60200 Y-3.65720
X5.60200 Y-3.65820
X5.60300 Y-3.65820
X5.60300 Y-3.65920
X5.60400 Y-3.65920
X5.60400 Y-3.66020
X5.60500 Y-3.66020
X5.60500 Y-3.66120
X5.60600 Y-3.66120
X5.60600 Y-3.66220
X5.60700 Y-3.66220
X5.60700 Y-3.66320
X5.60800 Y-3.66320
X5.60800 Y-3.66420
X5.60900 Y-3.66420
X5.60900 Y-3.66520
X5.61000 Y-3.66520
X5.61000 Y-3.66620
X5.61100 Y-3.66620
X5.61100 Y-3.66720
X5.61200 Y-3.66720
X5.61200 Y-3.66820
X5.61300 Y-3.66820
X5.61300 Y-3.66920
X5.61400 Y-3.66920
X5.61400 Y-3.67020
X5.61500 Y-3.67020
X5.61500 Y-3.67120
X5.61600 Y-3.67120
X5.61600 Y-3.67220
X5.61700 Y-3.67220
X5.61700 Y-3.67320
X5.61800 Y-3.67320
X5.61800 Y-3.67420
X5.61900 Y-3.67420
X5.61900 Y-3.67520
X5.62000 Y-3.67520
X5.62000 Y-3.67620
X5.62100 Y-3.67620
X5.62100 Y-3.67720
X5.62200 Y-3.67720
X5.62200 Y-3.67820
X5.62300 Y-3.67820
X5.62300 Y-3.67920
X5.62400 Y-3.67920
X5.62400 Y-3.68020
X5.62500 Y-3.68020
X5.62500 Y-3.68120
X5.62600 Y-3.68120
X5.62600 Y-3.68220
X5.62700 Y-3.68220
X5.62700 Y-3.68320
X5.62800 Y-3.68320
X5.62800 Y-3.68420
X5.62900 Y-3.68420
X5.62900 Y-3.68520
X5.63000 Y-3.68520
X5.63000 Y-3.68620
X5.63100 Y-3.68620
X5.63100 Y-3.68720
X5.63200 Y-3.68720
X5.63200 Y-3.68820
X5.63300 Y-3.68820
X5.63300 Y-3.68920
X5.63400 Y-3.68920
X5.63400 Y-3.69020
X5.63500 Y-3.69020
X5.63500 Y-3.69120
X5.63600 Y-3.69120
X5.63600 Y-3.69220
X5.63700 Y-3.69220
X5.63700 Y-3.69320
X5.63800 Y-3.69320
X5.63800 Y-3.69420
X5.63900 Y-3.69420
X5.63900 Y-3.69520
X5.64000 Y-3.69520
X5.64000 Y-3.69620
X5.64100 Y-3.69620
X5.64100 Y-3.69720
X5.64200 Y-3.69720
X5.64200 Y-3.69820
X5.64300 Y-3.69820
X5.64300 Y-3.69920
X5.64400 Y-3.69920
X5.64400 Y-3.70020
X5.64500 Y-3.70020
X5.64500 Y-3.70120
X5.64600 Y-3.70120
X5.64600 Y-3.70220
X5.64700 Y-3.70220
X5.64700 Y-3.70320
X5.64800 Y-3.70320
X5.64800 Y-3.70420
X5.64900 Y-3.70420
X5.64900 Y-3.70520
X5.65000 Y-3.70520
X5.65000 Y-3.70620
X5.65100 Y-3.70620
X5.65100 Y-3.70720
X5.65200 Y-3.70720
X5.65200 Y-3.70820
X5.65300 Y-3.70820
X5.65300 Y-3.70920
X5.65400 Y-3.70920
X5.65400 Y-3.71020
X5.65500 Y-3.71020
X5.65500 Y-3.71120
X5.65600 Y-3.71120
X5.65600 Y-3.71220
X5.65700 Y-3.71220
X5.65700 Y-3.71320
X5.65800 Y-3.71320
X5.65800 Y-3.71420
X5.65900 Y-3.71420
X5.65900 Y-3.71520
X5.66000 Y-3.71520
X5.66000 Y-3.71620
X5.66100 Y-3.71620
X5.66100 Y-3.71720
X5.66200 Y-3.71720
X5.66200 Y-3.71820
X5.66300 Y-3.71820
X5.66300 Y-3.71920
X5.66400 Y-3.71920
X5.66400 Y-3.72020
X5.66500 Y-3.72020
X5.66500 Y-3.72120
X5.66600 Y-3.72120
X5.66600 Y-3.72220
X5.66700 Y-3.72220
X5.66700 Y-3.72320
X5.66800 Y-3.72320
X5.66800 Y-3.72420
X5.66900 Y-3.72420
X5.66900 Y-3.72520
X5.67000 Y-3.72520
X5.67000 Y-3.72620
X5.67100 Y-3.72620
X5.67100 Y-3.72720
X5.67200 Y-3.72720
X5.67200 Y-3.72820
X5.67300 Y-3.72820
X5.67300 Y-3.72920
X5.67400 Y-3.72920
X5.67400 Y-3.73020
X5.67500 Y-3.73020
X5.67500 Y-3.73120
X5.67600 Y-3.73120
X5.67600 Y-3.73220
X5.67700 Y-3.73220
X5.67700 Y-3.73320
X5.67800 Y-3.73320
X5.67800 Y-3.73420
X5.67900 Y-3.73420
X5.67900 Y-3.73520
X5.68000 Y-3.73520
X5.68000 Y-3.73620
X5.68100 Y-3.73620
X5.68100 Y-3.73720
X5.68200 Y-3.73720
X5.68200 Y-3.73820
X5.68300 Y-3.73820
X5.68300 Y-3.73920
X5.68400 Y-3.73920
X5.68400 Y-3.74020
X5.68500 Y-3.74020
X5.68500 Y-3.74120
X5.68600 Y-3.74120
X5.68600 Y-3.74220
X5.68700 Y-3.74220
X5.68700 Y-3.74320
X5.68800 Y-3.74320
X5.68800 Y-3.74420
X5.68900 Y-3.74420
X5.68900 Y-3.74520
X5.69000 Y-3.74520
X5.69000 Y-3.74620
X5.69100 Y-3.74620
X5.69100 Y-3.74720
X5.69200 Y-3.74720
X5.69200 Y-3.74820
X5.69300 Y-3.74820
X5.69300 Y-3.74920
X5.69400 Y-3.74920
X5.69400 Y-3.75020
X5.69500 Y-3.75020
X5.69500 Y-3.75120
X5.69600 Y-3.75120
X5.69600 Y-3.75220
X5.69700 Y-3.75220
X5.69700 Y-3.75320
X5.69800 Y-3.75320
X5.69800 Y-3.75420
X5.69900 Y-3.75420
X5.69900 Y-3.75520
X5.70000 Y-3.75520
X5.70000 Y-3.75620
X5.70100 Y-3.75620
X5.70100 Y-3.75720
X5.70200 Y-3.75720
X5.70200 Y-3.75920
X5.70300 Y-3.75920
X5.70300 Y-3.76220
X5.70400 Y-3.76220
X5.70400 Y-3.77020
X5.70500 Y-3.77020
X5.70500 Y-3.83020
X5.70600 Y-3.83020
X5.70600 Y-3.89020
X5.70700 Y-3.89020
X5.70700 Y-3.95020
X5.70800 Y-3.95020
X5.70800 Y-4.01020
X5.70900 Y-4.01020
X5.70900 Y-4.07020
X5.71000 Y-4.07020
X5.71000 Y-4.13020
X5.71100 Y-4.13020
X5.71100 Y-4.14520
X5.71000 Y-4.14520
X5.71000 Y-4.70720
X5.70900 Y-4.70720
X5.70900 Y-4.78120
X5.70800 Y-4.78120
X5.70800 Y-4.85520
X5.70700 Y-4.85520
X5.70700 Y-4.93020
X5.70600 Y-4.93020
X5.70600 Y-5.00420
X5.70500 Y-5.00420
X5.70500 Y-5.07820
X5.70400 Y-5.07820
X5.70400 Y-5.15320
X5.70300 Y-5.15320
X5.70300 Y-5.16120
X5.70200 Y-5.16120
X5.70200 Y-5.16420
X5.70100 Y-5.16420
X5.70100 Y-5.16720
X5.70000 Y-5.16720
X5.70000 Y-5.16820
X5.69900 Y-5.16820
X5.69900 Y-5.16920
X5.69800 Y-5.16920
X5.69800 Y-5.17020
X5.69700 Y-5.17020
X5.69700 Y-5.17120
X5.69600 Y-5.17120
X5.69600 Y-5.17220
X5.69500 Y-5.17220
X5.69500 Y-5.17320
X5.69400 Y-5.17320
X5.69400 Y-5.17420
X5.69300 Y-5.17420
X5.69300 Y-5.17520
X5.69200 Y-5.17520
X5.69200 Y-5.17620
X5.69100 Y-5.17620
X5.69100 Y-5.17720
X5.69000 Y-5.17720
X5.69000 Y-5.17820
X5.68900 Y-5.17820
X5.68900 Y-5.17920
X5.68800 Y-5.17920
X5.68800 Y-5.18020
X5.68700 Y-5.18020
X5.68700 Y-5.18120
X5.68600 Y-5.18120
X5.68600 Y-5.18220
X5.68500 Y-5.18220
X5.68500 Y-5.18320
X5.68400 Y-5.18320
X5.68400 Y-5.18420
X5.68300 Y-5.18420
X5.68300 Y-5.18520
X5.68200 Y-5.18520
X5.68200 Y-5.18620
X5.68100 Y-5.18620
X5.68100 Y-5.18720
X5.68000 Y-5.18720
X5.68000 Y-5.18820
X5.67900 Y-5.18820
X5.67900 Y-5.18920
X5.67800 Y-5.18920
X5.67800 Y-5.19020
X5.67700 Y-5.19020
X5.67700 Y-5.19120
X5.67600 Y-5.19120
X5.67600 Y-5.19220
X5.67500 Y-5.19220
X5.67500 Y-5.19320
X5.67400 Y-5.19320
X5.67400 Y-5.19420
X5.67300 Y-5.19420
X5.67300 Y-5.19520
X5.67200 Y-5.19520
X5.67200 Y-5.19620
X5.67100 Y-5.19620
X5.67100 Y-5.19720
X5.67000 Y-5.19720
X5.67000 Y-5.19820
X5.66900 Y-5.19820
X5.66900 Y-5.19920
X5.66800 Y-5.19920
X5.66800 Y-5.20020
X5.66700 Y-5.20020
X5.66700 Y-5.20120
X5.66600 Y-5.20120
X5.66600 Y-5.20220
X5.66500 Y-5.20220
X5.66500 Y-5.20320
X5.66400 Y-5.20320
X5.66400 Y-5.20420
X5.66300 Y-5.20420
X5.66300 Y-5.20520
X5.66200 Y-5.20520
X5.66200 Y-5.20620
X5.66100 Y-5.20620
X5.66100 Y-5.20720
X5.66000 Y-5.20720
X5.66000 Y-5.20820
X5.65900 Y-5.20820
X5.65900 Y-5.20920
X5.65800 Y-5.20920
X5.65800 Y-5.21020
X5.65700 Y-5.21020
X5.65700 Y-5.21120
X5.65600 Y-5.21120
X5.65600 Y-5.21220
X5.65500 Y-5.21220
X5.65500 Y-5.21320
X5.65400 Y-5.21320
X5.65400 Y-5.21420
X5.65300 Y-5.21420
X5.65300 Y-5.21520
X5.65200 Y-5.21520
X5.65200 Y-5.21620
X5.65100 Y-5.21620
X5.65100 Y-5.21720
X5.65000 Y-5.21720
X5.65000 Y-5.21820
X5.64900 Y-5.21820
X5.64900 Y-5.21920
X5.64800 Y-5.21920
X5.64800 Y-5.22020
X5.64700 Y-5.22020
X5.64700 Y-5.22120
X5.64600 Y-5.22120
X5.64600 Y-5.22220
X5.64500 Y-5.22220
X5.64500 Y-5.22320
X5.64400 Y-5.22320
X5.64400 Y-5.22420
X5.64300 Y-5.22420
X5.64300 Y-5.22520
X5.64200 Y-5.22520
X5.64200 Y-5.22620
X5.64100 Y-5.22620
X5.64100 Y-5.22720
X5.64000 Y-5.22720
X5.64000 Y-5.22820
X5.63900 Y-5.22820
X5.63900 Y-5.22920
X5.63800 Y-5.22920
X5.63800 Y-5.23020
X5.63700 Y-5.23020
X5.63700 Y-5.23120
X5.63600 Y-5.23120
X5.63600 Y-5.23220
X5.63500 Y-5.23220
X5.63500 Y-5.23320
X5.63400 Y-5.23320
X5.63400 Y-5.23420
X5.63300 Y-5.23420
X5.63300 Y-5.23520
X5.63200 Y-5.23520
X5.63200 Y-5.23620
X5.63100 Y-5.23620
X5.63100 Y-5.23720
X5.63000 Y-5.23720
X5.63000 Y-5.23820
X5.62900 Y-5.23820
X5.62900 Y-5.23920
X5.62800 Y-5.23920
X5.62800 Y-5.24020
X5.62700 Y-5.24020
X5.62700 Y-5.24120
X5.62600 Y-5.24120
X5.62600 Y-5.24220
X5.62500 Y-5.24220
X5.62500 Y-5.24320
X5.62400 Y-5.24320
X5.62400 Y-5.24420
X5.62300 Y-5.24420
X5.62300 Y-5.24520
X5.62200 Y-5.24520
X5.62200 Y-5.24620
X5.62100 Y-5.24620
X5.62100 Y-5.24720
X5.62000 Y-5.24720
X5.62000 Y-5.24820
X5.61900 Y-5.24820
X5.61900 Y-5.24920
X5.61800 Y-5.24920
X5.61800 Y-5.25020
X5.61700 Y-5.25020
X5.61700 Y-5.25120
X5.61600 Y-5.25120
X5.61600 Y-5.25220
X5.61500 Y-5.25220
X5.61500 Y-5.25320
X5.61400 Y-5.25320
X5.61400 Y-5.25420
X5.61300 Y-5.25420
X5.61300 Y-5.25520
X5.61200 Y-5.25520
X5.61200 Y-5.25620
X5.61100 Y-5.25620
X5.61100 Y-5.25720
X5.61000 Y-5.25720
X5.61000 Y-5.25820
X5.60900 Y-5.25820
X5.60900 Y-5.25920
X5.60800 Y-5.25920
X5.60800 Y-5.26020
X5.60700 Y-5.26020
X5.60700 Y-5.26120
X5.60600 Y-5.26120
X5.60600 Y-5.26220
X5.60500 Y-5.26220
X5.60500 Y-5.26320
X5.60400 Y-5.26320
X5.60400 Y-5.26420
X5.60300 Y-5.26420
X5.60300 Y-5.26520
X5.60200 Y-5.26520
X5.60200 Y-5.26620
X5.60100 Y-5.26620
X5.60100 Y-5.26720
X5.60000 Y-5.26720
X5.60000 Y-5.26820
X5.59900 Y-5.26820
X5.59900 Y-5.26920
X5.59800 Y-5.26920
X5.59800 Y-5.27020
X5.59700 Y-5.27020
X5.59700 Y-5.27120
X5.59600 Y-5.27120
X5.59600 Y-5.27220
X5.59500 Y-5.27220
X5.59500 Y-5.27320
X5.59400 Y-5.27320
X5.59400 Y-5.27420
X5.59300 Y-5.27420
X5.59300 Y-5.27520
X5.59200 Y-5.27520
X5.59200 Y-5.27620
X5.59100 Y-5.27620
X5.59100 Y-5.27720
X5.59000 Y-5.27720
X5.59000 Y-5.27820
X5.58900 Y-5.27820
X5.58900 Y-5.27920
X5.58800 Y-5.27920
X5.58800 Y-5.28020
X5.58700 Y-5.28020
X5.58700 Y-5.28120
X5.58600 Y-5.28120
X5.58600 Y-5.28220
X5.58500 Y-5.28220
X5.58500 Y-5.28320
X5.58400 Y-5.28320
X5.58400 Y-5.28420
X5.58300 Y-5.28420
X5.58300 Y-5.28520
X5.58200 Y-5.28520
X5.58200 Y-5.28620
X5.58100 Y-5.28620
X5.58100 Y-5.28720
X5.58000 Y-5.28720
X5.58000 Y-5.28820
X5.57900 Y-5.28820
X5.57900 Y-5.28920
X5.57800 Y-5.28920
X5.57800 Y-5.29020
X5.57700 Y-5.29020
X5.57700 Y-5.29120
X5.57600 Y-5.29120
X5.57600 Y-5.29220
X5.57500 Y-5.29220
X5.57500 Y-5.29320
X5.57400 Y-5.29320
X5.57400 Y-5.29420
X5.57300 Y-5.29420
X5.57300 Y-5.29520
X5.57200 Y-5.29520
X5.57200 Y-5.29620
X5.57100 Y-5.29620
X5.57100 Y-5.29720
X5.57000 Y-5.29720
X5.57000 Y-5.29820
X5.56900 Y-5.29820
X5.56900 Y-5.29920
X5.56800 Y-5.29920
X5.56800 Y-5.30020
X5.56700 Y-5.30020
X5.56700 Y-5.30120
X5.56600 Y-5.30120
X5.56600 Y-5.30220
X5.56500 Y-5.30220
X5.56500 Y-5.30320
X5.56400 Y-5.30320
X5.56400 Y-5.30420
X5.56300 Y-5.30420
X5.56300 Y-5.30520
X5.56200 Y-5.30520
X5.56200 Y-5.30620
X5.56100 Y-5.30620
X5.56100 Y-5.30720
X5.56000 Y-5.30720
X5.56000 Y-5.30820
X5.55900 Y-5.30820
X5.55900 Y-5.30920
X5.55800 Y-5.30920
X5.55800 Y-5.31020
X5.55700 Y-5.31020
X5.55700 Y-5.31120
X5.55600 Y-5.31120
X5.55600 Y-5.31220
X5.55500 Y-5.31220
X5.55500 Y-5.31320
X5.55400 Y-5.31320
X5.55400 Y-5.31420
X5.55300 Y-5.31420
X5.55300 Y-5.31520
X5.55200 Y-5.31520
X5.55200 Y-5.31620
X5.55100 Y-5.31620
X5.55100 Y-5.31720
X5.55000 Y-5.31720
X5.55000 Y-5.31820
X5.54900 Y-5.31820
X5.54900 Y-5.31920
X5.54800 Y-5.31920
X5.54800 Y-5.32020
X5.54700 Y-5.32020
X5.54700 Y-5.32120
X5.54600 Y-5.32120
X5.54600 Y-5.32220
X5.54500 Y-5.32220
X5.54500 Y-5.32320
X5.54400 Y-5.32320
X5.54400 Y-5.32420
X5.54300 Y-5.32420
X5.54300 Y-5.32520
X5.54200 Y-5.32520
X5.54200 Y-5.32620
X5.54100 Y-5.32620
X5.54100 Y-5.32720
X5.54000 Y-5.32720
X5.54000 Y-5.32820
X5.53900 Y-5.32820
X5.53900 Y-5.32920
X5.53800 Y-5.32920
X5.53800 Y-5.33020
X5.53700 Y-5.33020
X5.53700 Y-5.33120
X5.53600 Y-5.33120
X5.53600 Y-5.33220
X5.53500 Y-5.33220
X5.53500 Y-5.33320
X5.53400 Y-5.33320
X5.53400 Y-5.33420
X5.53300 Y-5.33420
X5.53300 Y-5.33520
X5.53200 Y-5.33520
X5.53200 Y-5.33620
X5.53100 Y-5.33620
X5.53100 Y-5.33720
X5.53000 Y-5.33720
X5.53000 Y-5.33820
X5.52900 Y-5.33820
X5.52900 Y-5.33920
X5.52800 Y-5.33920
X5.52800 Y-5.34020
X5.52700 Y-5.34020
X5.52700 Y-5.34120
X5.52600 Y-5.34120
X5.52600 Y-5.34220
X5.52500 Y-5.34220
X5.52500 Y-5.34320
X5.52400 Y-5.34320
X5.52400 Y-5.34420
X5.52300 Y-5.34420
X5.52300 Y-5.34520
X5.52200 Y-5.34520
X5.52200 Y-5.34620
X5.52100 Y-5.34620
X5.52100 Y-5.34720
X5.52000 Y-5.34720
X5.52000 Y-5.34820
X5.51900 Y-5.34820
X5.51900 Y-5.34920
X5.51800 Y-5.34920
X5.51800 Y-5.35020
X5.51700 Y-5.35020
X5.51700 Y-5.35120
X5.51600 Y-5.35120
X5.51600 Y-5.35220
X5.51500 Y-5.35220
X5.51500 Y-5.35320
X5.51400 Y-5.35320
X5.51400 Y-5.35420
X5.51300 Y-5.35420
X5.51300 Y-5.35520
X5.51200 Y-5.35520
X5.51200 Y-5.35620
X5.51100 Y-5.35620
X5.51100 Y-5.35720
X5.51000 Y-5.35720
X5.51000 Y-5.35820
X5.50900 Y-5.35820
X5.50900 Y-5.35920
X5.50800 Y-5.35920
X5.50800 Y-5.36020
X5.50700 Y-5.36020
X5.50700 Y-5.36120
X5.50600 Y-5.36120
X5.50600 Y-5.36220
X5.50500 Y-5.36220
X5.50500 Y-5.36320
X5.50400 Y-5.36320
X5.50400 Y-5.36420
X5.50300 Y-5.36420
X5.50300 Y-5.36520
X5.50200 Y-5.36520
X5.50200 Y-5.36620
X5.50100 Y-5.36620
X5.50100 Y-5.36720
X5.50000 Y-5.36720
X5.50000 Y-5.36820
X5.49900 Y-5.36820
X5.49900 Y-5.36920
X5.49800 Y-5.36920
X5.49800 Y-5.37020
X5.49700 Y-5.37020
X5.49700 Y-5.37120
X5.49600 Y-5.37120
X5.49600 Y-5.37220
X5.49500 Y-5.37220
X5.49500 Y-5.37320
X5.49400 Y-5.37320
X5.49400 Y-5.37420
X5.49300 Y-5.37420
X5.49300 Y-5.37520
X5.49200 Y-5.37520
X5.49200 Y-5.37620
X5.49100 Y-5.37620
X5.49100 Y-5.37720
X5.49000 Y-5.37720
X5.49000 Y-5.37820
X5.48900 Y-5.37820
X5.48900 Y-5.37920
X5.48800 Y-5.37920
X5.48800 Y-5.38020
X5.48700 Y-5.38020
X5.48700 Y-5.38120
X5.48600 Y-5.38120
X5.48600 Y-5.38220
X5.48500 Y-5.38220
X5.48500 Y-5.38320
X5.48400 Y-5.38320
X5.48400 Y-5.38420
X5.48300 Y-5.38420
X5.48300 Y-5.38520
X5.48200 Y-5.38520
X5.48200 Y-5.38620
X5.48100 Y-5.38620
X5.48100 Y-5.38720
X5.48000 Y-5.38720
X5.48000 Y-5.38820
X5.47900 Y-5.38820
X5.47900 Y-5.38920
X5.47800 Y-5.38920
X5.47800 Y-5.39020
X5.47700 Y-5.39020
X5.47700 Y-5.39120
X5.47600 Y-5.39120
X5.47600 Y-5.39220
X5.47500 Y-5.39220
X5.47500 Y-5.39320
X5.47400 Y-5.39320
X5.47400 Y-5.39420
X5.47300 Y-5.39420
X5.47300 Y-5.39520
X5.47200 Y-5.39520
X5.47200 Y-5.39620
X5.47100 Y-5.39620
X5.47100 Y-5.39720
X5.47000 Y-5.39720
X5.47000 Y-5.39820
X5.46900 Y-5.39820
X5.46900 Y-5.39920
X5.46800 Y-5.39920
X5.46800 Y-5.40020
X5.46700 Y-5.40020
X5.46700 Y-5.40120
X5.46600 Y-5.40120
X5.46600 Y-5.40220
X5.46500 Y-5.40220
X5.46500 Y-5.40320
X5.46400 Y-5.40320
X5.46400 Y-5.40420
X5.46200 Y-5.40420
X5.46200 Y-5.40520
X5.46100 Y-5.40520
X5.46100 Y-5.40620
X5.45900 Y-5.40620
X5.45900 Y-5.40720
X5.45800 Y-5.40720
X5.45800 Y-5.40820
X5.45300 Y-5.40820
X5.45300 Y-5.40920
X5.07100 Y-5.40920
X5.07100 Y-5.75720
X5.07000 Y-5.75720
X5.07000 Y-5.76020
X5.06900 Y-5.76020
X5.06900 Y-5.76320
X5.06800 Y-5.76320
X5.06800 Y-5.76420
X5.06700 Y-5.76420
X5.06700 Y-5.76620
X5.06600 Y-5.76620
X5.06600 Y-5.76720
X5.06500 Y-5.76720
X5.06500 Y-5.76820
X5.06400 Y-5.76820
X5.06400 Y-5.76920
X5.06300 Y-5.76920
X5.06300 Y-5.77020
X5.06200 Y-5.77020
X5.06200 Y-5.77120
X5.06100 Y-5.77120
X5.06100 Y-5.77220
X5.06000 Y-5.77220
X5.06000 Y-5.77320
X5.05900 Y-5.77320
X5.05900 Y-5.77420
X5.05800 Y-5.77420
X5.05800 Y-5.77520
X5.05700 Y-5.77520
X5.05700 Y-5.77620
X5.05600 Y-5.77620
X5.05600 Y-5.77720
X5.05500 Y-5.77720
X5.05500 Y-5.77820
X5.05400 Y-5.77820
X5.05400 Y-5.77920
X5.05300 Y-5.77920
X5.05300 Y-5.78020
X5.05200 Y-5.78020
X5.05200 Y-5.78120
X5.05100 Y-5.78120
X5.05100 Y-5.78220
X5.05000 Y-5.78220
X5.05000 Y-5.78320
X5.04900 Y-5.78320
X5.04900 Y-5.78420
X5.04800 Y-5.78420
X5.04800 Y-5.78520
X5.04700 Y-5.78520
X5.04700 Y-5.78620
X5.04600 Y-5.78620
X5.04600 Y-5.78720
X5.04500 Y-5.78720
X5.04500 Y-5.78820
X5.04400 Y-5.78820
X5.04400 Y-5.78920
X5.04300 Y-5.78920
X5.04300 Y-5.79020
X5.04200 Y-5.79020
X5.04200 Y-5.79120
X5.04100 Y-5.79120
X5.04100 Y-5.79220
X5.04000 Y-5.79220
X5.04000 Y-5.79320
X5.03900 Y-5.79320
X5.03900 Y-5.79420
X5.03800 Y-5.79420
X5.03800 Y-5.79520
X5.03700 Y-5.79520
X5.03700 Y-5.79620
X5.03600 Y-5.79620
X5.03600 Y-5.79720
X5.03500 Y-5.79720
X5.03500 Y-5.79820
X5.03400 Y-5.79820
X5.03400 Y-5.79920
X5.03300 Y-5.79920
X5.03300 Y-5.80020
X5.03200 Y-5.80020
X5.03200 Y-5.80120
X5.03100 Y-5.80120
X5.03100 Y-5.80220
X5.03000 Y-5.80220
X5.03000 Y-5.80320
X5.02900 Y-5.80320
X5.02900 Y-5.80420
X5.02800 Y-5.80420
X5.02800 Y-5.80520
X5.02700 Y-5.80520
X5.02700 Y-5.80620
X5.02600 Y-5.80620
X5.02600 Y-5.80720
X5.02500 Y-5.80720
X5.02500 Y-5.80820
X5.02400 Y-5.80820
X5.02400 Y-5.80920
X5.02300 Y-5.80920
X5.02300 Y-5.81020
X5.02200 Y-5.81020
X5.02200 Y-5.81120
X5.02100 Y-5.81120
X5.02100 Y-5.81220
X5.02000 Y-5.81220
X5.02000 Y-5.81320
X5.01900 Y-5.81320
X5.01900 Y-5.81420
X5.01800 Y-5.81420
X5.01800 Y-5.81520
X5.01700 Y-5.81520
X5.01700 Y-5.81620
X5.01600 Y-5.81620
X5.01600 Y-5.81720
X5.01500 Y-5.81720
X5.01500 Y-5.81820
X5.01400 Y-5.81820
X5.01400 Y-5.81920
X5.01300 Y-5.81920
X5.01300 Y-5.82020
X5.01200 Y-5.82020
X5.01200 Y-5.82120
X5.01100 Y-5.82120
X5.01100 Y-5.82220
X5.01000 Y-5.82220
X5.01000 Y-5.82320
X5.00900 Y-5.82320
X5.00900 Y-5.82420
X5.00800 Y-5.82420
X5.00800 Y-5.82520
X5.00700 Y-5.82520
X5.00700 Y-5.82620
X5.00600 Y-5.82620
X5.00600 Y-5.82720
X5.00500 Y-5.82720
X5.00500 Y-5.82820
X5.00400 Y-5.82820
X5.00400 Y-5.82920
X5.00300 Y-5.82920
X5.00300 Y-5.83020
X5.00200 Y-5.83020
X5.00200 Y-5.83120
X5.00100 Y-5.83120
X5.00100 Y-5.83220
X5.00000 Y-5.83220
X5.00000 Y-5.83320
X4.99900 Y-5.83320
X4.99900 Y-5.83420
X4.99800 Y-5.83420
X4.99800 Y-5.83520
X4.99700 Y-5.83520
X4.99700 Y-5.83620
X4.99600 Y-5.83620
X4.99600 Y-5.83720
X4.99500 Y-5.83720
X4.99500 Y-5.83820
X4.99400 Y-5.83820
X4.99400 Y-5.83920
X4.99300 Y-5.83920
X4.99300 Y-5.84020
X4.99200 Y-5.84020
X4.99200 Y-5.84120
X4.99100 Y-5.84120
X4.99100 Y-5.84220
X4.99000 Y-5.84220
X4.99000 Y-5.84320
X4.98900 Y-5.84320
X4.98900 Y-5.84420
X4.98800 Y-5.84420
X4.98800 Y-5.84520
X4.98700 Y-5.84520
X4.98700 Y-5.84620
X4.98600 Y-5.84620
X4.98600 Y-5.84720
X4.98500 Y-5.84720
X4.98500 Y-5.84820
X4.98400 Y-5.84820
X4.98400 Y-5.84920
X4.98100 Y-5.84920
X4.98100 Y-5.85020
X4.98000 Y-5.85020
X4.98000 Y-5.85120
X4.97900 Y-5.85120
X4.97900 Y-5.85220
X4.97600 Y-5.85220
X4.97600 Y-5.85320
X2.44300 Y-5.85320
X2.44300 Y-5.85220
X2.44000 Y-5.85220
X2.44000 Y-5.85120
X2.43900 Y-5.85120
X2.43900 Y-5.85020
X2.43700 Y-5.85020
X2.43700 Y-5.84920
X2.43600 Y-5.84920
X2.43600 Y-5.84820
X2.43500 Y-5.84820
X2.43500 Y-5.84720
X2.43400 Y-5.84720
X2.43400 Y-5.84620
X2.43300 Y-5.84620
X2.43300 Y-5.84520
X2.43200 Y-5.84520
X2.43200 Y-5.84420
X2.43100 Y-5.84420
X2.43100 Y-5.84320
X2.43000 Y-5.84320
X2.43000 Y-5.84220
X2.42900 Y-5.84220
X2.42900 Y-5.84120
X2.42800 Y-5.84120
X2.42800 Y-5.84020
X2.42700 Y-5.84020
X2.42700 Y-5.83920
X2.42600 Y-5.83920
X2.42600 Y-5.83820
X2.42500 Y-5.83820
X2.42500 Y-5.83720
X2.42400 Y-5.83720
X2.42400 Y-5.83620
X2.42300 Y-5.83620
X2.42300 Y-5.83520
X2.42200 Y-5.83520
X2.42200 Y-5.83420
X2.42100 Y-5.83420
X2.42100 Y-5.83320
X2.42000 Y-5.83320
X2.42000 Y-5.83220
X2.41900 Y-5.83220
X2.41900 Y-5.83120
X2.41800 Y-5.83120
X2.41800 Y-5.83020
X2.41700 Y-5.83020
X2.41700 Y-5.82920
X2.41600 Y-5.82920
X2.41600 Y-5.82820
X2.41500 Y-5.82820
X2.41500 Y-5.82720
X2.41400 Y-5.82720
X2.41400 Y-5.82620
X2.41300 Y-5.82620
X2.41300 Y-5.82520
X2.41200 Y-5.82520
X2.41200 Y-5.82420
X2.41100 Y-5.82420
X2.41100 Y-5.82320
X2.41000 Y-5.82320
X2.41000 Y-5.82220
X2.40900 Y-5.82220
X2.40900 Y-5.82120
X2.40800 Y-5.82120
X2.40800 Y-5.82020
X2.40700 Y-5.82020
X2.40700 Y-5.81920
X2.40600 Y-5.81920
X2.40600 Y-5.81820
X2.40500 Y-5.81820
X2.40500 Y-5.81720
X2.40400 Y-5.81720
X2.40400 Y-5.81620
X2.40300 Y-5.81620
X2.40300 Y-5.81520
X2.40200 Y-5.81520
X2.40200 Y-5.81420
X2.40100 Y-5.81420
X2.40100 Y-5.81320
X2.40000 Y-5.81320
X2.40000 Y-5.81220
X2.39900 Y-5.81220
X2.39900 Y-5.81120
X2.39800 Y-5.81120
X2.39800 Y-5.81020
X2.39700 Y-5.81020
X2.39700 Y-5.80920
X2.39600 Y-5.80920
X2.39600 Y-5.80820
X2.39500 Y-5.80820
X2.39500 Y-5.80720
X2.39400 Y-5.80720
X2.39400 Y-5.80620
X2.39300 Y-5.80620
X2.39300 Y-5.80520
X2.39200 Y-5.80520
X2.39200 Y-5.80420
X2.39100 Y-5.80420
X2.39100 Y-5.80320
X2.39000 Y-5.80320
X2.39000 Y-5.80220
X2.38900 Y-5.80220
X2.38900 Y-5.80120
X2.38800 Y-5.80120
X2.38800 Y-5.80020
X2.38700 Y-5.80020
X2.38700 Y-5.79920
X2.38600 Y-5.79920
X2.38600 Y-5.79820
X2.38500 Y-5.79820
X2.38500 Y-5.79720
X2.38400 Y-5.79720
X2.38400 Y-5.79620
X2.38300 Y-5.79620
X2.38300 Y-5.79520
X2.38200 Y-5.79520
X2.38200 Y-5.79420
X2.38100 Y-5.79420
X2.38100 Y-5.79320
X2.38000 Y-5.79320
X2.38000 Y-5.79220
X2.37900 Y-5.79220
X2.37900 Y-5.79120
X2.37800 Y-5.79120
X2.37800 Y-5.79020
X2.37700 Y-5.79020
X2.37700 Y-5.78920
X2.37600 Y-5.78920
X2.37600 Y-5.78820
X2.37500 Y-5.78820
X2.37500 Y-5.78720
X2.37400 Y-5.78720
X2.37400 Y-5.78620
X2.37300 Y-5.78620
X2.37300 Y-5.78520
X2.37200 Y-5.78520
X2.37200 Y-5.78420
X2.37100 Y-5.78420
X2.37100 Y-5.78320
X2.37000 Y-5.78320
X2.37000 Y-5.78220
X2.36900 Y-5.78220
X2.36900 Y-5.78120
X2.36800 Y-5.78120
X2.36800 Y-5.78020
X2.36700 Y-5.78020
X2.36700 Y-5.77920
X2.36600 Y-5.77920
X2.36600 Y-5.77820
X2.36500 Y-5.77820
X2.36500 Y-5.77720
X2.36400 Y-5.77720
X2.36400 Y-5.77620
X2.36300 Y-5.77620
X2.36300 Y-5.77520
X2.36200 Y-5.77520
X2.36200 Y-5.77420
X2.36100 Y-5.77420
X2.36100 Y-5.77320
X2.36000 Y-5.77320
X2.36000 Y-5.77220
X2.35900 Y-5.77220
X2.35900 Y-5.77120
X2.35800 Y-5.77120
X2.35800 Y-5.77020
X2.35700 Y-5.77020
X2.35700 Y-5.76920
X2.35600 Y-5.76920
X2.35600 Y-5.76820
X2.35500 Y-5.76820
X2.35500 Y-5.76720
X2.35400 Y-5.76720
X2.35400 Y-5.76620
X2.35300 Y-5.76620
X2.35300 Y-5.76520
X2.35200 Y-5.76520
X2.35200 Y-5.76420
X2.35100 Y-5.76420
X2.35100 Y-5.76320
X2.35000 Y-5.76320
X2.35000 Y-5.76220
X2.34900 Y-5.76220
X2.34900 Y-5.76120
X2.34800 Y-5.76120
X2.34800 Y-5.76020
X2.34700 Y-5.76020
X2.34700 Y-5.75920
X2.34600 Y-5.75920
X2.34600 Y-5.75820
X2.34500 Y-5.75820
X2.34500 Y-5.75720
X2.34400 Y-5.75720
X2.34400 Y-5.75620
X2.34300 Y-5.75620
X2.34300 Y-5.75520
X2.34200 Y-5.75520
X2.34200 Y-5.75420
X2.34100 Y-5.75420
X2.34100 Y-5.75320
X2.34000 Y-5.75320
X2.34000 Y-5.75220
X2.33900 Y-5.75220
X2.33900 Y-5.75120
X2.33800 Y-5.75120
X2.33800 Y-5.75020
X2.33700 Y-5.75020
X2.33700 Y-5.74920
X2.33600 Y-5.74920
X2.33600 Y-5.74820
X2.33500 Y-5.74820
X2.33500 Y-5.74720
X2.33400 Y-5.74720
X2.33400 Y-5.74620
X2.33300 Y-5.74620
X2.33300 Y-5.74520
X2.33200 Y-5.74520
X2.33200 Y-5.74420
X2.33100 Y-5.74420
X2.33100 Y-5.74320
X2.33000 Y-5.74320
X2.33000 Y-5.74220
X2.32900 Y-5.74220
X2.32900 Y-5.74120
X2.32800 Y-5.74120
X2.32800 Y-5.74020
X2.32700 Y-5.74020
X2.32700 Y-5.73920
X2.32600 Y-5.73920
X2.32600 Y-5.73820
X2.32500 Y-5.73820
X2.32500 Y-5.73720
X2.32400 Y-5.73720
X2.32400 Y-5.73620
X2.32300 Y-5.73620
X2.32300 Y-5.73520
X2.32200 Y-5.73520
X2.32200 Y-5.73420
X2.32100 Y-5.73420
X2.32100 Y-5.73320
X2.32000 Y-5.73320
X2.32000 Y-5.73220
X2.31900 Y-5.73220
X2.31900 Y-5.73120
X2.31800 Y-5.73120
X2.31800 Y-5.73020
X2.31700 Y-5.73020
X2.31700 Y-5.72920
X2.31600 Y-5.72920
X2.31600 Y-5.72820
X2.31500 Y-5.72820
X2.31500 Y-5.72720
X2.31400 Y-5.72720
X2.31400 Y-5.72620
X2.31300 Y-5.72620
X2.31300 Y-5.72520
X2.31200 Y-5.72520
X2.31200 Y-5.72420
X2.31100 Y-5.72420
X2.31100 Y-5.72320
X2.31000 Y-5.72320
X2.31000 Y-5.72220
X2.30900 Y-5.72220
X2.30900 Y-5.72120
X2.30800 Y-5.72120
X2.30800 Y-5.72020
X2.30700 Y-5.72020
X2.30700 Y-5.71920
X2.30600 Y-5.71920
X2.30600 Y-5.71820
X2.30500 Y-5.71820
X2.30500 Y-5.71720
X2.30400 Y-5.71720
X2.30400 Y-5.71620
X2.30300 Y-5.71620
X2.30300 Y-5.71520
X2.30200 Y-5.71520
X2.30200 Y-5.71420
X2.30100 Y-5.71420
X2.30100 Y-5.71320
X2.30000 Y-5.71320
X2.30000 Y-5.71220
X2.29900 Y-5.71220
X2.29900 Y-5.71120
X2.29800 Y-5.71120
X2.29800 Y-5.71020
X2.29700 Y-5.71020
X2.29700 Y-5.70820
X2.29600 Y-5.70820
X2.29600 Y-5.70520
X2.29500 Y-5.70520
X2.29500 Y-5.70220
X2.29400 Y-5.70220
X2.29400 Y-5.45420
X2.29300 Y-5.45420
X2.29300 Y-5.45320
X2.29200 Y-5.45320
X2.29200 Y-5.45220
X2.29100 Y-5.45220
X2.29100 Y-5.45120
X2.29000 Y-5.45120
X2.29000 Y-5.45020
X2.28900 Y-5.45020
X2.28900 Y-5.44920
X2.28800 Y-5.44920
X2.28800 Y-5.44820
X2.28700 Y-5.44820
X2.28700 Y-5.44720
X2.28600 Y-5.44720
X2.28600 Y-5.44620
X2.28500 Y-5.44620
X2.28500 Y-5.44520
X2.28400 Y-5.44520
X2.28400 Y-5.44420
X2.28300 Y-5.44420
X2.28300 Y-5.44320
X2.28200 Y-5.44320
X2.28200 Y-5.44220
X2.28100 Y-5.44220
X2.28100 Y-5.44120
X2.28000 Y-5.44120
X2.28000 Y-5.44020
X2.27900 Y-5.44020
X2.27900 Y-5.43920
X2.27800 Y-5.43920
X2.27800 Y-5.43820
X2.27700 Y-5.43820
X2.27700 Y-5.43720
X2.27600 Y-5.43720
X2.27600 Y-5.43620
X2.27500 Y-5.43620
X2.27500 Y-5.43520
X2.27400 Y-5.43520
X2.27400 Y-5.43420
X2.27300 Y-5.43420
X2.27300 Y-5.43320
X2.27200 Y-5.43320
X2.27200 Y-5.43220
X2.27100 Y-5.43220
X2.27100 Y-5.43120
X2.27000 Y-5.43120
X2.27000 Y-5.43020
X2.26900 Y-5.43020
X2.26900 Y-5.42920
X2.26800 Y-5.42920
X2.26800 Y-5.42820
X2.26700 Y-5.42820
X2.26700 Y-5.42720
X2.26600 Y-5.42720
X2.26600 Y-5.42620
X2.20500 Y-5.42620
X2.20500 Y-5.46220
X2.16500 Y-5.46220
X2.16500 Y-5.36120
X2.20500 Y-5.36120
X2.20500 Y-5.39720
X2.27300 Y-5.39720
X2.27300 Y-5.39820
X2.27700 Y-5.39820
X2.27700 Y-5.39920
X2.27800 Y-5.39920
X2.27800 Y-5.40020
X2.28000 Y-5.40020
X2.28000 Y-5.40120
X2.28200 Y-5.40120
X2.28200 Y-5.40220
X2.28300 Y-5.40220
X2.28300 Y-5.40320
X2.28400 Y-5.40320
X2.28400 Y-5.40420
X2.28500 Y-5.40420
X2.28500 Y-5.40520
X2.28600 Y-5.40520
X2.28600 Y-5.40620
X2.28700 Y-5.40620
X2.28700 Y-5.40720
X2.28800 Y-5.40720
X2.28800 Y-5.40820
X2.28900 Y-5.40820
X2.28900 Y-5.40920
X2.29000 Y-5.40920
X2.29000 Y-5.41020
X2.29100 Y-5.41020
X2.29100 Y-5.41120
X2.29200 Y-5.41120
X2.29200 Y-5.41220
X2.29300 Y-5.41220
X2.29300 Y-5.41320
X2.29400 Y-5.41320
X2.29400 Y-5.41420
X2.29500 Y-5.41420
X2.29500 Y-5.41520
X2.29600 Y-5.41520
X2.29600 Y-5.41620
X2.29700 Y-5.41620
X2.29700 Y-5.41720
X2.29800 Y-5.41720
X2.29800 Y-5.41820
X2.29900 Y-5.41820
X2.29900 Y-5.41920
X2.30000 Y-5.41920
X2.30000 Y-5.42020
X2.30100 Y-5.42020
X2.30100 Y-5.42120
X2.30200 Y-5.42120
X2.30200 Y-5.42220
X2.30300 Y-5.42220
X2.30300 Y-5.42320
X2.30400 Y-5.42320
X2.30400 Y-5.42420
X2.30500 Y-5.42420
X2.30500 Y-5.42520
X2.30600 Y-5.42520
X2.30600 Y-5.42620
X2.30700 Y-5.42620
X2.30700 Y-5.42720
X2.30800 Y-5.42720
X2.30800 Y-5.42820
X2.30900 Y-5.42820
X2.30900 Y-5.42920
X2.31000 Y-5.42920
X2.31000 Y-5.43020
X2.31100 Y-5.43020
X2.31100 Y-5.43120
X2.31200 Y-5.43120
X2.31200 Y-5.43220
X2.31300 Y-5.43220
X2.31300 Y-5.43320
X2.31400 Y-5.43320
X2.31400 Y-5.43420
X2.31500 Y-5.43420
X2.31500 Y-5.43520
X2.31600 Y-5.43520
X2.31600 Y-5.43620
X2.31700 Y-5.43620
X2.31700 Y-5.43720
X2.31800 Y-5.43720
X2.31800 Y-5.43820
X2.31900 Y-5.43820
X2.31900 Y-5.43920
X2.32000 Y-5.43920
X2.32000 Y-5.44120
X2.32100 Y-5.44120
X2.32100 Y-5.44420
X2.32200 Y-5.44420
X2.32200 Y-5.44720
X2.32300 Y-5.44720
X2.32300 Y-5.69520
X2.32400 Y-5.69520
X2.32400 Y-5.69620
X2.32500 Y-5.69620
X2.32500 Y-5.69720
X2.32600 Y-5.69720
X2.32600 Y-5.69820
X2.32700 Y-5.69820
X2.32700 Y-5.69920
X2.32800 Y-5.69920
X2.32800 Y-5.70020
X2.32900 Y-5.70020
X2.32900 Y-5.70120
X2.33000 Y-5.70120
X2.33000 Y-5.70220
X2.33100 Y-5.70220
X2.33100 Y-5.70320
X2.33200 Y-5.70320
X2.33200 Y-5.70420
X2.33300 Y-5.70420
X2.33300 Y-5.70520
X2.33400 Y-5.70520
X2.33400 Y-5.70620
X2.33500 Y-5.70620
X2.33500 Y-5.70720
X2.33600 Y-5.70720
X2.33600 Y-5.70820
X2.33700 Y-5.70820
X2.33700 Y-5.70920
X2.33800 Y-5.70920
X2.33800 Y-5.71020
X2.33900 Y-5.71020
X2.33900 Y-5.71120
X2.34000 Y-5.71120
X2.34000 Y-5.71220
X2.34100 Y-5.71220
X2.34100 Y-5.71320
X2.34200 Y-5.71320
X2.34200 Y-5.71420
X2.34300 Y-5.71420
X2.34300 Y-5.71520
X2.34400 Y-5.71520
X2.34400 Y-5.71620
X2.34500 Y-5.71620
X2.34500 Y-5.71720
X2.34600 Y-5.71720
X2.34600 Y-5.71820
X2.34700 Y-5.71820
X2.34700 Y-5.71920
X2.34800 Y-5.71920
X2.34800 Y-5.72020
X2.34900 Y-5.72020
X2.34900 Y-5.72120
X2.35000 Y-5.72120
X2.35000 Y-5.72220
X2.35100 Y-5.72220
X2.35100 Y-5.72320
X2.35200 Y-5.72320
X2.35200 Y-5.72420
X2.35300 Y-5.72420
X2.35300 Y-5.72520
X2.35400 Y-5.72520
X2.35400 Y-5.72620
X2.35500 Y-5.72620
X2.35500 Y-5.72720
X2.35600 Y-5.72720
X2.35600 Y-5.72820
X2.35700 Y-5.72820
X2.35700 Y-5.72920
X2.35800 Y-5.72920
X2.35800 Y-5.73020
X2.35900 Y-5.73020
X2.35900 Y-5.73120
X2.36000 Y-5.73120
X2.36000 Y-5.73220
X2.36100 Y-5.73220
X2.36100 Y-5.73320
X2.36200 Y-5.73320
X2.36200 Y-5.73420
X2.36300 Y-5.73420
X2.36300 Y-5.73520
X2.36400 Y-5.73520
X2.36400 Y-5.73620
X2.36500 Y-5.73620
X2.36500 Y-5.73720
X2.36600 Y-5.73720
X2.36600 Y-5.73820
X2.36700 Y-5.73820
X2.36700 Y-5.73920
X2.36800 Y-5.73920
X2.36800 Y-5.74020
X2.36900 Y-5.74020
X2.36900 Y-5.74120
X2.37000 Y-5.74120
X2.37000 Y-5.74220
X2.37100 Y-5.74220
X2.37100 Y-5.74320
X2.37200 Y-5.74320
X2.37200 Y-5.74420
X2.37300 Y-5.74420
X2.37300 Y-5.74520
X2.37400 Y-5.74520
X2.37400 Y-5.74620
X2.37500 Y-5.74620
X2.37500 Y-5.74720
X2.37600 Y-5.74720
X2.37600 Y-5.74820
X2.37700 Y-5.74820
X2.37700 Y-5.74920
X2.37800 Y-5.74920
X2.37800 Y-5.75020
X2.37900 Y-5.75020
X2.37900 Y-5.75120
X2.38000 Y-5.75120
X2.38000 Y-5.75220
X2.38100 Y-5.75220
X2.38100 Y-5.75320
X2.38200 Y-5.75320
X2.38200 Y-5.75420
X2.38300 Y-5.75420
X2.38300 Y-5.75520
X2.38400 Y-5.75520
X2.38400 Y-5.75620
X2.38500 Y-5.75620
X2.38500 Y-5.75720
X2.38600 Y-5.75720
X2.38600 Y-5.75820
X2.38700 Y-5.75820
X2.38700 Y-5.75920
X2.38800 Y-5.75920
X2.38800 Y-5.76020
X2.38900 Y-5.76020
X2.38900 Y-5.76120
X2.39000 Y-5.76120
X2.39000 Y-5.76220
X2.39100 Y-5.76220
X2.39100 Y-5.76320
X2.39200 Y-5.76320
X2.39200 Y-5.76420
X2.39300 Y-5.76420
X2.39300 Y-5.76520
X2.39400 Y-5.76520
X2.39400 Y-5.76620
X2.39500 Y-5.76620
X2.39500 Y-5.76720
X2.39600 Y-5.76720
X2.39600 Y-5.76820
X2.39700 Y-5.76820
X2.39700 Y-5.76920
X2.39800 Y-5.76920
X2.39800 Y-5.77020
X2.39900 Y-5.77020
X2.39900 Y-5.77120
X2.40000 Y-5.77120
X2.40000 Y-5.77220
X2.40100 Y-5.77220
X2.40100 Y-5.77320
X2.40200 Y-5.77320
X2.40200 Y-5.77420
X2.40300 Y-5.77420
X2.40300 Y-5.77520
X2.40400 Y-5.77520
X2.40400 Y-5.77620
X2.40500 Y-5.77620
X2.40500 Y-5.77720
X2.40600 Y-5.77720
X2.40600 Y-5.77820
X2.40700 Y-5.77820
X2.40700 Y-5.77920
X2.40800 Y-5.77920
X2.40800 Y-5.78020
X2.40900 Y-5.78020
X2.40900 Y-5.78120
X2.41000 Y-5.78120
X2.41000 Y-5.78220
X2.41100 Y-5.78220
X2.41100 Y-5.78320
X2.41200 Y-5.78320
X2.41200 Y-5.78420
X2.41300 Y-5.78420
X2.41300 Y-5.78520
X2.41400 Y-5.78520
X2.41400 Y-5.78620
X2.41500 Y-5.78620
X2.41500 Y-5.78720
X2.41600 Y-5.78720
X2.41600 Y-5.78820
X2.41700 Y-5.78820
X2.41700 Y-5.78920
X2.41800 Y-5.78920
X2.41800 Y-5.79020
X2.41900 Y-5.79020
X2.41900 Y-5.79120
X2.42000 Y-5.79120
X2.42000 Y-5.79220
X2.42100 Y-5.79220
X2.42100 Y-5.79320
X2.42200 Y-5.79320
X2.42200 Y-5.79420
X2.42300 Y-5.79420
X2.42300 Y-5.79520
X2.42400 Y-5.79520
X2.42400 Y-5.79620
X2.42500 Y-5.79620
X2.42500 Y-5.79720
X2.42600 Y-5.79720
X2.42600 Y-5.79820
X2.42700 Y-5.79820
X2.42700 Y-5.79920
X2.42800 Y-5.79920
X2.42800 Y-5.80020
X2.42900 Y-5.80020
X2.42900 Y-5.80120
X2.43000 Y-5.80120
X2.43000 Y-5.80220
X2.43100 Y-5.80220
X2.43100 Y-5.80320
X2.43200 Y-5.80320
X2.43200 Y-5.80420
X2.43300 Y-5.80420
X2.43300 Y-5.80520
X2.43400 Y-5.80520
X2.43400 Y-5.80620
X2.43500 Y-5.80620
X2.43500 Y-5.80720
X2.43600 Y-5.80720
X2.43600 Y-5.80820
X2.43700 Y-5.80820
X2.43700 Y-5.80920
X2.43800 Y-5.80920
X2.43800 Y-5.81020
X2.43900 Y-5.81020
X2.43900 Y-5.81120
X2.44000 Y-5.81120
X2.44000 Y-5.81220
X2.44100 Y-5.81220
X2.44100 Y-5.81320
X2.44200 Y-5.81320
X2.44200 Y-5.81420
X2.44300 Y-5.81420
X2.44300 Y-5.81520
X2.44400 Y-5.81520
X2.44400 Y-5.81620
X2.44500 Y-5.81620
X2.44500 Y-5.81720
X2.44600 Y-5.81720
X2.44600 Y-5.81820
X2.44700 Y-5.81820
X2.44700 Y-5.81920
X2.44800 Y-5.81920
X2.44800 Y-5.82020
X2.44900 Y-5.82020
X2.44900 Y-5.82120
X2.45000 Y-5.82120
X2.45000 Y-5.82220
X2.45100 Y-5.82220
X2.45100 Y-5.82320
X2.45200 Y-5.82320
X2.45200 Y-5.82420
X2.94300 Y-5.82420
X2.94300 Y-5.82320
X2.94200 Y-5.82320
X2.94200 Y-5.82220
X2.94100 Y-5.82220
X2.94100 Y-5.82120
X2.94000 Y-5.82120
X2.94000 Y-5.82020
X2.93900 Y-5.82020
X2.93900 Y-5.81920
X2.93800 Y-5.81920
X2.93800 Y-5.81820
X2.93700 Y-5.81820
X2.93700 Y-5.81720
X2.93600 Y-5.81720
X2.93600 Y-5.81620
X2.93500 Y-5.81620
X2.93500 Y-5.81520
X2.93400 Y-5.81520
X2.93400 Y-5.81420
X2.93300 Y-5.81420
X2.93300 Y-5.81320
X2.93200 Y-5.81320
X2.93200 Y-5.81220
X2.93100 Y-5.81220
X2.93100 Y-5.81120
X2.93000 Y-5.81120
X2.93000 Y-5.81020
X2.92900 Y-5.81020
X2.92900 Y-5.80920
X2.92800 Y-5.80920
X2.92800 Y-5.80820
X2.92700 Y-5.80820
X2.92700 Y-5.80720
X2.92600 Y-5.80720
X2.92600 Y-5.80620
X2.92500 Y-5.80620
X2.92500 Y-5.80520
X2.92400 Y-5.80520
X2.92400 Y-5.80420
X2.92300 Y-5.80420
X2.92300 Y-5.80320
X2.92200 Y-5.80320
X2.92200 Y-5.80220
X2.92100 Y-5.80220
X2.92100 Y-5.80120
X2.92000 Y-5.80120
X2.92000 Y-5.80020
X2.91900 Y-5.80020
X2.91900 Y-5.79920
X2.91800 Y-5.79920
X2.91800 Y-5.79820
X2.91700 Y-5.79820
X2.91700 Y-5.79720
X2.91600 Y-5.79720
X2.91600 Y-5.79620
X2.91500 Y-5.79620
X2.91500 Y-5.79520
X2.91400 Y-5.79520
X2.91400 Y-5.79420
X2.91300 Y-5.79420
X2.91300 Y-5.79320
X2.91200 Y-5.79320
X2.91200 Y-5.79220
X2.91100 Y-5.79220
X2.91100 Y-5.79120
X2.91000 Y-5.79120
X2.91000 Y-5.79020
X2.90900 Y-5.79020
X2.90900 Y-5.78920
X2.90800 Y-5.78920
X2.90800 Y-5.78820
X2.90700 Y-5.78820
X2.90700 Y-5.78720
X2.90600 Y-5.78720
X2.90600 Y-5.78620
X2.90500 Y-5.78620
X2.90500 Y-5.78520
X2.90400 Y-5.78520
X2.90400 Y-5.78420
X2.90300 Y-5.78420
X2.90300 Y-5.78320
X2.90200 Y-5.78320
X2.90200 Y-5.78220
X2.90100 Y-5.78220
X2.90100 Y-5.78120
X2.90000 Y-5.78120
X2.90000 Y-5.78020
X2.89900 Y-5.78020
X2.89900 Y-5.77920
X2.89800 Y-5.77920
X2.89800 Y-5.77820
X2.89700 Y-5.77820
X2.89700 Y-5.77720
X2.89600 Y-5.77720
X2.89600 Y-5.77620
X2.89500 Y-5.77620
X2.89500 Y-5.77520
X2.89400 Y-5.77520
X2.89400 Y-5.77420
X2.89300 Y-5.77420
X2.89300 Y-5.77320
X2.89200 Y-5.77320
X2.89200 Y-5.77220
X2.89100 Y-5.77220
X2.89100 Y-5.77120
X2.89000 Y-5.77120
X2.89000 Y-5.77020
X2.88900 Y-5.77020
X2.88900 Y-5.76920
X2.88800 Y-5.76920
X2.88800 Y-5.76820
X2.88700 Y-5.76820
X2.88700 Y-5.76720
X2.88600 Y-5.76720
X2.88600 Y-5.76620
X2.88500 Y-5.76620
X2.88500 Y-5.76520
X2.88400 Y-5.76520
X2.88400 Y-5.76420
X2.88300 Y-5.76420
X2.88300 Y-5.76320
X2.88200 Y-5.76320
X2.88200 Y-5.76220
X2.88100 Y-5.76220
X2.88100 Y-5.76120
X2.88000 Y-5.76120
X2.88000 Y-5.76020
X2.87900 Y-5.76020
X2.87900 Y-5.75920
X2.87800 Y-5.75920
X2.87800 Y-5.75820
X2.87700 Y-5.75820
X2.87700 Y-5.75720
X2.87600 Y-5.75720
X2.87600 Y-5.75620
X2.87500 Y-5.75620
X2.87500 Y-5.75520
X2.87400 Y-5.75520
X2.87400 Y-5.75420
X2.87300 Y-5.75420
X2.87300 Y-5.75320
X2.87200 Y-5.75320
X2.87200 Y-5.75220
X2.87100 Y-5.75220
X2.87100 Y-5.75120
X2.87000 Y-5.75120
X2.87000 Y-5.75020
X2.86900 Y-5.75020
X2.86900 Y-5.74920
X2.86800 Y-5.74920
X2.86800 Y-5.74820
X2.86700 Y-5.74820
X2.86700 Y-5.74720
X2.86600 Y-5.74720
X2.86600 Y-5.74620
X2.86500 Y-5.74620
X2.86500 Y-5.74520
X2.86400 Y-5.74520
X2.86400 Y-5.74420
X2.86300 Y-5.74420
X2.86300 Y-5.74320
X2.86200 Y-5.74320
X2.86200 Y-5.74220
X2.86100 Y-5.74220
X2.86100 Y-5.74120
X2.86000 Y-5.74120
X2.86000 Y-5.74020
X2.85900 Y-5.74020
X2.85900 Y-5.73920
X2.85800 Y-5.73920
X2.85800 Y-5.73820
X2.85700 Y-5.73820
X2.85700 Y-5.73720
X2.85600 Y-5.73720
X2.85600 Y-5.73620
X2.85500 Y-5.73620
X2.85500 Y-5.73520
X2.85400 Y-5.73520
X2.85400 Y-5.73420
X2.85300 Y-5.73420
X2.85300 Y-5.73320
X2.85200 Y-5.73320
X2.85200 Y-5.73220
X2.85100 Y-5.73220
X2.85100 Y-5.73120
X2.85000 Y-5.73120
X2.85000 Y-5.73020
X2.84900 Y-5.73020
X2.84900 Y-5.72920
X2.84800 Y-5.72920
X2.84800 Y-5.72820
X2.84700 Y-5.72820
X2.84700 Y-5.72720
X2.84600 Y-5.72720
X2.84600 Y-5.72420
X2.84500 Y-5.72420
X2.84500 Y-5.72120
X2.84400 Y-5.72120
X2.84400 Y-5.45520
X2.84300 Y-5.45520
X2.84300 Y-5.45420
X2.84200 Y-5.45420
X2.84200 Y-5.45320
X2.84100 Y-5.45320
X2.84100 Y-5.45220
X2.84000 Y-5.45220
X2.84000 Y-5.45120
X2.83900 Y-5.45120
X2.83900 Y-5.45020
X2.83800 Y-5.45020
X2.83800 Y-5.44920
X2.83700 Y-5.44920
X2.83700 Y-5.44820
X2.83600 Y-5.44820
X2.83600 Y-5.44720
X2.83500 Y-5.44720
X2.83500 Y-5.44620
X2.83400 Y-5.44620
X2.83400 Y-5.44520
X2.83300 Y-5.44520
X2.83300 Y-5.44420
X2.83200 Y-5.44420
X2.83200 Y-5.44320
X2.83100 Y-5.44320
X2.83100 Y-5.44220
X2.83000 Y-5.44220
X2.83000 Y-5.44120
X2.82900 Y-5.44120
X2.82900 Y-5.44020
X2.82800 Y-5.44020
X2.82800 Y-5.43920
X2.82700 Y-5.43920
X2.82700 Y-5.43820
X2.82600 Y-5.43820
X2.82600 Y-5.43720
X2.82500 Y-5.43720
X2.82500 Y-5.43620
X2.82400 Y-5.43620
X2.82400 Y-5.43520
X2.82300 Y-5.43520
X2.82300 Y-5.43420
X2.82200 Y-5.43420
X2.82200 Y-5.43320
X2.82100 Y-5.43320
X2.82100 Y-5.43220
X2.82000 Y-5.43220
X2.82000 Y-5.43120
X2.81900 Y-5.43120
X2.81900 Y-5.43020
X2.81800 Y-5.43020
X2.81800 Y-5.42920
X2.81700 Y-5.42920
X2.81700 Y-5.42820
X2.81600 Y-5.42820
X2.81600 Y-5.42720
X2.81500 Y-5.42720
X2.81500 Y-5.42620
X2.75700 Y-5.42620
X2.75700 Y-5.46220
X2.71700 Y-5.46220
X2.71700 Y-5.36120
X2.75700 Y-5.36120
X2.75700 Y-5.39720
X2.82200 Y-5.39720
X2.82200 Y-5.39820
X2.82600 Y-5.39820
X2.82600 Y-5.39920
X2.82800 Y-5.39920
X2.82800 Y-5.40020
X2.82900 Y-5.40020
X2.82900 Y-5.40120
X2.83100 Y-5.40120
X2.83100 Y-5.40220
X2.83200 Y-5.40220
X2.83200 Y-5.40320
X2.83300 Y-5.40320
X2.83300 Y-5.40420
X2.83400 Y-5.40420
X2.83400 Y-5.40520
X2.83500 Y-5.40520
X2.83500 Y-5.40620
X2.83600 Y-5.40620
X2.83600 Y-5.40720
X2.83700 Y-5.40720
X2.83700 Y-5.40820
X2.83800 Y-5.40820
X2.83800 Y-5.40920
X2.83900 Y-5.40920
X2.83900 Y-5.41020
X2.84000 Y-5.41020
X2.84000 Y-5.41120
X2.84100 Y-5.41120
X2.84100 Y-5.41220
X2.84200 Y-5.41220
X2.84200 Y-5.41320
X2.84300 Y-5.41320
X2.84300 Y-5.41420
X2.84400 Y-5.41420
X2.84400 Y-5.41520
X2.84500 Y-5.41520
X2.84500 Y-5.41620
X2.84600 Y-5.41620
X2.84600 Y-5.41720
X2.84700 Y-5.41720
X2.84700 Y-5.41820
X2.84800 Y-5.41820
X2.84800 Y-5.41920
X2.84900 Y-5.41920
X2.84900 Y-5.42020
X2.85000 Y-5.42020
X2.85000 Y-5.42120
X2.85100 Y-5.42120
X2.85100 Y-5.42220
X2.85200 Y-5.42220
X2.85200 Y-5.42320
X2.85300 Y-5.42320
X2.85300 Y-5.42420
X2.85400 Y-5.42420
X2.85400 Y-5.42520
X2.85500 Y-5.42520
X2.85500 Y-5.42620
X2.85600 Y-5.42620
X2.85600 Y-5.42720
X2.85700 Y-5.42720
X2.85700 Y-5.42820
X2.85800 Y-5.42820
X2.85800 Y-5.42920
X2.85900 Y-5.42920
X2.85900 Y-5.43020
X2.86000 Y-5.43020
X2.86000 Y-5.43120
X2.86100 Y-5.43120
X2.86100 Y-5.43220
X2.86200 Y-5.43220
X2.86200 Y-5.43320
X2.86300 Y-5.43320
X2.86300 Y-5.43420
X2.86400 Y-5.43420
X2.86400 Y-5.43520
X2.86500 Y-5.43520
X2.86500 Y-5.43620
X2.86600 Y-5.43620
X2.86600 Y-5.43720
X2.86700 Y-5.43720
X2.86700 Y-5.43820
X2.86800 Y-5.43820
X2.86800 Y-5.43920
X2.86900 Y-5.43920
X2.86900 Y-5.44020
X2.87000 Y-5.44020
X2.87000 Y-5.44320
X2.87100 Y-5.44320
X2.87100 Y-5.44620
X2.87200 Y-5.44620
X2.87200 Y-5.44920
X2.87300 Y-5.44920
X2.87300 Y-5.71320
X2.87400 Y-5.71320
X2.87400 Y-5.71420
X2.87500 Y-5.71420
X2.87500 Y-5.71520
X2.87600 Y-5.71520
X2.87600 Y-5.71620
X2.87700 Y-5.71620
X2.87700 Y-5.71720
X2.87800 Y-5.71720
X2.87800 Y-5.71820
X2.87900 Y-5.71820
X2.87900 Y-5.71920
X2.88000 Y-5.71920
X2.88000 Y-5.72020
X2.88100 Y-5.72020
X2.88100 Y-5.72120
X2.88200 Y-5.72120
X2.88200 Y-5.72220
X2.88300 Y-5.72220
X2.88300 Y-5.72320
X2.88400 Y-5.72320
X2.88400 Y-5.72420
X2.88500 Y-5.72420
X2.88500 Y-5.72520
X2.88600 Y-5.72520
X2.88600 Y-5.72620
X2.88700 Y-5.72620
X2.88700 Y-5.72720
X2.88800 Y-5.72720
X2.88800 Y-5.72820
X2.88900 Y-5.72820
X2.88900 Y-5.72920
X2.89000 Y-5.72920
X2.89000 Y-5.73020
X2.89100 Y-5.73020
X2.89100 Y-5.73120
X2.89200 Y-5.73120
X2.89200 Y-5.73220
X2.89300 Y-5.73220
X2.89300 Y-5.73320
X2.89400 Y-5.73320
X2.89400 Y-5.73420
X2.89500 Y-5.73420
X2.89500 Y-5.73520
X2.89600 Y-5.73520
X2.89600 Y-5.73620
X2.89700 Y-5.73620
X2.89700 Y-5.73720
X2.89800 Y-5.73720
X2.89800 Y-5.73820
X2.89900 Y-5.73820
X2.89900 Y-5.73920
X2.90000 Y-5.73920
X2.90000 Y-5.74020
X2.90100 Y-5.74020
X2.90100 Y-5.74120
X2.90200 Y-5.74120
X2.90200 Y-5.74220
X2.90300 Y-5.74220
X2.90300 Y-5.74320
X2.90400 Y-5.74320
X2.90400 Y-5.74420
X2.90500 Y-5.74420
X2.90500 Y-5.74520
X2.90600 Y-5.74520
X2.90600 Y-5.74620
X2.90700 Y-5.74620
X2.90700 Y-5.74720
X2.90800 Y-5.74720
X2.90800 Y-5.74820
X2.90900 Y-5.74820
X2.90900 Y-5.74920
X2.91000 Y-5.74920
X2.91000 Y-5.75020
X2.91100 Y-5.75020
X2.91100 Y-5.75120
X2.91200 Y-5.75120
X2.91200 Y-5.75220
X2.91300 Y-5.75220
X2.91300 Y-5.75320
X2.91400 Y-5.75320
X2.91400 Y-5.75420
X2.91500 Y-5.75420
X2.91500 Y-5.75520
X2.91600 Y-5.75520
X2.91600 Y-5.75620
X2.91700 Y-5.75620
X2.91700 Y-5.75720
X2.91800 Y-5.75720
X2.91800 Y-5.75820
X2.91900 Y-5.75820
X2.91900 Y-5.75920
X2.92000 Y-5.75920
X2.92000 Y-5.76020
X2.92100 Y-5.76020
X2.92100 Y-5.76120
X2.92200 Y-5.76120
X2.92200 Y-5.76220
X2.92300 Y-5.76220
X2.92300 Y-5.76320
X2.92400 Y-5.76320
X2.92400 Y-5.76420
X2.92500 Y-5.76420
X2.92500 Y-5.76520
X2.92600 Y-5.76520
X2.92600 Y-5.76620
X2.92700 Y-5.76620
X2.92700 Y-5.76720
X2.92800 Y-5.76720
X2.92800 Y-5.76820
X2.92900 Y-5.76820
X2.92900 Y-5.76920
X2.93000 Y-5.76920
X2.93000 Y-5.77020
X2.93100 Y-5.77020
X2.93100 Y-5.77120
X2.93200 Y-5.77120
X2.93200 Y-5.77220
X2.93300 Y-5.77220
X2.93300 Y-5.77320
X2.93400 Y-5.77320
X2.93400 Y-5.77420
X2.93500 Y-5.77420
X2.93500 Y-5.77520
X2.93600 Y-5.77520
X2.93600 Y-5.77620
X2.93700 Y-5.77620
X2.93700 Y-5.77720
X2.93800 Y-5.77720
X2.93800 Y-5.77820
X2.93900 Y-5.77820
X2.93900 Y-5.77920
X2.94000 Y-5.77920
X2.94000 Y-5.78020
X2.94100 Y-5.78020
X2.94100 Y-5.78120
X2.94200 Y-5.78120
X2.94200 Y-5.78220
X2.94300 Y-5.78220
X2.94300 Y-5.78320
X2.94400 Y-5.78320
X2.94400 Y-5.78420
X2.94500 Y-5.78420
X2.94500 Y-5.78520
X2.94600 Y-5.78520
X2.94600 Y-5.78620
X2.94700 Y-5.78620
X2.94700 Y-5.78720
X2.94800 Y-5.78720
X2.94800 Y-5.78820
X2.94900 Y-5.78820
X2.94900 Y-5.78920
X2.95000 Y-5.78920
X2.95000 Y-5.79020
X2.95100 Y-5.79020
X2.95100 Y-5.79120
X2.95200 Y-5.79120
X2.95200 Y-5.79220
X2.95300 Y-5.79220
X2.95300 Y-5.79320
X2.95400 Y-5.79320
X2.95400 Y-5.79420
X2.95500 Y-5.79420
X2.95500 Y-5.79520
X2.95600 Y-5.79520
X2.95600 Y-5.79620
X2.95700 Y-5.79620
X2.95700 Y-5.79720
X2.95800 Y-5.79720
X2.95800 Y-5.79820
X2.95900 Y-5.79820
X2.95900 Y-5.79920
X2.96000 Y-5.79920
X2.96000 Y-5.80020
X2.96100 Y-5.80020
X2.96100 Y-5.80120
X2.96200 Y-5.80120
X2.96200 Y-5.80220
X2.96300 Y-5.80220
X2.96300 Y-5.80320
X2.96400 Y-5.80320
X2.96400 Y-5.80420
X2.96500 Y-5.80420
X2.96500 Y-5.80520
X2.96600 Y-5.80520
X2.96600 Y-5.80620
X2.96700 Y-5.80620
X2.96700 Y-5.80720
X2.96800 Y-5.80720
X2.96800 Y-5.80820
X2.96900 Y-5.80820
X2.96900 Y-5.80920
X2.97000 Y-5.80920
X2.97000 Y-5.81020
X2.97100 Y-5.81020
X2.97100 Y-5.81120
X2.97200 Y-5.81120
X2.97200 Y-5.81220
X2.97300 Y-5.81220
X2.97300 Y-5.81320
X2.97400 Y-5.81320
X2.97400 Y-5.81420
X2.97500 Y-5.81420
X2.97500 Y-5.81520
X2.97600 Y-5.81520
X2.97600 Y-5.81620
X2.97700 Y-5.81620
X2.97700 Y-5.81720
X2.97800 Y-5.81720
X2.97800 Y-5.81820
X2.97900 Y-5.81820
X2.97900 Y-5.81920
X2.98000 Y-5.81920
X2.98000 Y-5.82020
X2.98100 Y-5.82020
X2.98100 Y-5.82120
X2.98200 Y-5.82120
X2.98200 Y-5.82220
X2.98300 Y-5.82220
X2.98300 Y-5.82320
X2.98400 Y-5.82320
X2.98400 Y-5.82420
X3.48500 Y-5.82420
X3.48500 Y-5.82320
X3.48400 Y-5.82320
X3.48400 Y-5.82220
X3.48300 Y-5.82220
X3.48300 Y-5.82120
X3.48200 Y-5.82120
X3.48200 Y-5.82020
X3.48100 Y-5.82020
X3.48100 Y-5.81920
X3.48000 Y-5.81920
X3.48000 Y-5.81820
X3.47900 Y-5.81820
X3.47900 Y-5.81720
X3.47800 Y-5.81720
X3.47800 Y-5.81620
X3.47700 Y-5.81620
X3.47700 Y-5.81520
X3.47600 Y-5.81520
X3.47600 Y-5.81420
X3.47500 Y-5.81420
X3.47500 Y-5.81320
X3.47400 Y-5.81320
X3.47400 Y-5.81220
X3.47300 Y-5.81220
X3.47300 Y-5.81120
X3.47200 Y-5.81120
X3.47200 Y-5.81020
X3.47100 Y-5.81020
X3.47100 Y-5.80920
X3.47000 Y-5.80920
X3.47000 Y-5.80820
X3.46900 Y-5.80820
X3.46900 Y-5.80720
X3.46800 Y-5.80720
X3.46800 Y-5.80620
X3.46700 Y-5.80620
X3.46700 Y-5.80520
X3.46600 Y-5.80520
X3.46600 Y-5.80420
X3.46500 Y-5.80420
X3.46500 Y-5.80320
X3.46400 Y-5.80320
X3.46400 Y-5.80220
X3.46300 Y-5.80220
X3.46300 Y-5.80120
X3.46200 Y-5.80120
X3.46200 Y-5.80020
X3.46100 Y-5.80020
X3.46100 Y-5.79920
X3.46000 Y-5.79920
X3.46000 Y-5.79820
X3.45900 Y-5.79820
X3.45900 Y-5.79720
X3.45800 Y-5.79720
X3.45800 Y-5.79620
X3.45700 Y-5.79620
X3.45700 Y-5.79520
X3.45600 Y-5.79520
X3.45600 Y-5.79420
X3.45500 Y-5.79420
X3.45500 Y-5.79320
X3.45400 Y-5.79320
X3.45400 Y-5.79220
X3.45300 Y-5.79220
X3.45300 Y-5.79120
X3.45200 Y-5.79120
X3.45200 Y-5.79020
X3.45100 Y-5.79020
X3.45100 Y-5.78920
X3.45000 Y-5.78920
X3.45000 Y-5.78820
X3.44900 Y-5.78820
X3.44900 Y-5.78720
X3.44800 Y-5.78720
X3.44800 Y-5.78620
X3.44700 Y-5.78620
X3.44700 Y-5.78520
X3.44600 Y-5.78520
X3.44600 Y-5.78420
X3.44500 Y-5.78420
X3.44500 Y-5.78320
X3.44400 Y-5.78320
X3.44400 Y-5.78220
X3.44300 Y-5.78220
X3.44300 Y-5.78120
X3.44200 Y-5.78120
X3.44200 Y-5.78020
X3.44100 Y-5.78020
X3.44100 Y-5.77920
X3.44000 Y-5.77920
X3.44000 Y-5.77820
X3.43900 Y-5.77820
X3.43900 Y-5.77720
X3.43800 Y-5.77720
X3.43800 Y-5.77620
X3.43700 Y-5.77620
X3.43700 Y-5.77520
X3.43600 Y-5.77520
X3.43600 Y-5.77420
X3.43500 Y-5.77420
X3.43500 Y-5.77320
X3.43400 Y-5.77320
X3.43400 Y-5.77220
X3.43300 Y-5.77220
X3.43300 Y-5.77120
X3.43200 Y-5.77120
X3.43200 Y-5.77020
X3.43100 Y-5.77020
X3.43100 Y-5.76920
X3.43000 Y-5.76920
X3.43000 Y-5.76820
X3.42900 Y-5.76820
X3.42900 Y-5.76720
X3.42800 Y-5.76720
X3.42800 Y-5.76620
X3.42700 Y-5.76620
X3.42700 Y-5.76520
X3.42600 Y-5.76520
X3.42600 Y-5.76420
X3.42500 Y-5.76420
X3.42500 Y-5.76320
X3.42400 Y-5.76320
X3.42400 Y-5.76220
X3.42300 Y-5.76220
X3.42300 Y-5.76120
X3.42200 Y-5.76120
X3.42200 Y-5.76020
X3.42100 Y-5.76020
X3.42100 Y-5.75920
X3.42000 Y-5.75920
X3.42000 Y-5.75820
X3.41900 Y-5.75820
X3.41900 Y-5.75720
X3.41800 Y-5.75720
X3.41800 Y-5.75620
X3.41700 Y-5.75620
X3.41700 Y-5.75520
X3.41600 Y-5.75520
X3.41600 Y-5.75420
X3.41500 Y-5.75420
X3.41500 Y-5.75320
X3.41400 Y-5.75320
X3.41400 Y-5.75220
X3.41300 Y-5.75220
X3.41300 Y-5.75120
X3.41200 Y-5.75120
X3.41200 Y-5.75020
X3.41100 Y-5.75020
X3.41100 Y-5.74920
X3.41000 Y-5.74920
X3.41000 Y-5.74720
X3.40900 Y-5.74720
X3.40900 Y-5.74420
X3.40800 Y-5.74420
X3.40800 Y-5.74020
X3.40700 Y-5.74020
X3.40700 Y-5.46820
X3.40600 Y-5.46820
X3.40600 Y-5.46720
X3.40500 Y-5.46720
X3.40500 Y-5.46620
X3.40400 Y-5.46620
X3.40400 Y-5.46520
X3.40300 Y-5.46520
X3.40300 Y-5.46420
X3.40200 Y-5.46420
X3.40200 Y-5.46320
X3.40100 Y-5.46320
X3.40100 Y-5.46220
X3.40000 Y-5.46220
X3.40000 Y-5.46120
X3.39900 Y-5.46120
X3.39900 Y-5.46020
X3.39800 Y-5.46020
X3.39800 Y-5.45920
X3.39700 Y-5.45920
X3.39700 Y-5.45820
X3.39600 Y-5.45820
X3.39600 Y-5.45720
X3.39500 Y-5.45720
X3.39500 Y-5.45620
X3.39400 Y-5.45620
X3.39400 Y-5.45520
X3.39200 Y-5.45520
X3.39200 Y-5.45420
X3.39100 Y-5.45420
X3.39100 Y-5.45320
X3.39000 Y-5.45320
X3.39000 Y-5.45220
X3.38900 Y-5.45220
X3.38900 Y-5.45120
X3.38800 Y-5.45120
X3.38800 Y-5.45020
X3.38700 Y-5.45020
X3.38700 Y-5.44920
X3.38600 Y-5.44920
X3.38600 Y-5.44820
X3.38500 Y-5.44820
X3.38500 Y-5.44720
X3.38400 Y-5.44720
X3.38400 Y-5.44620
X3.38300 Y-5.44620
X3.38300 Y-5.44520
X3.38200 Y-5.44520
X3.38200 Y-5.44420
X3.38100 Y-5.44420
X3.38100 Y-5.44320
X3.38000 Y-5.44320
X3.38000 Y-5.44220
X3.37900 Y-5.44220
X3.37900 Y-5.44120
X3.37800 Y-5.44120
X3.37800 Y-5.44020
X3.37700 Y-5.44020
X3.37700 Y-5.43920
X3.37600 Y-5.43920
X3.37600 Y-5.43820
X3.37500 Y-5.43820
X3.37500 Y-5.43720
X3.37400 Y-5.43720
X3.37400 Y-5.43620
X3.37300 Y-5.43620
X3.37300 Y-5.43520
X3.37200 Y-5.43520
X3.37200 Y-5.43420
X3.37100 Y-5.43420
X3.37100 Y-5.43320
X3.37000 Y-5.43320
X3.37000 Y-5.43220
X3.36900 Y-5.43220
X3.36900 Y-5.43120
X3.36800 Y-5.43120
X3.36800 Y-5.43020
X3.36700 Y-5.43020
X3.36700 Y-5.42920
X3.36600 Y-5.42920
X3.36600 Y-5.42820
X3.36500 Y-5.42820
X3.36500 Y-5.42720
X3.36400 Y-5.42720
X3.36400 Y-5.42620
X3.30800 Y-5.42620
X3.30800 Y-5.46220
X3.26800 Y-5.46220
X3.26800 Y-5.36120
X3.30800 Y-5.36120
X3.30800 Y-5.39720
X3.37200 Y-5.39720
X3.37200 Y-5.39820
X3.37600 Y-5.39820
X3.37600 Y-5.39920
X3.37700 Y-5.39920
X3.37700 Y-5.40020
X3.37900 Y-5.40020
X3.37900 Y-5.40120
X3.38000 Y-5.40120
X3.38000 Y-5.40220
X3.38100 Y-5.40220
X3.38100 Y-5.40320
X3.38200 Y-5.40320
X3.38200 Y-5.40420
X3.38300 Y-5.40420
X3.38300 Y-5.40520
X3.38400 Y-5.40520
X3.38400 Y-5.40620
X3.38500 Y-5.40620
X3.38500 Y-5.40720
X3.38600 Y-5.40720
X3.38600 Y-5.40820
X3.38700 Y-5.40820
X3.38700 Y-5.40920
X3.38800 Y-5.40920
X3.38800 Y-5.41020
X3.38900 Y-5.41020
X3.38900 Y-5.41120
X3.39000 Y-5.41120
X3.39000 Y-5.41220
X3.39100 Y-5.41220
X3.39100 Y-5.41320
X3.39200 Y-5.41320
X3.39200 Y-5.41420
X3.39300 Y-5.41420
X3.39300 Y-5.41520
X3.39400 Y-5.41520
X3.39400 Y-5.41620
X3.39500 Y-5.41620
X3.39500 Y-5.41720
X3.39600 Y-5.41720
X3.39600 Y-5.41820
X3.39700 Y-5.41820
X3.39700 Y-5.41920
X3.39800 Y-5.41920
X3.39800 Y-5.42020
X3.39900 Y-5.42020
X3.39900 Y-5.42120
X3.40000 Y-5.42120
X3.40000 Y-5.42220
X3.40100 Y-5.42220
X3.40100 Y-5.42320
X3.40200 Y-5.42320
X3.40200 Y-5.42420
X3.40300 Y-5.42420
X3.40300 Y-5.42520
X3.40400 Y-5.42520
X3.40400 Y-5.42620
X3.40500 Y-5.42620
X3.40500 Y-5.42720
X3.40600 Y-5.42720
X3.40600 Y-5.42820
X3.40700 Y-5.42820
X3.40700 Y-5.42920
X3.40800 Y-5.42920
X3.40800 Y-5.43020
X3.40900 Y-5.43020
X3.40900 Y-5.43120
X3.41000 Y-5.43120
X3.41000 Y-5.43220
X3.41100 Y-5.43220
X3.41100 Y-5.43320
X3.41200 Y-5.43320
X3.41200 Y-5.43420
X3.41300 Y-5.43420
X3.41300 Y-5.43520
X3.41400 Y-5.43520
X3.41400 Y-5.43620
X3.41500 Y-5.43620
X3.41500 Y-5.43720
X3.41600 Y-5.43720
X3.41600 Y-5.43820
X3.41700 Y-5.43820
X3.41700 Y-5.43920
X3.41800 Y-5.43920
X3.41800 Y-5.44020
X3.41900 Y-5.44020
X3.41900 Y-5.44120
X3.42000 Y-5.44120
X3.42000 Y-5.44220
X3.42100 Y-5.44220
X3.42100 Y-5.44320
X3.42200 Y-5.44320
X3.42200 Y-5.44420
X3.42300 Y-5.44420
X3.42300 Y-5.44520
X3.42400 Y-5.44520
X3.42400 Y-5.44620
X3.42500 Y-5.44620
X3.42500 Y-5.44720
X3.42700 Y-5.44720
X3.42700 Y-5.44820
X3.42800 Y-5.44820
X3.42800 Y-5.44920
X3.42900 Y-5.44920
X3.42900 Y-5.45020
X3.43000 Y-5.45020
X3.43000 Y-5.45120
X3.43100 Y-5.45120
X3.43100 Y-5.45220
X3.43200 Y-5.45220
X3.43200 Y-5.45420
X3.43300 Y-5.45420
X3.43300 Y-5.45520
X3.43400 Y-5.45520
X3.43400 Y-5.45820
X3.43500 Y-5.45820
X3.43500 Y-5.46120
X3.43600 Y-5.46120
X3.43600 Y-5.73420
X3.43700 Y-5.73420
X3.43700 Y-5.73520
X3.43800 Y-5.73520
X3.43800 Y-5.73620
X3.43900 Y-5.73620
X3.43900 Y-5.73720
X3.44000 Y-5.73720
X3.44000 Y-5.73820
X3.44100 Y-5.73820
X3.44100 Y-5.73920
X3.44200 Y-5.73920
X3.44200 Y-5.74020
X3.44300 Y-5.74020
X3.44300 Y-5.74120
X3.44400 Y-5.74120
X3.44400 Y-5.74220
X3.44500 Y-5.74220
X3.44500 Y-5.74320
X3.44600 Y-5.74320
X3.44600 Y-5.74420
X3.44700 Y-5.74420
X3.44700 Y-5.74520
X3.44800 Y-5.74520
X3.44800 Y-5.74620
X3.44900 Y-5.74620
X3.44900 Y-5.74720
X3.45000 Y-5.74720
X3.45000 Y-5.74820
X3.45100 Y-5.74820
X3.45100 Y-5.74920
X3.45200 Y-5.74920
X3.45200 Y-5.75020
X3.45300 Y-5.75020
X3.45300 Y-5.75120
X3.45400 Y-5.75120
X3.45400 Y-5.75220
X3.45500 Y-5.75220
X3.45500 Y-5.75320
X3.45600 Y-5.75320
X3.45600 Y-5.75420
X3.45700 Y-5.75420
X3.45700 Y-5.75520
X3.45800 Y-5.75520
X3.45800 Y-5.75620
X3.45900 Y-5.75620
X3.45900 Y-5.75720
X3.46000 Y-5.75720
X3.46000 Y-5.75820
X3.46100 Y-5.75820
X3.46100 Y-5.75920
X3.46200 Y-5.75920
X3.46200 Y-5.76020
X3.46300 Y-5.76020
X3.46300 Y-5.76120
X3.46400 Y-5.76120
X3.46400 Y-5.76220
X3.46500 Y-5.76220
X3.46500 Y-5.76320
X3.46600 Y-5.76320
X3.46600 Y-5.76420
X3.46700 Y-5.76420
X3.46700 Y-5.76520
X3.46800 Y-5.76520
X3.46800 Y-5.76620
X3.46900 Y-5.76620
X3.46900 Y-5.76720
X3.47000 Y-5.76720
X3.47000 Y-5.76820
X3.47100 Y-5.76820
X3.47100 Y-5.76920
X3.47200 Y-5.76920
X3.47200 Y-5.77020
X3.47300 Y-5.77020
X3.47300 Y-5.77120
X3.47400 Y-5.77120
X3.47400 Y-5.77220
X3.47500 Y-5.77220
X3.47500 Y-5.77320
X3.47600 Y-5.77320
X3.47600 Y-5.77420
X3.47700 Y-5.77420
X3.47700 Y-5.77520
X3.47800 Y-5.77520
X3.47800 Y-5.77620
X3.47900 Y-5.77620
X3.47900 Y-5.77720
X3.48000 Y-5.77720
X3.48000 Y-5.77820
X3.48100 Y-5.77820
X3.48100 Y-5.77920
X3.48200 Y-5.77920
X3.48200 Y-5.78020
X3.48300 Y-5.78020
X3.48300 Y-5.78120
X3.48400 Y-5.78120
X3.48400 Y-5.78220
X3.48500 Y-5.78220
X3.48500 Y-5.78320
X3.48600 Y-5.78320
X3.48600 Y-5.78420
X3.48700 Y-5.78420
X3.48700 Y-5.78520
X3.48800 Y-5.78520
X3.48800 Y-5.78620
X3.48900 Y-5.78620
X3.48900 Y-5.78720
X3.49000 Y-5.78720
X3.49000 Y-5.78820
X3.49100 Y-5.78820
X3.49100 Y-5.78920
X3.49200 Y-5.78920
X3.49200 Y-5.79020
X3.49300 Y-5.79020
X3.49300 Y-5.79120
X3.49400 Y-5.79120
X3.49400 Y-5.79220
X3.49500 Y-5.79220
X3.49500 Y-5.79320
X3.49600 Y-5.79320
X3.49600 Y-5.79420
X3.49700 Y-5.79420
X3.49700 Y-5.79520
X3.49800 Y-5.79520
X3.49800 Y-5.79620
X3.49900 Y-5.79620
X3.49900 Y-5.79720
X3.50000 Y-5.79720
X3.50000 Y-5.79820
X3.50100 Y-5.79820
X3.50100 Y-5.79920
X3.50200 Y-5.79920
X3.50200 Y-5.80020
X3.50300 Y-5.80020
X3.50300 Y-5.80120
X3.50400 Y-5.80120
X3.50400 Y-5.80220
X3.50500 Y-5.80220
X3.50500 Y-5.80320
X3.50600 Y-5.80320
X3.50600 Y-5.80420
X3.50700 Y-5.80420
X3.50700 Y-5.80520
X3.50800 Y-5.80520
X3.50800 Y-5.80620
X3.50900 Y-5.80620
X3.50900 Y-5.80720
X3.51000 Y-5.80720
X3.51000 Y-5.80820
X3.51100 Y-5.80820
X3.51100 Y-5.80920
X3.51200 Y-5.80920
X3.51200 Y-5.81020
X3.51300 Y-5.81020
X3.51300 Y-5.81120
X3.51400 Y-5.81120
X3.51400 Y-5.81220
X3.51500 Y-5.81220
X3.51500 Y-5.81320
X3.51600 Y-5.81320
X3.51600 Y-5.81420
X3.51700 Y-5.81420
X3.51700 Y-5.81520
X3.51800 Y-5.81520
X3.51800 Y-5.81620
X3.51900 Y-5.81620
X3.51900 Y-5.81720
X3.52000 Y-5.81720
X3.52000 Y-5.81820
X3.52100 Y-5.81820
X3.52100 Y-5.81920
X3.52200 Y-5.81920
X3.52200 Y-5.82020
X3.52300 Y-5.82020
X3.52300 Y-5.82120
X3.52400 Y-5.82120
X3.52400 Y-5.82220
X3.52500 Y-5.82220
X3.52500 Y-5.82320
X3.52600 Y-5.82320
X3.52600 Y-5.82420
X4.07000 Y-5.82420
X4.07000 Y-5.82320
X4.06900 Y-5.82320
X4.06900 Y-5.82220
X4.06800 Y-5.82220
X4.06800 Y-5.82120
X4.06700 Y-5.82120
X4.06700 Y-5.82020
X4.06600 Y-5.82020
X4.06600 Y-5.81920
X4.06500 Y-5.81920
X4.06500 Y-5.81820
X4.06400 Y-5.81820
X4.06400 Y-5.81720
X4.06300 Y-5.81720
X4.06300 Y-5.81620
X4.06200 Y-5.81620
X4.06200 Y-5.81520
X4.06100 Y-5.81520
X4.06100 Y-5.81420
X4.06000 Y-5.81420
X4.06000 Y-5.81320
X4.05900 Y-5.81320
X4.05900 Y-5.81220
X4.05800 Y-5.81220
X4.05800 Y-5.81120
X4.05700 Y-5.81120
X4.05700 Y-5.81020
X4.05600 Y-5.81020
X4.05600 Y-5.80920
X4.05500 Y-5.80920
X4.05500 Y-5.80820
X4.05400 Y-5.80820
X4.05400 Y-5.80720
X4.05300 Y-5.80720
X4.05300 Y-5.80620
X4.05200 Y-5.80620
X4.05200 Y-5.80520
X4.05100 Y-5.80520
X4.05100 Y-5.80420
X4.05000 Y-5.80420
X4.05000 Y-5.80320
X4.04900 Y-5.80320
X4.04900 Y-5.80220
X4.04800 Y-5.80220
X4.04800 Y-5.80120
X4.04700 Y-5.80120
X4.04700 Y-5.80020
X4.04600 Y-5.80020
X4.04600 Y-5.79920
X4.04500 Y-5.79920
X4.04500 Y-5.79820
X4.04400 Y-5.79820
X4.04400 Y-5.79720
X4.04300 Y-5.79720
X4.04300 Y-5.79620
X4.04200 Y-5.79620
X4.04200 Y-5.79520
X4.04100 Y-5.79520
X4.04100 Y-5.79420
X4.04000 Y-5.79420
X4.04000 Y-5.79320
X4.03900 Y-5.79320
X4.03900 Y-5.79220
X4.03800 Y-5.79220
X4.03800 Y-5.79120
X4.03700 Y-5.79120
X4.03700 Y-5.79020
X4.03600 Y-5.79020
X4.03600 Y-5.78920
X4.03500 Y-5.78920
X4.03500 Y-5.78820
X4.03400 Y-5.78820
X4.03400 Y-5.78720
X4.03300 Y-5.78720
X4.03300 Y-5.78620
X4.03200 Y-5.78620
X4.03200 Y-5.78520
X4.03100 Y-5.78520
X4.03100 Y-5.78420
X4.03000 Y-5.78420
X4.03000 Y-5.78320
X4.02900 Y-5.78320
X4.02900 Y-5.78220
X4.02800 Y-5.78220
X4.02800 Y-5.78120
X4.02700 Y-5.78120
X4.02700 Y-5.78020
X4.02600 Y-5.78020
X4.02600 Y-5.77920
X4.02500 Y-5.77920
X4.02500 Y-5.77820
X4.02400 Y-5.77820
X4.02400 Y-5.77720
X4.02300 Y-5.77720
X4.02300 Y-5.77620
X4.02200 Y-5.77620
X4.02200 Y-5.77520
X4.02100 Y-5.77520
X4.02100 Y-5.77420
X4.02000 Y-5.77420
X4.02000 Y-5.77320
X4.01900 Y-5.77320
X4.01900 Y-5.77220
X4.01800 Y-5.77220
X4.01800 Y-5.77120
X4.01700 Y-5.77120
X4.01700 Y-5.77020
X4.01600 Y-5.77020
X4.01600 Y-5.76920
X4.01500 Y-5.76920
X4.01500 Y-5.76820
X4.01400 Y-5.76820
X4.01400 Y-5.76720
X4.01300 Y-5.76720
X4.01300 Y-5.76620
X4.01200 Y-5.76620
X4.01200 Y-5.76520
X4.01100 Y-5.76520
X4.01100 Y-5.76420
X4.01000 Y-5.76420
X4.01000 Y-5.76320
X4.00900 Y-5.76320
X4.00900 Y-5.76220
X4.00800 Y-5.76220
X4.00800 Y-5.76120
X4.00700 Y-5.76120
X4.00700 Y-5.76020
X4.00600 Y-5.76020
X4.00600 Y-5.75920
X4.00500 Y-5.75920
X4.00500 Y-5.75820
X4.00400 Y-5.75820
X4.00400 Y-5.75720
X4.00300 Y-5.75720
X4.00300 Y-5.75620
X4.00200 Y-5.75620
X4.00200 Y-5.75520
X4.00100 Y-5.75520
X4.00100 Y-5.75420
X4.00000 Y-5.75420
X4.00000 Y-5.75320
X3.99900 Y-5.75320
X3.99900 Y-5.75220
X3.99800 Y-5.75220
X3.99800 Y-5.75120
X3.99700 Y-5.75120
X3.99700 Y-5.75020
X3.99600 Y-5.75020
X3.99600 Y-5.74920
X3.99500 Y-5.74920
X3.99500 Y-5.74820
X3.99400 Y-5.74820
X3.99400 Y-5.74720
X3.99300 Y-5.74720
X3.99300 Y-5.74620
X3.99200 Y-5.74620
X3.99200 Y-5.74520
X3.99100 Y-5.74520
X3.99100 Y-5.74420
X3.99000 Y-5.74420
X3.99000 Y-5.74320
X3.98900 Y-5.74320
X3.98900 Y-5.74220
X3.98800 Y-5.74220
X3.98800 Y-5.74120
X3.98700 Y-5.74120
X3.98700 Y-5.74020
X3.98600 Y-5.74020
X3.98600 Y-5.73920
X3.98500 Y-5.73920
X3.98500 Y-5.73820
X3.98400 Y-5.73820
X3.98400 Y-5.73720
X3.98300 Y-5.73720
X3.98300 Y-5.73620
X3.98200 Y-5.73620
X3.98200 Y-5.73520
X3.98100 Y-5.73520
X3.98100 Y-5.73420
X3.98000 Y-5.73420
X3.98000 Y-5.73320
X3.97900 Y-5.73320
X3.97900 Y-5.73220
X3.97800 Y-5.73220
X3.97800 Y-5.73120
X3.97700 Y-5.73120
X3.97700 Y-5.73020
X3.97600 Y-5.73020
X3.97600 Y-5.72920
X3.97500 Y-5.72920
X3.97500 Y-5.72820
X3.97400 Y-5.72820
X3.97400 Y-5.72720
X3.97300 Y-5.72720
X3.97300 Y-5.72620
X3.97200 Y-5.72620
X3.97200 Y-5.72520
X3.97100 Y-5.72520
X3.97100 Y-5.72420
X3.97000 Y-5.72420
X3.97000 Y-5.72320
X3.96900 Y-5.72320
X3.96900 Y-5.72220
X3.96800 Y-5.72220
X3.96800 Y-5.72120
X3.96700 Y-5.72120
X3.96700 Y-5.72020
X3.96600 Y-5.72020
X3.96600 Y-5.71920
X3.96500 Y-5.71920
X3.96500 Y-5.71820
X3.96400 Y-5.71820
X3.96400 Y-5.71720
X3.96300 Y-5.71720
X3.96300 Y-5.71620
X3.96200 Y-5.71620
X3.96200 Y-5.71520
X3.96100 Y-5.71520
X3.96100 Y-5.71420
X3.96000 Y-5.71420
X3.96000 Y-5.71320
X3.95900 Y-5.71320
X3.95900 Y-5.71220
X3.95800 Y-5.71220
X3.95800 Y-5.71120
X3.95700 Y-5.71120
X3.95700 Y-5.71020
X3.95600 Y-5.71020
X3.95600 Y-5.70920
X3.95500 Y-5.70920
X3.95500 Y-5.70820
X3.95400 Y-5.70820
X3.95400 Y-5.70720
X3.95300 Y-5.70720
X3.95300 Y-5.70620
X3.95200 Y-5.70620
X3.95200 Y-5.70520
X3.95100 Y-5.70520
X3.95100 Y-5.70420
X3.95000 Y-5.70420
X3.95000 Y-5.70320
X3.94900 Y-5.70320
X3.94900 Y-5.70220
X3.94800 Y-5.70220
X3.94800 Y-5.70120
X3.94700 Y-5.70120
X3.94700 Y-5.70020
X3.94600 Y-5.70020
X3.94600 Y-5.69920
X3.94500 Y-5.69920
X3.94500 Y-5.69820
X3.94400 Y-5.69820
X3.94400 Y-5.69720
X3.94300 Y-5.69720
X3.94300 Y-5.69620
X3.94200 Y-5.69620
X3.94200 Y-5.69520
X3.94100 Y-5.69520
X3.94100 Y-5.69420
X3.94000 Y-5.69420
X3.94000 Y-5.69320
X3.93900 Y-5.69320
X3.93900 Y-5.69220
X3.93800 Y-5.69220
X3.93800 Y-5.69120
X3.93700 Y-5.69120
X3.93700 Y-5.69020
X3.93600 Y-5.69020
X3.93600 Y-5.68920
X3.93500 Y-5.68920
X3.93500 Y-5.68720
X3.93400 Y-5.68720
X3.93400 Y-5.68420
X3.93300 Y-5.68420
X3.93300 Y-5.45920
X3.93200 Y-5.45920
X3.93200 Y-5.45820
X3.93100 Y-5.45820
X3.93100 Y-5.45720
X3.93000 Y-5.45720
X3.93000 Y-5.45620
X3.92900 Y-5.45620
X3.92900 Y-5.45520
X3.92800 Y-5.45520
X3.92800 Y-5.45420
X3.92700 Y-5.45420
X3.92700 Y-5.45320
X3.92600 Y-5.45320
X3.92600 Y-5.45220
X3.92500 Y-5.45220
X3.92500 Y-5.45120
X3.92400 Y-5.45120
X3.92400 Y-5.45020
X3.92300 Y-5.45020
X3.92300 Y-5.44920
X3.92200 Y-5.44920
X3.92200 Y-5.44820
X3.92100 Y-5.44820
X3.92100 Y-5.44720
X3.92000 Y-5.44720
X3.92000 Y-5.44620
X3.91900 Y-5.44620
X3.91900 Y-5.44520
X3.91800 Y-5.44520
X3.91800 Y-5.44420
X3.91700 Y-5.44420
X3.91700 Y-5.44320
X3.91600 Y-5.44320
X3.91600 Y-5.44220
X3.91500 Y-5.44220
X3.91500 Y-5.44120
X3.91400 Y-5.44120
X3.91400 Y-5.44020
X3.91300 Y-5.44020
X3.91300 Y-5.43920
X3.91200 Y-5.43920
X3.91200 Y-5.43820
X3.91100 Y-5.43820
X3.91100 Y-5.43720
X3.91000 Y-5.43720
X3.91000 Y-5.43620
X3.90900 Y-5.43620
X3.90900 Y-5.43520
X3.90800 Y-5.43520
X3.90800 Y-5.43420
X3.90700 Y-5.43420
X3.90700 Y-5.43320
X3.90600 Y-5.43320
X3.90600 Y-5.43220
X3.90500 Y-5.43220
X3.90500 Y-5.43120
X3.90400 Y-5.43120
X3.90400 Y-5.43020
X3.90300 Y-5.43020
X3.90300 Y-5.42920
X3.90200 Y-5.42920
X3.90200 Y-5.42820
X3.90100 Y-5.42820
X3.90100 Y-5.42720
X3.90000 Y-5.42720
X3.90000 Y-5.42620
X3.85900 Y-5.42620
X3.85900 Y-5.46220
X3.81900 Y-5.46220
X3.81900 Y-5.36120
X3.85900 Y-5.36120
X3.85900 Y-5.39720
X3.90700 Y-5.39720
X3.90700 Y-5.39820
X3.91100 Y-5.39820
X3.91100 Y-5.39920
X3.91300 Y-5.39920
X3.91300 Y-5.40020
X3.91400 Y-5.40020
X3.91400 Y-5.40120
X3.91600 Y-5.40120
X3.91600 Y-5.40220
X3.91700 Y-5.40220
X3.91700 Y-5.40320
X3.91800 Y-5.40320
X3.91800 Y-5.40420
X3.91900 Y-5.40420
X3.91900 Y-5.40520
X3.92000 Y-5.40520
X3.92000 Y-5.40620
X3.92100 Y-5.40620
X3.92100 Y-5.40720
X3.92200 Y-5.40720
X3.92200 Y-5.40820
X3.92300 Y-5.40820
X3.92300 Y-5.40920
X3.92400 Y-5.40920
X3.92400 Y-5.41020
X3.92500 Y-5.41020
X3.92500 Y-5.41120
X3.92600 Y-5.41120
X3.92600 Y-5.41220
X3.92700 Y-5.41220
X3.92700 Y-5.41320
X3.92800 Y-5.41320
X3.92800 Y-5.41420
X3.92900 Y-5.41420
X3.92900 Y-5.41520
X3.93000 Y-5.41520
X3.93000 Y-5.41620
X3.93100 Y-5.41620
X3.93100 Y-5.41720
X3.93200 Y-5.41720
X3.93200 Y-5.41820
X3.93300 Y-5.41820
X3.93300 Y-5.41920
X3.93400 Y-5.41920
X3.93400 Y-5.42020
X3.93500 Y-5.42020
X3.93500 Y-5.42120
X3.93600 Y-5.42120
X3.93600 Y-5.42220
X3.93700 Y-5.42220
X3.93700 Y-5.42320
X3.93800 Y-5.42320
X3.93800 Y-5.42420
X3.93900 Y-5.42420
X3.93900 Y-5.42520
X3.94000 Y-5.42520
X3.94000 Y-5.42620
X3.94100 Y-5.42620
X3.94100 Y-5.42720
X3.94200 Y-5.42720
X3.94200 Y-5.42820
X3.94300 Y-5.42820
X3.94300 Y-5.42920
X3.94400 Y-5.42920
X3.94400 Y-5.43020
X3.94500 Y-5.43020
X3.94500 Y-5.43120
X3.94600 Y-5.43120
X3.94600 Y-5.43220
X3.94700 Y-5.43220
X3.94700 Y-5.43320
X3.94800 Y-5.43320
X3.94800 Y-5.43420
X3.94900 Y-5.43420
X3.94900 Y-5.43520
X3.95000 Y-5.43520
X3.95000 Y-5.43620
X3.95100 Y-5.43620
X3.95100 Y-5.43720
X3.95200 Y-5.43720
X3.95200 Y-5.43820
X3.95300 Y-5.43820
X3.95300 Y-5.43920
X3.95400 Y-5.43920
X3.95400 Y-5.44020
X3.95500 Y-5.44020
X3.95500 Y-5.44120
X3.95600 Y-5.44120
X3.95600 Y-5.44220
X3.95700 Y-5.44220
X3.95700 Y-5.44320
X3.95800 Y-5.44320
X3.95800 Y-5.44420
X3.95900 Y-5.44420
X3.95900 Y-5.44720
X3.96000 Y-5.44720
X3.96000 Y-5.45020
X3.96100 Y-5.45020
X3.96100 Y-5.67420
X3.96200 Y-5.67420
X3.96200 Y-5.67520
X3.96300 Y-5.67520
X3.96300 Y-5.67620
X3.96400 Y-5.67620
X3.96400 Y-5.67720
X3.96500 Y-5.67720
X3.96500 Y-5.67820
X3.96600 Y-5.67820
X3.96600 Y-5.67920
X3.96700 Y-5.67920
X3.96700 Y-5.68020
X3.96800 Y-5.68020
X3.96800 Y-5.68120
X3.96900 Y-5.68120
X3.96900 Y-5.68220
X3.97000 Y-5.68220
X3.97000 Y-5.68320
X3.97100 Y-5.68320
X3.97100 Y-5.68420
X3.97200 Y-5.68420
X3.97200 Y-5.68520
X3.97300 Y-5.68520
X3.97300 Y-5.68620
X3.97400 Y-5.68620
X3.97400 Y-5.68720
X3.97500 Y-5.68720
X3.97500 Y-5.68820
X3.97600 Y-5.68820
X3.97600 Y-5.68920
X3.97700 Y-5.68920
X3.97700 Y-5.69020
X3.97800 Y-5.69020
X3.97800 Y-5.69120
X3.97900 Y-5.69120
X3.97900 Y-5.69220
X3.98000 Y-5.69220
X3.98000 Y-5.69320
X3.98100 Y-5.69320
X3.98100 Y-5.69420
X3.98200 Y-5.69420
X3.98200 Y-5.69520
X3.98300 Y-5.69520
X3.98300 Y-5.69620
X3.98400 Y-5.69620
X3.98400 Y-5.69720
X3.98500 Y-5.69720
X3.98500 Y-5.69820
X3.98600 Y-5.69820
X3.98600 Y-5.69920
X3.98700 Y-5.69920
X3.98700 Y-5.70020
X3.98800 Y-5.70020
X3.98800 Y-5.70120
X3.98900 Y-5.70120
X3.98900 Y-5.70220
X3.99000 Y-5.70220
X3.99000 Y-5.70320
X3.99100 Y-5.70320
X3.99100 Y-5.70420
X3.99200 Y-5.70420
X3.99200 Y-5.70520
X3.99300 Y-5.70520
X3.99300 Y-5.70620
X3.99400 Y-5.70620
X3.99400 Y-5.70720
X3.99500 Y-5.70720
X3.99500 Y-5.70820
X3.99600 Y-5.70820
X3.99600 Y-5.70920
X3.99700 Y-5.70920
X3.99700 Y-5.71020
X3.99800 Y-5.71020
X3.99800 Y-5.71120
X3.99900 Y-5.71120
X3.99900 Y-5.71220
X4.00000 Y-5.71220
X4.00000 Y-5.71320
X4.00100 Y-5.71320
X4.00100 Y-5.71420
X4.00200 Y-5.71420
X4.00200 Y-5.71520
X4.00300 Y-5.71520
X4.00300 Y-5.71620
X4.00400 Y-5.71620
X4.00400 Y-5.71720
X4.00500 Y-5.71720
X4.00500 Y-5.71820
X4.00600 Y-5.71820
X4.00600 Y-5.71920
X4.00700 Y-5.71920
X4.00700 Y-5.72020
X4.00800 Y-5.72020
X4.00800 Y-5.72120
X4.00900 Y-5.72120
X4.00900 Y-5.72220
X4.01000 Y-5.72220
X4.01000 Y-5.72320
X4.01100 Y-5.72320
X4.01100 Y-5.72420
X4.01200 Y-5.72420
X4.01200 Y-5.72520
X4.01300 Y-5.72520
X4.01300 Y-5.72620
X4.01400 Y-5.72620
X4.01400 Y-5.72720
X4.01500 Y-5.72720
X4.01500 Y-5.72820
X4.01600 Y-5.72820
X4.01600 Y-5.72920
X4.01700 Y-5.72920
X4.01700 Y-5.73020
X4.01800 Y-5.73020
X4.01800 Y-5.73120
X4.01900 Y-5.73120
X4.01900 Y-5.73220
X4.02000 Y-5.73220
X4.02000 Y-5.73320
X4.02100 Y-5.73320
X4.02100 Y-5.73420
X4.02200 Y-5.73420
X4.02200 Y-5.73520
X4.02300 Y-5.73520
X4.02300 Y-5.73620
X4.02400 Y-5.73620
X4.02400 Y-5.73720
X4.02500 Y-5.73720
X4.02500 Y-5.73820
X4.02600 Y-5.73820
X4.02600 Y-5.73920
X4.02700 Y-5.73920
X4.02700 Y-5.74020
X4.02800 Y-5.74020
X4.02800 Y-5.74120
X4.02900 Y-5.74120
X4.02900 Y-5.74220
X4.03000 Y-5.74220
X4.03000 Y-5.74320
X4.03100 Y-5.74320
X4.03100 Y-5.74420
X4.03200 Y-5.74420
X4.03200 Y-5.74520
X4.03300 Y-5.74520
X4.03300 Y-5.74620
X4.03400 Y-5.74620
X4.03400 Y-5.74720
X4.03500 Y-5.74720
X4.03500 Y-5.74820
X4.03600 Y-5.74820
X4.03600 Y-5.74920
X4.03700 Y-5.74920
X4.03700 Y-5.75020
X4.03800 Y-5.75020
X4.03800 Y-5.75120
X4.03900 Y-5.75120
X4.03900 Y-5.75220
X4.04000 Y-5.75220
X4.04000 Y-5.75320
X4.04100 Y-5.75320
X4.04100 Y-5.75420
X4.04200 Y-5.75420
X4.04200 Y-5.75520
X4.04300 Y-5.75520
X4.04300 Y-5.75620
X4.04400 Y-5.75620
X4.04400 Y-5.75720
X4.04500 Y-5.75720
X4.04500 Y-5.75820
X4.04600 Y-5.75820
X4.04600 Y-5.75920
X4.04700 Y-5.75920
X4.04700 Y-5.76020
X4.04800 Y-5.76020
X4.04800 Y-5.76120
X4.04900 Y-5.76120
X4.04900 Y-5.76220
X4.05000 Y-5.76220
X4.05000 Y-5.76320
X4.05100 Y-5.76320
X4.05100 Y-5.76420
X4.05200 Y-5.76420
X4.05200 Y-5.76520
X4.05300 Y-5.76520
X4.05300 Y-5.76620
X4.05400 Y-5.76620
X4.05400 Y-5.76720
X4.05500 Y-5.76720
X4.05500 Y-5.76820
X4.05600 Y-5.76820
X4.05600 Y-5.76920
X4.05700 Y-5.76920
X4.05700 Y-5.77020
X4.05800 Y-5.77020
X4.05800 Y-5.77120
X4.05900 Y-5.77120
X4.05900 Y-5.77220
X4.06000 Y-5.77220
X4.06000 Y-5.77320
X4.06100 Y-5.77320
X4.06100 Y-5.77420
X4.06200 Y-5.77420
X4.06200 Y-5.77520
X4.06300 Y-5.77520
X4.06300 Y-5.77620
X4.06400 Y-5.77620
X4.06400 Y-5.77720
X4.06500 Y-5.77720
X4.06500 Y-5.77820
X4.06600 Y-5.77820
X4.06600 Y-5.77920
X4.06700 Y-5.77920
X4.06700 Y-5.78020
X4.06800 Y-5.78020
X4.06800 Y-5.78120
X4.06900 Y-5.78120
X4.06900 Y-5.78220
X4.07000 Y-5.78220
X4.07000 Y-5.78320
X4.07100 Y-5.78320
X4.07100 Y-5.78420
X4.07200 Y-5.78420
X4.07200 Y-5.78520
X4.07300 Y-5.78520
X4.07300 Y-5.78620
X4.07400 Y-5.78620
X4.07400 Y-5.78720
X4.07500 Y-5.78720
X4.07500 Y-5.78820
X4.07600 Y-5.78820
X4.07600 Y-5.78920
X4.07700 Y-5.78920
X4.07700 Y-5.79020
X4.07800 Y-5.79020
X4.07800 Y-5.79120
X4.07900 Y-5.79120
X4.07900 Y-5.79220
X4.08000 Y-5.79220
X4.08000 Y-5.79320
X4.08100 Y-5.79320
X4.08100 Y-5.79420
X4.08200 Y-5.79420
X4.08200 Y-5.79520
X4.08300 Y-5.79520
X4.08300 Y-5.79620
X4.08400 Y-5.79620
X4.08400 Y-5.79720
X4.08500 Y-5.79720
X4.08500 Y-5.79820
X4.08600 Y-5.79820
X4.08600 Y-5.79920
X4.08700 Y-5.79920
X4.08700 Y-5.80020
X4.08800 Y-5.80020
X4.08800 Y-5.80120
X4.08900 Y-5.80120
X4.08900 Y-5.80220
X4.09000 Y-5.80220
X4.09000 Y-5.80320
X4.09100 Y-5.80320
X4.09100 Y-5.80420
X4.09200 Y-5.80420
X4.09200 Y-5.80520
X4.09300 Y-5.80520
X4.09300 Y-5.80620
X4.09400 Y-5.80620
X4.09400 Y-5.80720
X4.09500 Y-5.80720
X4.09500 Y-5.80820
X4.09600 Y-5.80820
X4.09600 Y-5.80920
X4.09700 Y-5.80920
X4.09700 Y-5.81020
X4.09800 Y-5.81020
X4.09800 Y-5.81120
X4.09900 Y-5.81120
X4.09900 Y-5.81220
X4.10000 Y-5.81220
X4.10000 Y-5.81320
X4.10100 Y-5.81320
X4.10100 Y-5.81420
X4.10200 Y-5.81420
X4.10200 Y-5.81520
X4.10300 Y-5.81520
X4.10300 Y-5.81620
X4.10400 Y-5.81620
X4.10400 Y-5.81720
X4.10500 Y-5.81720
X4.10500 Y-5.81820
X4.10600 Y-5.81820
X4.10600 Y-5.81920
X4.10700 Y-5.81920
X4.10700 Y-5.82020
X4.10800 Y-5.82020
X4.10800 Y-5.82120
X4.10900 Y-5.82120
X4.10900 Y-5.82220
X4.11000 Y-5.82220
X4.11000 Y-5.82320
X4.11100 Y-5.82320
X4.11100 Y-5.82420
X4.63800 Y-5.82420
X4.63800 Y-5.82320
X4.63700 Y-5.82320
X4.63700 Y-5.82220
X4.63600 Y-5.82220
X4.63600 Y-5.82120
X4.63500 Y-5.82120
X4.63500 Y-5.82020
X4.63400 Y-5.82020
X4.63400 Y-5.81920
X4.63300 Y-5.81920
X4.63300 Y-5.81820
X4.63200 Y-5.81820
X4.63200 Y-5.81720
X4.63100 Y-5.81720
X4.63100 Y-5.81620
X4.63000 Y-5.81620
X4.63000 Y-5.81520
X4.62900 Y-5.81520
X4.62900 Y-5.81420
X4.62800 Y-5.81420
X4.62800 Y-5.81320
X4.62700 Y-5.81320
X4.62700 Y-5.81220
X4.62600 Y-5.81220
X4.62600 Y-5.81120
X4.62500 Y-5.81120
X4.62500 Y-5.81020
X4.62400 Y-5.81020
X4.62400 Y-5.80920
X4.62300 Y-5.80920
X4.62300 Y-5.80820
X4.62200 Y-5.80820
X4.62200 Y-5.80720
X4.62100 Y-5.80720
X4.62100 Y-5.80620
X4.62000 Y-5.80620
X4.62000 Y-5.80520
X4.61900 Y-5.80520
X4.61900 Y-5.80420
X4.61800 Y-5.80420
X4.61800 Y-5.80320
X4.61700 Y-5.80320
X4.61700 Y-5.80220
X4.61600 Y-5.80220
X4.61600 Y-5.80120
X4.61500 Y-5.80120
X4.61500 Y-5.80020
X4.61400 Y-5.80020
X4.61400 Y-5.79920
X4.61300 Y-5.79920
X4.61300 Y-5.79820
X4.61200 Y-5.79820
X4.61200 Y-5.79720
X4.61100 Y-5.79720
X4.61100 Y-5.79620
X4.61000 Y-5.79620
X4.61000 Y-5.79520
X4.60900 Y-5.79520
X4.60900 Y-5.79420
X4.60800 Y-5.79420
X4.60800 Y-5.79320
X4.60700 Y-5.79320
X4.60700 Y-5.79220
X4.60600 Y-5.79220
X4.60600 Y-5.79120
X4.60500 Y-5.79120
X4.60500 Y-5.79020
X4.60400 Y-5.79020
X4.60400 Y-5.78920
X4.60300 Y-5.78920
X4.60300 Y-5.78820
X4.60200 Y-5.78820
X4.60200 Y-5.78720
X4.60100 Y-5.78720
X4.60100 Y-5.78620
X4.60000 Y-5.78620
X4.60000 Y-5.78520
X4.59900 Y-5.78520
X4.59900 Y-5.78420
X4.59800 Y-5.78420
X4.59800 Y-5.78320
X4.59700 Y-5.78320
X4.59700 Y-5.78220
X4.59600 Y-5.78220
X4.59600 Y-5.78120
X4.59500 Y-5.78120
X4.59500 Y-5.78020
X4.59400 Y-5.78020
X4.59400 Y-5.77920
X4.59300 Y-5.77920
X4.59300 Y-5.77820
X4.59200 Y-5.77820
X4.59200 Y-5.77720
X4.59100 Y-5.77720
X4.59100 Y-5.77620
X4.59000 Y-5.77620
X4.59000 Y-5.77520
X4.58900 Y-5.77520
X4.58900 Y-5.77420
X4.58800 Y-5.77420
X4.58800 Y-5.77320
X4.58700 Y-5.77320
X4.58700 Y-5.77220
X4.58600 Y-5.77220
X4.58600 Y-5.77120
X4.58500 Y-5.77120
X4.58500 Y-5.77020
X4.58400 Y-5.77020
X4.58400 Y-5.76920
X4.58300 Y-5.76920
X4.58300 Y-5.76820
X4.58200 Y-5.76820
X4.58200 Y-5.76720
X4.58100 Y-5.76720
X4.58100 Y-5.76620
X4.58000 Y-5.76620
X4.58000 Y-5.76520
X4.57900 Y-5.76520
X4.57900 Y-5.76420
X4.57800 Y-5.76420
X4.57800 Y-5.76320
X4.57700 Y-5.76320
X4.57700 Y-5.76220
X4.57600 Y-5.76220
X4.57600 Y-5.76120
X4.57500 Y-5.76120
X4.57500 Y-5.76020
X4.57400 Y-5.76020
X4.57400 Y-5.75920
X4.57300 Y-5.75920
X4.57300 Y-5.75820
X4.57200 Y-5.75820
X4.57200 Y-5.75720
X4.57100 Y-5.75720
X4.57100 Y-5.75620
X4.57000 Y-5.75620
X4.57000 Y-5.75520
X4.56900 Y-5.75520
X4.56900 Y-5.75420
X4.56800 Y-5.75420
X4.56800 Y-5.75320
X4.56700 Y-5.75320
X4.56700 Y-5.75220
X4.56600 Y-5.75220
X4.56600 Y-5.75120
X4.56500 Y-5.75120
X4.56500 Y-5.75020
X4.56400 Y-5.75020
X4.56400 Y-5.74920
X4.56300 Y-5.74920
X4.56300 Y-5.74820
X4.56200 Y-5.74820
X4.56200 Y-5.74720
X4.56100 Y-5.74720
X4.56100 Y-5.74620
X4.56000 Y-5.74620
X4.56000 Y-5.74520
X4.55900 Y-5.74520
X4.55900 Y-5.74420
X4.55800 Y-5.74420
X4.55800 Y-5.74320
X4.55700 Y-5.74320
X4.55700 Y-5.74220
X4.55600 Y-5.74220
X4.55600 Y-5.74120
X4.55500 Y-5.74120
X4.55500 Y-5.74020
X4.55400 Y-5.74020
X4.55400 Y-5.73920
X4.55300 Y-5.73920
X4.55300 Y-5.73820
X4.55200 Y-5.73820
X4.55200 Y-5.73720
X4.55100 Y-5.73720
X4.55100 Y-5.73620
X4.55000 Y-5.73620
X4.55000 Y-5.73520
X4.54900 Y-5.73520
X4.54900 Y-5.73420
X4.54800 Y-5.73420
X4.54800 Y-5.73320
X4.54700 Y-5.73320
X4.54700 Y-5.73220
X4.54600 Y-5.73220
X4.54600 Y-5.73120
X4.54500 Y-5.73120
X4.54500 Y-5.73020
X4.54400 Y-5.73020
X4.54400 Y-5.72920
X4.54300 Y-5.72920
X4.54300 Y-5.72820
X4.54200 Y-5.72820
X4.54200 Y-5.72720
X4.54100 Y-5.72720
X4.54100 Y-5.72620
X4.54000 Y-5.72620
X4.54000 Y-5.72520
X4.53900 Y-5.72520
X4.53900 Y-5.72420
X4.53800 Y-5.72420
X4.53800 Y-5.72320
X4.53700 Y-5.72320
X4.53700 Y-5.72220
X4.53600 Y-5.72220
X4.53600 Y-5.72120
X4.53500 Y-5.72120
X4.53500 Y-5.72020
X4.53400 Y-5.72020
X4.53400 Y-5.71920
X4.53300 Y-5.71920
X4.53300 Y-5.71820
X4.53200 Y-5.71820
X4.53200 Y-5.71720
X4.53100 Y-5.71720
X4.53100 Y-5.71620
X4.53000 Y-5.71620
X4.53000 Y-5.71520
X4.52900 Y-5.71520
X4.52900 Y-5.71420
X4.52800 Y-5.71420
X4.52800 Y-5.71320
X4.52700 Y-5.71320
X4.52700 Y-5.71220
X4.52600 Y-5.71220
X4.52600 Y-5.71120
X4.52500 Y-5.71120
X4.52500 Y-5.71020
X4.52400 Y-5.71020
X4.52400 Y-5.70920
X4.52300 Y-5.70920
X4.52300 Y-5.70820
X4.52200 Y-5.70820
X4.52200 Y-5.70720
X4.52100 Y-5.70720
X4.52100 Y-5.70620
X4.52000 Y-5.70620
X4.52000 Y-5.70520
X4.51900 Y-5.70520
X4.51900 Y-5.70420
X4.51800 Y-5.70420
X4.51800 Y-5.70220
X4.51700 Y-5.70220
X4.51700 Y-5.70020
X4.51600 Y-5.70020
X4.51600 Y-5.47520
X4.51500 Y-5.47520
X4.51500 Y-5.47420
X4.51400 Y-5.47420
X4.51400 Y-5.47320
X4.51300 Y-5.47320
X4.51300 Y-5.47220
X4.51200 Y-5.47220
X4.51200 Y-5.47120
X4.51100 Y-5.47120
X4.51100 Y-5.47020
X4.51000 Y-5.47020
X4.51000 Y-5.46920
X4.50900 Y-5.46920
X4.50900 Y-5.46820
X4.50800 Y-5.46820
X4.50800 Y-5.46720
X4.50700 Y-5.46720
X4.50700 Y-5.46620
X4.50600 Y-5.46620
X4.50600 Y-5.46520
X4.50500 Y-5.46520
X4.50500 Y-5.46420
X4.50400 Y-5.46420
X4.50400 Y-5.46320
X4.50300 Y-5.46320
X4.50300 Y-5.46220
X4.50200 Y-5.46220
X4.50200 Y-5.46120
X4.50100 Y-5.46120
X4.50100 Y-5.46020
X4.50000 Y-5.46020
X4.50000 Y-5.45920
X4.49900 Y-5.45920
X4.49900 Y-5.45820
X4.49800 Y-5.45820
X4.49800 Y-5.45720
X4.49700 Y-5.45720
X4.49700 Y-5.45620
X4.49600 Y-5.45620
X4.49600 Y-5.45520
X4.49500 Y-5.45520
X4.49500 Y-5.45420
X4.49400 Y-5.45420
X4.49400 Y-5.45320
X4.49300 Y-5.45320
X4.49300 Y-5.45220
X4.49200 Y-5.45220
X4.49200 Y-5.45120
X4.49100 Y-5.45120
X4.49100 Y-5.45020
X4.49000 Y-5.45020
X4.49000 Y-5.44920
X4.48900 Y-5.44920
X4.48900 Y-5.44820
X4.48800 Y-5.44820
X4.48800 Y-5.44720
X4.48700 Y-5.44720
X4.48700 Y-5.44620
X4.48600 Y-5.44620
X4.48600 Y-5.44520
X4.48500 Y-5.44520
X4.48500 Y-5.44420
X4.48400 Y-5.44420
X4.48400 Y-5.44320
X4.48300 Y-5.44320
X4.48300 Y-5.44220
X4.48200 Y-5.44220
X4.48200 Y-5.44120
X4.48100 Y-5.44120
X4.48100 Y-5.44020
X4.48000 Y-5.44020
X4.48000 Y-5.43920
X4.47900 Y-5.43920
X4.47900 Y-5.43820
X4.47800 Y-5.43820
X4.47800 Y-5.43720
X4.47700 Y-5.43720
X4.47700 Y-5.43620
X4.47600 Y-5.43620
X4.47600 Y-5.43520
X4.47500 Y-5.43520
X4.47500 Y-5.43420
X4.47400 Y-5.43420
X4.47400 Y-5.43320
X4.47300 Y-5.43320
X4.47300 Y-5.43220
X4.47200 Y-5.43220
X4.47200 Y-5.43120
X4.47100 Y-5.43120
X4.47100 Y-5.43020
X4.47000 Y-5.43020
X4.47000 Y-5.42920
X4.46900 Y-5.42920
X4.46900 Y-5.42820
X4.46800 Y-5.42820
X4.46800 Y-5.42720
X4.46700 Y-5.42720
X4.46700 Y-5.42620
X4.46600 Y-5.42620
X4.46600 Y-5.42520
X4.46500 Y-5.42520
X4.46500 Y-5.42420
X4.46400 Y-5.42420
X4.46400 Y-5.42320
X4.46300 Y-5.42320
X4.46300 Y-5.42220
X4.46200 Y-5.42220
X4.46200 Y-5.42120
X4.46100 Y-5.42120
X4.46100 Y-5.42020
X4.41000 Y-5.42020
X4.41000 Y-5.46220
X4.37000 Y-5.46220
X4.37000 Y-5.36120
X4.41000 Y-5.36120
X4.41000 Y-5.40320
X4.46600 Y-5.40320
X4.46600 Y-5.40420
X4.46800 Y-5.40420
X4.46800 Y-5.40520
X4.47000 Y-5.40520
X4.47000 Y-5.40620
X4.47200 Y-5.40620
X4.47200 Y-5.40720
X4.47300 Y-5.40720
X4.47300 Y-5.40820
X4.47400 Y-5.40820
X4.47400 Y-5.40920
X4.47500 Y-5.40920
X4.47500 Y-5.41020
X4.47600 Y-5.41020
X4.47600 Y-5.41120
X4.47700 Y-5.41120
X4.47700 Y-5.41220
X4.47800 Y-5.41220
X4.47800 Y-5.41320
X4.47900 Y-5.41320
X4.47900 Y-5.41420
X4.48000 Y-5.41420
X4.48000 Y-5.41520
X4.48100 Y-5.41520
X4.48100 Y-5.41620
X4.48200 Y-5.41620
X4.48200 Y-5.41720
X4.48300 Y-5.41720
X4.48300 Y-5.41820
X4.48400 Y-5.41820
X4.48400 Y-5.41920
X4.48500 Y-5.41920
X4.48500 Y-5.42020
X4.48600 Y-5.42020
X4.48600 Y-5.42120
X4.48700 Y-5.42120
X4.48700 Y-5.42220
X4.48800 Y-5.42220
X4.48800 Y-5.42320
X4.48900 Y-5.42320
X4.48900 Y-5.42420
X4.49000 Y-5.42420
X4.49000 Y-5.42520
X4.49100 Y-5.42520
X4.49100 Y-5.42620
X4.49200 Y-5.42620
X4.49200 Y-5.42720
X4.49300 Y-5.42720
X4.49300 Y-5.42820
X4.49400 Y-5.42820
X4.49400 Y-5.42920
X4.49500 Y-5.42920
X4.49500 Y-5.43020
X4.49600 Y-5.43020
X4.49600 Y-5.43120
X4.49700 Y-5.43120
X4.49700 Y-5.43220
X4.49800 Y-5.43220
X4.49800 Y-5.43320
X4.49900 Y-5.43320
X4.49900 Y-5.43420
X4.50000 Y-5.43420
X4.50000 Y-5.43520
X4.50100 Y-5.43520
X4.50100 Y-5.43620
X4.50200 Y-5.43620
X4.50200 Y-5.43720
X4.50300 Y-5.43720
X4.50300 Y-5.43820
X4.50400 Y-5.43820
X4.50400 Y-5.43920
X4.50500 Y-5.43920
X4.50500 Y-5.44020
X4.50600 Y-5.44020
X4.50600 Y-5.44120
X4.50700 Y-5.44120
X4.50700 Y-5.44220
X4.50800 Y-5.44220
X4.50800 Y-5.44320
X4.50900 Y-5.44320
X4.50900 Y-5.44420
X4.51000 Y-5.44420
X4.51000 Y-5.44520
X4.51100 Y-5.44520
X4.51100 Y-5.44620
X4.51200 Y-5.44620
X4.51200 Y-5.44720
X4.51300 Y-5.44720
X4.51300 Y-5.44820
X4.51400 Y-5.44820
X4.51400 Y-5.44920
X4.51500 Y-5.44920
X4.51500 Y-5.41520
X4.51600 Y-5.41520
X4.51600 Y-5.41320
X4.51700 Y-5.41320
X4.51700 Y-5.41120
X4.51800 Y-5.41120
X4.51800 Y-5.41020
X4.51900 Y-5.41020
X4.51900 Y-5.40920
X4.52000 Y-5.40920
X4.52000 Y-5.40820
X4.52100 Y-5.40820
X4.52100 Y-5.40720
X4.52200 Y-5.40720
X4.52200 Y-5.40620
X4.52300 Y-5.40620
X4.52300 Y-5.40520
X4.52400 Y-5.40520
X4.52400 Y-5.40420
X4.52500 Y-5.40420
X4.52500 Y-5.40320
X4.52600 Y-5.40320
X4.52600 Y-5.40220
X4.52700 Y-5.40220
X4.52700 Y-5.40120
X4.52800 Y-5.40120
X4.52800 Y-5.40020
X4.52900 Y-5.40020
X4.52900 Y-5.39920
X4.53000 Y-5.39920
X4.53000 Y-5.39820
X4.53100 Y-5.39820
X4.53100 Y-5.39720
X4.53200 Y-5.39720
X4.53200 Y-5.39620
X4.53300 Y-5.39620
X4.53300 Y-5.39520
X4.53400 Y-5.39520
X4.53400 Y-5.39420
X4.53500 Y-5.39420
X4.53500 Y-5.39320
X4.53600 Y-5.39320
X4.53600 Y-5.39220
X4.53700 Y-5.39220
X4.53700 Y-5.39120
X4.53800 Y-5.39120
X4.53800 Y-5.39020
X4.53900 Y-5.39020
X4.53900 Y-5.38920
X4.54000 Y-5.38920
X4.54000 Y-5.38820
X4.54100 Y-5.38820
X4.54100 Y-5.38720
X4.54200 Y-5.38720
X4.54200 Y-5.38620
X4.54300 Y-5.38620
X4.54300 Y-5.38520
X4.54400 Y-5.38520
X4.54400 Y-5.38420
X4.54500 Y-5.38420
X4.54500 Y-5.38320
X4.54600 Y-5.38320
X4.54600 Y-5.38220
X4.54700 Y-5.38220
X4.54700 Y-5.38120
X4.54800 Y-5.38120
X4.54800 Y-5.38020
X4.54900 Y-5.38020
X4.54900 Y-5.37920
X4.55000 Y-5.37920
X4.55000 Y-5.37820
X4.55100 Y-5.37820
X4.55100 Y-5.37720
X4.55200 Y-5.37720
X4.55200 Y-5.37620
X4.55300 Y-5.37620
X4.55300 Y-5.37520
X4.55400 Y-5.37520
X4.55400 Y-5.37420
X4.55500 Y-5.37420
X4.55500 Y-5.37320
X4.55600 Y-5.37320
X4.55600 Y-5.37220
X4.55700 Y-5.37220
X4.55700 Y-5.37120
X4.55800 Y-5.37120
X4.55800 Y-5.37020
X4.55900 Y-5.37020
X4.55900 Y-5.36920
X4.56000 Y-5.36920
X4.56000 Y-5.36820
X4.56100 Y-5.36820
X4.56100 Y-5.36720
X4.56200 Y-5.36720
X4.56200 Y-5.36620
X4.56300 Y-5.36620
X4.56300 Y-5.36520
X4.56400 Y-5.36520
X4.56400 Y-5.36420
X4.56500 Y-5.36420
X4.56500 Y-5.36320
X4.56600 Y-5.36320
X4.56600 Y-5.36220
X4.56700 Y-5.36220
X4.56700 Y-5.36120
X4.56800 Y-5.36120
X4.56800 Y-5.36020
X4.56900 Y-5.36020
X4.56900 Y-5.35920
X4.57000 Y-5.35920
X4.57000 Y-5.35820
X4.57100 Y-5.35820
X4.57100 Y-5.35720
X4.57200 Y-5.35720
X4.57200 Y-5.35620
X4.57300 Y-5.35620
X4.57300 Y-5.35520
X4.57400 Y-5.35520
X4.57400 Y-5.35420
X4.57500 Y-5.35420
X4.57500 Y-5.35320
X4.57600 Y-5.35320
X4.57600 Y-5.35220
X4.57700 Y-5.35220
X4.57700 Y-5.35120
X4.57800 Y-5.35120
X4.57800 Y-5.35020
X4.57900 Y-5.35020
X4.57900 Y-5.34920
X4.58000 Y-5.34920
X4.58000 Y-5.34820
X4.58100 Y-5.34820
X4.58100 Y-5.34720
X4.58200 Y-5.34720
X4.58200 Y-5.34620
X4.58300 Y-5.34620
X4.58300 Y-5.34520
X4.58400 Y-5.34520
X4.58400 Y-5.34420
X4.58500 Y-5.34420
X4.58500 Y-5.34320
X4.58600 Y-5.34320
X4.58600 Y-5.34220
X4.58700 Y-5.34220
X4.58700 Y-5.34120
X4.58800 Y-5.34120
X4.58800 Y-5.34020
X4.58900 Y-5.34020
X4.58900 Y-5.33920
X4.59000 Y-5.33920
X4.59000 Y-5.33820
X4.59100 Y-5.33820
X4.59100 Y-5.33720
X4.59200 Y-5.33720
X4.59200 Y-5.33620
X4.59300 Y-5.33620
X4.59300 Y-5.33520
X4.59400 Y-5.33520
X4.59400 Y-5.33420
X4.59500 Y-5.33420
X4.59500 Y-5.33320
X4.59600 Y-5.33320
X4.59600 Y-5.33220
X4.59700 Y-5.33220
X4.59700 Y-5.33120
X4.59800 Y-5.33120
X4.59800 Y-5.33020
X4.59900 Y-5.33020
X4.59900 Y-5.32920
X4.60000 Y-5.32920
X4.60000 Y-5.32820
X4.60100 Y-5.32820
X4.60100 Y-5.32720
X4.60200 Y-5.32720
X4.60200 Y-5.32620
X4.60300 Y-5.32620
X4.60300 Y-5.32120
X4.60400 Y-5.32120
X4.60400 Y-5.31720
X4.60500 Y-5.31720
X4.60500 Y-5.31520
X4.60600 Y-5.31520
X4.60600 Y-5.31420
X4.60700 Y-5.31420
X4.60700 Y-5.31320
X4.60800 Y-5.31320
X4.60800 Y-5.31220
X4.60900 Y-5.31220
X4.60900 Y-5.31120
X4.61100 Y-5.31120
X4.61100 Y-5.31020
X4.61500 Y-5.31020
X4.61500 Y-5.30920
X4.62000 Y-5.30920
X4.62000 Y-5.31020
X4.62400 Y-5.31020
X4.62400 Y-5.31120
X4.62500 Y-5.31120
X4.62500 Y-5.31220
X4.62700 Y-5.31220
X4.62700 Y-5.31320
X4.62800 Y-5.31320
X4.62800 Y-5.31420
X4.62900 Y-5.31420
X4.62900 Y-5.31620
X4.63000 Y-5.31620
X4.63000 Y-5.31720
X4.63100 Y-5.31720
X4.63100 Y-5.32220
X4.63200 Y-5.32220
X4.63200 Y-5.32520
X4.63100 Y-5.32520
X4.63100 Y-5.33020
X4.63000 Y-5.33020
X4.63000 Y-5.33120
X4.62900 Y-5.33120
X4.62900 Y-5.33320
X4.62800 Y-5.33320
X4.62800 Y-5.33420
X4.62700 Y-5.33420
X4.62700 Y-5.33520
X4.62500 Y-5.33520
X4.62500 Y-5.33620
X4.62300 Y-5.33620
X4.62300 Y-5.33720
X4.61900 Y-5.33720
X4.61900 Y-5.33820
X4.61600 Y-5.33820
X4.61600 Y-5.33720
X4.61500 Y-5.33720
X4.61500 Y-5.33820
X4.61400 Y-5.33820
X4.61400 Y-5.33920
X4.61300 Y-5.33920
X4.61300 Y-5.34020
X4.61200 Y-5.34020
X4.61200 Y-5.34120
X4.61100 Y-5.34120
X4.61100 Y-5.34220
X4.61000 Y-5.34220
X4.61000 Y-5.34320
X4.60900 Y-5.34320
X4.60900 Y-5.34420
X4.60800 Y-5.34420
X4.60800 Y-5.34520
X4.60700 Y-5.34520
X4.60700 Y-5.34620
X4.60600 Y-5.34620
X4.60600 Y-5.34720
X4.60500 Y-5.34720
X4.60500 Y-5.34820
X4.60400 Y-5.34820
X4.60400 Y-5.34920
X4.60300 Y-5.34920
X4.60300 Y-5.35020
X4.60200 Y-5.35020
X4.60200 Y-5.35120
X4.60100 Y-5.35120
X4.60100 Y-5.35220
X4.60000 Y-5.35220
X4.60000 Y-5.35320
X4.59900 Y-5.35320
X4.59900 Y-5.35420
X4.59800 Y-5.35420
X4.59800 Y-5.35520
X4.59700 Y-5.35520
X4.59700 Y-5.35620
X4.59600 Y-5.35620
X4.59600 Y-5.35720
X4.59500 Y-5.35720
X4.59500 Y-5.35820
X4.59400 Y-5.35820
X4.59400 Y-5.35920
X4.59300 Y-5.35920
X4.59300 Y-5.36020
X4.59200 Y-5.36020
X4.59200 Y-5.36120
X4.59100 Y-5.36120
X4.59100 Y-5.36220
X4.59000 Y-5.36220
X4.59000 Y-5.36320
X4.58900 Y-5.36320
X4.58900 Y-5.36420
X4.58800 Y-5.36420
X4.58800 Y-5.36520
X4.58700 Y-5.36520
X4.58700 Y-5.36620
X4.58600 Y-5.36620
X4.58600 Y-5.36720
X4.58500 Y-5.36720
X4.58500 Y-5.36820
X4.58400 Y-5.36820
X4.58400 Y-5.36920
X4.58300 Y-5.36920
X4.58300 Y-5.37020
X4.58200 Y-5.37020
X4.58200 Y-5.37120
X4.58100 Y-5.37120
X4.58100 Y-5.37220
X4.58000 Y-5.37220
X4.58000 Y-5.37320
X4.57900 Y-5.37320
X4.57900 Y-5.37420
X4.57800 Y-5.37420
X4.57800 Y-5.37520
X4.57700 Y-5.37520
X4.57700 Y-5.37620
X4.57600 Y-5.37620
X4.57600 Y-5.37720
X4.57500 Y-5.37720
X4.57500 Y-5.37820
X4.57400 Y-5.37820
X4.57400 Y-5.37920
X4.57300 Y-5.37920
X4.57300 Y-5.38020
X4.57200 Y-5.38020
