( pcb2gcode 1.1.4 )

( This file uses 1 drill bit sizes. )

G94     ( Inches per minute feed rate. )
G20     ( Units == INCHES.             )
G90     ( Absolute coordinates.        )
S13000  ( RPM spindle speed.           )

G00 Z1.57480 ( Retract )
T1
M5      ( Spindle stop.                )
M6      ( Tool change.                 )
(MSG, CHANGE TOOL BIT: to drill size 0.40000 mm)
M0      ( Temporary machine stop.      )
M3      ( Spindle on clockwise.        )

G81 R0.78740 Z0.44094 F5.11811 X3.02362 Y-3.21732
X3.02362 Y-3.24803
X3.02362 Y-3.27874
X3.02362 Y-3.84331
X3.02362 Y-3.87402
X3.02362 Y-3.90472
X3.02362 Y-4.52717
X3.02362 Y-4.55787
X3.02362 Y-4.58858
X3.02362 Y-5.21693
X3.02362 Y-5.24764
X3.02362 Y-5.27835


G00 Z1.57480 ( All done -- retract )

M9 ( Coolant off. )
M2 ( Program end. )

