( pcb2gcode 1.1.4 )

( This file uses 1 drill bit sizes. )

G94     ( Inches per minute feed rate. )
G20     ( Units == INCHES.             )
G90     ( Absolute coordinates.        )
S13000  ( RPM spindle speed.           )

G00 Z1.57480 ( Retract )
T1
M5      ( Spindle stop.                )
M6      ( Tool change.                 )
(MSG, CHANGE TOOL BIT: to drill size 3.00000 mm)
M0      ( Temporary machine stop.      )
M3      ( Spindle on clockwise.        )

G81 R0.78740 Z0.19685 F5.11811 X4.72441 Y-3.38583
X4.72441 Y-4.56693
X5.03937 Y-3.38583
X5.03937 Y-4.56693
X6.08268 Y-3.34331
X6.08268 Y-3.74331
X6.08268 Y-4.52441
X6.08268 Y-4.92441
X6.65354 Y-3.38583
X6.65354 Y-4.56693
X6.96850 Y-3.38583
X6.96850 Y-4.56693
X8.01181 Y-3.34331
X8.01181 Y-3.74331
X8.01181 Y-4.52441
X8.01181 Y-4.92441


G00 Z1.57480 ( All done -- retract )

M9 ( Coolant off. )
M2 ( Program end. )

