( pcb2gcode 1.1.4 )

( This file uses 2 drill bit sizes. )

G94     ( Inches per minute feed rate. )
G20     ( Units == INCHES.             )
G90     ( Absolute coordinates.        )
S13000  ( RPM spindle speed.           )

G00 Z1.57480 ( Retract )
T1
M5      ( Spindle stop.                )
M6      ( Tool change.                 )
(MSG, CHANGE TOOL BIT: to drill size 0.40000 mm)
M0      ( Temporary machine stop.      )
M3      ( Spindle on clockwise.        )

G81 R0.78740 Z0.19685 F5.11811 X5.07205 Y-3.57795
X5.07205 Y-4.75906
X5.13780 Y-3.95768
X5.13780 Y-5.13878
X5.14173 Y-4.21752
X5.14173 Y-5.39862
X5.20866 Y-3.96063
X5.20866 Y-5.14173
X5.31594 Y-4.26476
X5.31594 Y-5.44587
X5.39803 Y-3.77795
X5.39803 Y-4.95906
X5.42087 Y-3.56417
X5.42087 Y-4.74528
X5.45118 Y-3.64409
X5.45118 Y-4.82520
X5.54331 Y-4.11614
X5.54331 Y-5.29724
X5.55748 Y-3.30906
X5.55748 Y-4.49016
X5.60551 Y-3.73504
X5.60551 Y-4.91614
X5.68504 Y-3.92520
X5.68504 Y-5.10630
X5.78740 Y-3.97638
X5.78740 Y-5.15748
X7.00118 Y-3.57795
X7.00118 Y-4.75906
X7.06693 Y-3.95768
X7.06693 Y-5.13878
X7.07087 Y-4.21752
X7.07087 Y-5.39862
X7.13780 Y-3.96063
X7.13780 Y-5.14173
X7.24508 Y-4.26476
X7.24508 Y-5.44587
X7.32717 Y-3.77795
X7.32717 Y-4.95906
X7.35000 Y-3.56417
X7.35000 Y-4.74528
X7.38031 Y-3.64409
X7.38031 Y-4.82520
X7.47244 Y-4.11614
X7.47244 Y-5.29724
X7.48661 Y-3.30906
X7.48661 Y-4.49016
X7.53465 Y-3.73504
X7.53465 Y-4.91614
X7.61417 Y-3.92520
X7.61417 Y-5.10630
X7.71654 Y-3.97638
X7.71654 Y-5.15748


G00 Z1.57480 ( Retract )
T2
M5      ( Spindle stop.                )
M6      ( Tool change.                 )
(MSG, CHANGE TOOL BIT: to drill size 0.50000 mm)
M0      ( Temporary machine stop.      )
M3      ( Spindle on clockwise.        )

G81 R0.78740 Z0.19685 F5.11811 X5.41043 Y-3.97343
X5.41043 Y-4.01870
X5.41043 Y-5.15453
X5.41043 Y-5.19980
X5.43307 Y-3.99606
X5.43307 Y-5.17717
X5.45571 Y-3.97343
X5.45571 Y-4.01870
X5.45571 Y-5.15453
X5.45571 Y-5.19980
X7.33957 Y-3.97343
X7.33957 Y-4.01870
X7.33957 Y-5.15453
X7.33957 Y-5.19980
X7.36220 Y-3.99606
X7.36220 Y-5.17717
X7.38484 Y-3.97343
X7.38484 Y-4.01870
X7.38484 Y-5.15453
X7.38484 Y-5.19980


G00 Z1.57480 ( All done -- retract )

M9 ( Coolant off. )
M2 ( Program end. )

