( pcb2gcode 1.1.4 )

G94     ( Inches per minute feed rate. )
G20     ( Units == INCHES.             )
G90     ( Absolute coordinates.        )
S10000  ( RPM spindle speed.           )
M3      ( Spindle on clockwise.        )

G64 P0.00500 ( set maximum deviation from commanded toolpath )

G04 P0 ( dwell for no time -- G64 should not smooth over this point )
G00 Z0.19685 ( retract )

G00 X-2.71700 Y-0.31390 ( rapid move to begin. )
G01 Z-0.00394 F39.37008 ( plunge. )
G04 P0 ( dwell for no time -- G64 should not smooth over this point )
X-2.71700 Y-0.31390
X-2.71800 Y-0.31390
X-2.71800 Y-0.31490
X-2.71900 Y-0.31490
X-2.71900 Y-3.93790
X-2.71800 Y-3.93790
X-2.71800 Y-3.93890
X-2.71700 Y-3.93890
X-2.71700 Y-3.93990
X-1.81000 Y-3.93990
X-1.81000 Y-3.93890
X-1.80900 Y-3.93890
X-1.80900 Y-3.93790
X-1.80800 Y-3.93790
X-1.80800 Y-3.54590
X-0.90800 Y-3.54590
X-0.90800 Y-3.93790
X-0.90700 Y-3.93790
X-0.90700 Y-3.93890
X-0.90600 Y-3.93890
X-0.90600 Y-3.93990
X0.00100 Y-3.93990
X0.00100 Y-3.93890
X0.00200 Y-3.93890
X0.00200 Y-3.93690
X0.00100 Y-3.93690
X0.00100 Y-3.93590
X0.00000 Y-3.93590
X0.00000 Y-3.93490
X-0.90300 Y-3.93490
X-0.90300 Y-3.54190
X-0.90400 Y-3.54190
X-0.90400 Y-3.54090
X-1.81100 Y-3.54090
X-1.81100 Y-3.54190
X-1.81200 Y-3.54190
X-1.81200 Y-3.54290
X-1.81300 Y-3.54290
X-1.81300 Y-3.93490
X-2.71400 Y-3.93490
X-2.71400 Y-0.31390
X-2.71500 Y-0.31390
X-2.71500 Y-0.31290
X-2.71700 Y-0.31290
X-2.71700 Y-0.31390
G01 Z-0.01181 F39.37008 ( plunge. )
G04 P0 ( dwell for no time -- G64 should not smooth over this point )
X-2.71700 Y-0.31390
X-2.71800 Y-0.31390
X-2.71800 Y-0.31490
X-2.71900 Y-0.31490
X-2.71900 Y-3.93790
X-2.71800 Y-3.93790
X-2.71800 Y-3.93890
X-2.71700 Y-3.93890
X-2.71700 Y-3.93990
X-1.81000 Y-3.93990
X-1.81000 Y-3.93890
X-1.80900 Y-3.93890
X-1.80900 Y-3.93790
X-1.80800 Y-3.93790
X-1.80800 Y-3.54590
X-0.90800 Y-3.54590
X-0.90800 Y-3.93790
X-0.90700 Y-3.93790
X-0.90700 Y-3.93890
X-0.90600 Y-3.93890
X-0.90600 Y-3.93990
X0.00100 Y-3.93990
X0.00100 Y-3.93890
X0.00200 Y-3.93890
X0.00200 Y-3.93690
X0.00100 Y-3.93690
X0.00100 Y-3.93590
X0.00000 Y-3.93590
X0.00000 Y-3.93490
X-0.90300 Y-3.93490
X-0.90300 Y-3.54190
X-0.90400 Y-3.54190
X-0.90400 Y-3.54090
X-1.81100 Y-3.54090
X-1.81100 Y-3.54190
X-1.81200 Y-3.54190
X-1.81200 Y-3.54290
X-1.81300 Y-3.54290
X-1.81300 Y-3.93490
X-2.71400 Y-3.93490
X-2.71400 Y-0.31390
X-2.71500 Y-0.31390
X-2.71500 Y-0.31290
X-2.71700 Y-0.31290
X-2.71700 Y-0.31390
G01 Z-0.01969 F39.37008 ( plunge. )
G04 P0 ( dwell for no time -- G64 should not smooth over this point )
X-2.71700 Y-0.31390
X-2.71800 Y-0.31390
X-2.71800 Y-0.31490
X-2.71900 Y-0.31490
X-2.71900 Y-3.93790
X-2.71800 Y-3.93790
X-2.71800 Y-3.93890
X-2.71700 Y-3.93890
X-2.71700 Y-3.93990
X-1.81000 Y-3.93990
X-1.81000 Y-3.93890
X-1.80900 Y-3.93890
X-1.80900 Y-3.93790
X-1.80800 Y-3.93790
X-1.80800 Y-3.54590
X-0.90800 Y-3.54590
X-0.90800 Y-3.93790
X-0.90700 Y-3.93790
X-0.90700 Y-3.93890
X-0.90600 Y-3.93890
X-0.90600 Y-3.93990
X0.00100 Y-3.93990
X0.00100 Y-3.93890
X0.00200 Y-3.93890
X0.00200 Y-3.93690
X0.00100 Y-3.93690
X0.00100 Y-3.93590
X0.00000 Y-3.93590
X0.00000 Y-3.93490
X-0.90300 Y-3.93490
X-0.90300 Y-3.54190
X-0.90400 Y-3.54190
X-0.90400 Y-3.54090
X-1.81100 Y-3.54090
X-1.81100 Y-3.54190
X-1.81200 Y-3.54190
X-1.81200 Y-3.54290
X-1.81300 Y-3.54290
X-1.81300 Y-3.93490
X-2.71400 Y-3.93490
X-2.71400 Y-0.31390
X-2.71500 Y-0.31390
X-2.71500 Y-0.31290
X-2.71700 Y-0.31290
X-2.71700 Y-0.31390
G01 Z-0.02756 F39.37008 ( plunge. )
G04 P0 ( dwell for no time -- G64 should not smooth over this point )
X-2.71700 Y-0.31390
X-2.71800 Y-0.31390
X-2.71800 Y-0.31490
X-2.71900 Y-0.31490
X-2.71900 Y-3.93790
X-2.71800 Y-3.93790
X-2.71800 Y-3.93890
X-2.71700 Y-3.93890
X-2.71700 Y-3.93990
X-1.81000 Y-3.93990
X-1.81000 Y-3.93890
X-1.80900 Y-3.93890
X-1.80900 Y-3.93790
X-1.80800 Y-3.93790
X-1.80800 Y-3.54590
X-0.90800 Y-3.54590
X-0.90800 Y-3.93790
X-0.90700 Y-3.93790
X-0.90700 Y-3.93890
X-0.90600 Y-3.93890
X-0.90600 Y-3.93990
X0.00100 Y-3.93990
X0.00100 Y-3.93890
X0.00200 Y-3.93890
X0.00200 Y-3.93690
X0.00100 Y-3.93690
X0.00100 Y-3.93590
X0.00000 Y-3.93590
X0.00000 Y-3.93490
X-0.90300 Y-3.93490
X-0.90300 Y-3.54190
X-0.90400 Y-3.54190
X-0.90400 Y-3.54090
X-1.81100 Y-3.54090
X-1.81100 Y-3.54190
X-1.81200 Y-3.54190
X-1.81200 Y-3.54290
X-1.81300 Y-3.54290
X-1.81300 Y-3.93490
X-2.71400 Y-3.93490
X-2.71400 Y-0.31390
X-2.71500 Y-0.31390
X-2.71500 Y-0.31290
X-2.71700 Y-0.31290
X-2.71700 Y-0.31390
G01 Z-0.03543 F39.37008 ( plunge. )
G04 P0 ( dwell for no time -- G64 should not smooth over this point )
X-2.71700 Y-0.31390
X-2.71800 Y-0.31390
X-2.71800 Y-0.31490
X-2.71900 Y-0.31490
X-2.71900 Y-3.93790
X-2.71800 Y-3.93790
X-2.71800 Y-3.93890
X-2.71700 Y-3.93890
X-2.71700 Y-3.93990
X-1.81000 Y-3.93990
X-1.81000 Y-3.93890
X-1.80900 Y-3.93890
X-1.80900 Y-3.93790
X-1.80800 Y-3.93790
X-1.80800 Y-3.54590
X-0.90800 Y-3.54590
X-0.90800 Y-3.93790
X-0.90700 Y-3.93790
X-0.90700 Y-3.93890
X-0.90600 Y-3.93890
X-0.90600 Y-3.93990
X0.00100 Y-3.93990
X0.00100 Y-3.93890
X0.00200 Y-3.93890
X0.00200 Y-3.93690
X0.00100 Y-3.93690
X0.00100 Y-3.93590
X0.00000 Y-3.93590
X0.00000 Y-3.93490
X-0.90300 Y-3.93490
X-0.90300 Y-3.54190
X-0.90400 Y-3.54190
X-0.90400 Y-3.54090
X-1.81100 Y-3.54090
X-1.81100 Y-3.54190
X-1.81200 Y-3.54190
X-1.81200 Y-3.54290
X-1.81300 Y-3.54290
X-1.81300 Y-3.93490
X-2.71400 Y-3.93490
X-2.71400 Y-0.31390
X-2.71500 Y-0.31390
X-2.71500 Y-0.31290
X-2.71700 Y-0.31290
X-2.71700 Y-0.31390
G01 Z-0.04331 F39.37008 ( plunge. )
G04 P0 ( dwell for no time -- G64 should not smooth over this point )
X-2.71700 Y-0.31390
X-2.71800 Y-0.31390
X-2.71800 Y-0.31490
X-2.71900 Y-0.31490
X-2.71900 Y-3.93790
X-2.71800 Y-3.93790
X-2.71800 Y-3.93890
X-2.71700 Y-3.93890
X-2.71700 Y-3.93990
X-1.81000 Y-3.93990
X-1.81000 Y-3.93890
X-1.80900 Y-3.93890
X-1.80900 Y-3.93790
X-1.80800 Y-3.93790
X-1.80800 Y-3.54590
X-0.90800 Y-3.54590
X-0.90800 Y-3.93790
X-0.90700 Y-3.93790
X-0.90700 Y-3.93890
X-0.90600 Y-3.93890
X-0.90600 Y-3.93990
X0.00100 Y-3.93990
X0.00100 Y-3.93890
X0.00200 Y-3.93890
X0.00200 Y-3.93690
X0.00100 Y-3.93690
X0.00100 Y-3.93590
X0.00000 Y-3.93590
X0.00000 Y-3.93490
X-0.90300 Y-3.93490
X-0.90300 Y-3.54190
X-0.90400 Y-3.54190
X-0.90400 Y-3.54090
X-1.81100 Y-3.54090
X-1.81100 Y-3.54190
X-1.81200 Y-3.54190
X-1.81200 Y-3.54290
X-1.81300 Y-3.54290
X-1.81300 Y-3.93490
X-2.71400 Y-3.93490
X-2.71400 Y-0.31390
X-2.71500 Y-0.31390
X-2.71500 Y-0.31290
X-2.71700 Y-0.31290
X-2.71700 Y-0.31390
G01 Z-0.05118 F39.37008 ( plunge. )
G04 P0 ( dwell for no time -- G64 should not smooth over this point )
X-2.71700 Y-0.31390
X-2.71800 Y-0.31390
X-2.71800 Y-0.31490
X-2.71900 Y-0.31490
X-2.71900 Y-3.93790
X-2.71800 Y-3.93790
X-2.71800 Y-3.93890
X-2.71700 Y-3.93890
X-2.71700 Y-3.93990
X-1.81000 Y-3.93990
X-1.81000 Y-3.93890
X-1.80900 Y-3.93890
X-1.80900 Y-3.93790
X-1.80800 Y-3.93790
X-1.80800 Y-3.54590
X-0.90800 Y-3.54590
X-0.90800 Y-3.93790
X-0.90700 Y-3.93790
X-0.90700 Y-3.93890
X-0.90600 Y-3.93890
X-0.90600 Y-3.93990
X0.00100 Y-3.93990
X0.00100 Y-3.93890
X0.00200 Y-3.93890
X0.00200 Y-3.93690
X0.00100 Y-3.93690
X0.00100 Y-3.93590
X0.00000 Y-3.93590
X0.00000 Y-3.93490
X-0.90300 Y-3.93490
X-0.90300 Y-3.54190
X-0.90400 Y-3.54190
X-0.90400 Y-3.54090
X-1.81100 Y-3.54090
X-1.81100 Y-3.54190
X-1.81200 Y-3.54190
X-1.81200 Y-3.54290
X-1.81300 Y-3.54290
X-1.81300 Y-3.93490
X-2.71400 Y-3.93490
X-2.71400 Y-0.31390
X-2.71500 Y-0.31390
X-2.71500 Y-0.31290
X-2.71700 Y-0.31290
X-2.71700 Y-0.31390
G01 Z-0.05906 F39.37008 ( plunge. )
G04 P0 ( dwell for no time -- G64 should not smooth over this point )
X-2.71700 Y-0.31390
X-2.71800 Y-0.31390
X-2.71800 Y-0.31490
X-2.71900 Y-0.31490
X-2.71900 Y-3.93790
X-2.71800 Y-3.93790
X-2.71800 Y-3.93890
X-2.71700 Y-3.93890
X-2.71700 Y-3.93990
X-1.81000 Y-3.93990
X-1.81000 Y-3.93890
X-1.80900 Y-3.93890
X-1.80900 Y-3.93790
X-1.80800 Y-3.93790
X-1.80800 Y-3.54590
X-0.90800 Y-3.54590
X-0.90800 Y-3.93790
X-0.90700 Y-3.93790
X-0.90700 Y-3.93890
X-0.90600 Y-3.93890
X-0.90600 Y-3.93990
X0.00100 Y-3.93990
X0.00100 Y-3.93890
X0.00200 Y-3.93890
X0.00200 Y-3.93690
X0.00100 Y-3.93690
X0.00100 Y-3.93590
X0.00000 Y-3.93590
X0.00000 Y-3.93490
X-0.90300 Y-3.93490
X-0.90300 Y-3.54190
X-0.90400 Y-3.54190
X-0.90400 Y-3.54090
X-1.81100 Y-3.54090
X-1.81100 Y-3.54190
X-1.81200 Y-3.54190
X-1.81200 Y-3.54290
X-1.81300 Y-3.54290
X-1.81300 Y-3.93490
X-2.71400 Y-3.93490
X-2.71400 Y-0.31390
X-2.71500 Y-0.31390
X-2.71500 Y-0.31290
X-2.71700 Y-0.31290
X-2.71700 Y-0.31390
G01 Z-0.06693 F39.37008 ( plunge. )
G04 P0 ( dwell for no time -- G64 should not smooth over this point )
X-2.71700 Y-0.31390
X-2.71800 Y-0.31390
X-2.71800 Y-0.31490
X-2.71900 Y-0.31490
X-2.71900 Y-3.93790
X-2.71800 Y-3.93790
X-2.71800 Y-3.93890
X-2.71700 Y-3.93890
X-2.71700 Y-3.93990
X-1.81000 Y-3.93990
X-1.81000 Y-3.93890
X-1.80900 Y-3.93890
X-1.80900 Y-3.93790
X-1.80800 Y-3.93790
X-1.80800 Y-3.54590
X-0.90800 Y-3.54590
X-0.90800 Y-3.93790
X-0.90700 Y-3.93790
X-0.90700 Y-3.93890
X-0.90600 Y-3.93890
X-0.90600 Y-3.93990
X0.00100 Y-3.93990
X0.00100 Y-3.93890
X0.00200 Y-3.93890
X0.00200 Y-3.93690
X0.00100 Y-3.93690
X0.00100 Y-3.93590
X0.00000 Y-3.93590
X0.00000 Y-3.93490
X-0.90300 Y-3.93490
X-0.90300 Y-3.54190
X-0.90400 Y-3.54190
X-0.90400 Y-3.54090
X-1.81100 Y-3.54090
X-1.81100 Y-3.54190
X-1.81200 Y-3.54190
X-1.81200 Y-3.54290
X-1.81300 Y-3.54290
X-1.81300 Y-3.93490
X-2.71400 Y-3.93490
X-2.71400 Y-0.31390
X-2.71500 Y-0.31390
X-2.71500 Y-0.31290
X-2.71700 Y-0.31290
X-2.71700 Y-0.31390
G01 Z-0.07480 F39.37008 ( plunge. )
G04 P0 ( dwell for no time -- G64 should not smooth over this point )
X-2.71700 Y-0.31390
X-2.71800 Y-0.31390
X-2.71800 Y-0.31490
X-2.71900 Y-0.31490
X-2.71900 Y-3.93790
X-2.71800 Y-3.93790
X-2.71800 Y-3.93890
X-2.71700 Y-3.93890
X-2.71700 Y-3.93990
X-1.81000 Y-3.93990
X-1.81000 Y-3.93890
X-1.80900 Y-3.93890
X-1.80900 Y-3.93790
X-1.80800 Y-3.93790
X-1.80800 Y-3.54590
X-0.90800 Y-3.54590
X-0.90800 Y-3.93790
X-0.90700 Y-3.93790
X-0.90700 Y-3.93890
X-0.90600 Y-3.93890
X-0.90600 Y-3.93990
X0.00100 Y-3.93990
X0.00100 Y-3.93890
X0.00200 Y-3.93890
X0.00200 Y-3.93690
X0.00100 Y-3.93690
X0.00100 Y-3.93590
X0.00000 Y-3.93590
X0.00000 Y-3.93490
X-0.90300 Y-3.93490
X-0.90300 Y-3.54190
X-0.90400 Y-3.54190
X-0.90400 Y-3.54090
X-1.81100 Y-3.54090
X-1.81100 Y-3.54190
X-1.81200 Y-3.54190
X-1.81200 Y-3.54290
X-1.81300 Y-3.54290
X-1.81300 Y-3.93490
X-2.71400 Y-3.93490
X-2.71400 Y-0.31390
X-2.71500 Y-0.31390
X-2.71500 Y-0.31290
X-2.71700 Y-0.31290
X-2.71700 Y-0.31390
G01 Z-0.08268 F39.37008 ( plunge. )
G04 P0 ( dwell for no time -- G64 should not smooth over this point )
X-2.71700 Y-0.31390
X-2.71800 Y-0.31390
X-2.71800 Y-0.31490
X-2.71900 Y-0.31490
X-2.71900 Y-3.93790
X-2.71800 Y-3.93790
X-2.71800 Y-3.93890
X-2.71700 Y-3.93890
X-2.71700 Y-3.93990
X-1.81000 Y-3.93990
X-1.81000 Y-3.93890
X-1.80900 Y-3.93890
X-1.80900 Y-3.93790
X-1.80800 Y-3.93790
X-1.80800 Y-3.54590
X-0.90800 Y-3.54590
X-0.90800 Y-3.93790
X-0.90700 Y-3.93790
X-0.90700 Y-3.93890
X-0.90600 Y-3.93890
X-0.90600 Y-3.93990
X0.00100 Y-3.93990
X0.00100 Y-3.93890
X0.00200 Y-3.93890
X0.00200 Y-3.93690
X0.00100 Y-3.93690
X0.00100 Y-3.93590
X0.00000 Y-3.93590
X0.00000 Y-3.93490
X-0.90300 Y-3.93490
X-0.90300 Y-3.54190
X-0.90400 Y-3.54190
X-0.90400 Y-3.54090
X-1.81100 Y-3.54090
X-1.81100 Y-3.54190
X-1.81200 Y-3.54190
X-1.81200 Y-3.54290
X-1.81300 Y-3.54290
X-1.81300 Y-3.93490
X-2.71400 Y-3.93490
X-2.71400 Y-0.31390
X-2.71500 Y-0.31390
X-2.71500 Y-0.31290
X-2.71700 Y-0.31290
X-2.71700 Y-0.31390
G01 Z-0.09055 F39.37008 ( plunge. )
G04 P0 ( dwell for no time -- G64 should not smooth over this point )
X-2.71700 Y-0.31390
X-2.71800 Y-0.31390
X-2.71800 Y-0.31490
X-2.71900 Y-0.31490
X-2.71900 Y-3.93790
X-2.71800 Y-3.93790
X-2.71800 Y-3.93890
X-2.71700 Y-3.93890
X-2.71700 Y-3.93990
X-1.81000 Y-3.93990
X-1.81000 Y-3.93890
X-1.80900 Y-3.93890
X-1.80900 Y-3.93790
X-1.80800 Y-3.93790
X-1.80800 Y-3.54590
X-0.90800 Y-3.54590
X-0.90800 Y-3.93790
X-0.90700 Y-3.93790
X-0.90700 Y-3.93890
X-0.90600 Y-3.93890
X-0.90600 Y-3.93990
X0.00100 Y-3.93990
X0.00100 Y-3.93890
X0.00200 Y-3.93890
X0.00200 Y-3.93690
X0.00100 Y-3.93690
X0.00100 Y-3.93590
X0.00000 Y-3.93590
X0.00000 Y-3.93490
X-0.90300 Y-3.93490
X-0.90300 Y-3.54190
X-0.90400 Y-3.54190
X-0.90400 Y-3.54090
X-1.81100 Y-3.54090
X-1.81100 Y-3.54190
X-1.81200 Y-3.54190
X-1.81200 Y-3.54290
X-1.81300 Y-3.54290
X-1.81300 Y-3.93490
X-2.71400 Y-3.93490
X-2.71400 Y-0.31390
X-2.71500 Y-0.31390
X-2.71500 Y-0.31290
X-2.71700 Y-0.31290
X-2.71700 Y-0.31390
G01 Z-0.09843 F39.37008 ( plunge. )
G04 P0 ( dwell for no time -- G64 should not smooth over this point )
X-2.71700 Y-0.31390
X-2.71800 Y-0.31390
X-2.71800 Y-0.31490
X-2.71900 Y-0.31490
X-2.71900 Y-3.93790
X-2.71800 Y-3.93790
X-2.71800 Y-3.93890
X-2.71700 Y-3.93890
X-2.71700 Y-3.93990
X-1.81000 Y-3.93990
X-1.81000 Y-3.93890
X-1.80900 Y-3.93890
X-1.80900 Y-3.93790
X-1.80800 Y-3.93790
X-1.80800 Y-3.54590
X-0.90800 Y-3.54590
X-0.90800 Y-3.93790
X-0.90700 Y-3.93790
X-0.90700 Y-3.93890
X-0.90600 Y-3.93890
X-0.90600 Y-3.93990
X0.00100 Y-3.93990
X0.00100 Y-3.93890
X0.00200 Y-3.93890
X0.00200 Y-3.93690
X0.00100 Y-3.93690
X0.00100 Y-3.93590
X0.00000 Y-3.93590
X0.00000 Y-3.93490
X-0.90300 Y-3.93490
X-0.90300 Y-3.54190
X-0.90400 Y-3.54190
X-0.90400 Y-3.54090
X-1.81100 Y-3.54090
X-1.81100 Y-3.54190
X-1.81200 Y-3.54190
X-1.81200 Y-3.54290
X-1.81300 Y-3.54290
X-1.81300 Y-3.93490
X-2.71400 Y-3.93490
X-2.71400 Y-0.31390
X-2.71500 Y-0.31390
X-2.71500 Y-0.31290
X-2.71700 Y-0.31290
X-2.71700 Y-0.31390
G01 Z-0.10630 F39.37008 ( plunge. )
G04 P0 ( dwell for no time -- G64 should not smooth over this point )
X-2.71700 Y-0.31390
X-2.71800 Y-0.31390
X-2.71800 Y-0.31490
X-2.71900 Y-0.31490
X-2.71900 Y-3.93790
X-2.71800 Y-3.93790
X-2.71800 Y-3.93890
X-2.71700 Y-3.93890
X-2.71700 Y-3.93990
X-1.81000 Y-3.93990
X-1.81000 Y-3.93890
X-1.80900 Y-3.93890
X-1.80900 Y-3.93790
X-1.80800 Y-3.93790
X-1.80800 Y-3.54590
X-0.90800 Y-3.54590
X-0.90800 Y-3.93790
X-0.90700 Y-3.93790
X-0.90700 Y-3.93890
X-0.90600 Y-3.93890
X-0.90600 Y-3.93990
X0.00100 Y-3.93990
X0.00100 Y-3.93890
X0.00200 Y-3.93890
X0.00200 Y-3.93690
X0.00100 Y-3.93690
X0.00100 Y-3.93590
X0.00000 Y-3.93590
X0.00000 Y-3.93490
X-0.90300 Y-3.93490
X-0.90300 Y-3.54190
X-0.90400 Y-3.54190
X-0.90400 Y-3.54090
X-1.81100 Y-3.54090
X-1.81100 Y-3.54190
X-1.81200 Y-3.54190
X-1.81200 Y-3.54290
X-1.81300 Y-3.54290
X-1.81300 Y-3.93490
X-2.71400 Y-3.93490
X-2.71400 Y-0.31390
X-2.71500 Y-0.31390
X-2.71500 Y-0.31290
X-2.71700 Y-0.31290
X-2.71700 Y-0.31390
G01 Z-0.11417 F39.37008 ( plunge. )
G04 P0 ( dwell for no time -- G64 should not smooth over this point )
X-2.71700 Y-0.31390
X-2.71800 Y-0.31390
X-2.71800 Y-0.31490
X-2.71900 Y-0.31490
X-2.71900 Y-3.93790
X-2.71800 Y-3.93790
X-2.71800 Y-3.93890
X-2.71700 Y-3.93890
X-2.71700 Y-3.93990
X-1.81000 Y-3.93990
X-1.81000 Y-3.93890
X-1.80900 Y-3.93890
X-1.80900 Y-3.93790
X-1.80800 Y-3.93790
X-1.80800 Y-3.54590
X-0.90800 Y-3.54590
X-0.90800 Y-3.93790
X-0.90700 Y-3.93790
X-0.90700 Y-3.93890
X-0.90600 Y-3.93890
X-0.90600 Y-3.93990
X0.00100 Y-3.93990
X0.00100 Y-3.93890
X0.00200 Y-3.93890
X0.00200 Y-3.93690
X0.00100 Y-3.93690
X0.00100 Y-3.93590
X0.00000 Y-3.93590
X0.00000 Y-3.93490
X-0.90300 Y-3.93490
X-0.90300 Y-3.54190
X-0.90400 Y-3.54190
X-0.90400 Y-3.54090
X-1.81100 Y-3.54090
X-1.81100 Y-3.54190
X-1.81200 Y-3.54190
X-1.81200 Y-3.54290
X-1.81300 Y-3.54290
X-1.81300 Y-3.93490
X-2.71400 Y-3.93490
X-2.71400 Y-0.31390
X-2.71500 Y-0.31390
X-2.71500 Y-0.31290
X-2.71700 Y-0.31290
X-2.71700 Y-0.31390
G01 Z-0.12205 F39.37008 ( plunge. )
G04 P0 ( dwell for no time -- G64 should not smooth over this point )
X-2.71700 Y-0.31390
X-2.71800 Y-0.31390
X-2.71800 Y-0.31490
X-2.71900 Y-0.31490
X-2.71900 Y-3.93790
X-2.71800 Y-3.93790
X-2.71800 Y-3.93890
X-2.71700 Y-3.93890
X-2.71700 Y-3.93990
X-1.81000 Y-3.93990
X-1.81000 Y-3.93890
X-1.80900 Y-3.93890
X-1.80900 Y-3.93790
X-1.80800 Y-3.93790
X-1.80800 Y-3.54590
X-0.90800 Y-3.54590
X-0.90800 Y-3.93790
X-0.90700 Y-3.93790
X-0.90700 Y-3.93890
X-0.90600 Y-3.93890
X-0.90600 Y-3.93990
X0.00100 Y-3.93990
X0.00100 Y-3.93890
X0.00200 Y-3.93890
X0.00200 Y-3.93690
X0.00100 Y-3.93690
X0.00100 Y-3.93590
X0.00000 Y-3.93590
X0.00000 Y-3.93490
X-0.90300 Y-3.93490
X-0.90300 Y-3.54190
X-0.90400 Y-3.54190
X-0.90400 Y-3.54090
X-1.81100 Y-3.54090
X-1.81100 Y-3.54190
X-1.81200 Y-3.54190
X-1.81200 Y-3.54290
X-1.81300 Y-3.54290
X-1.81300 Y-3.93490
X-2.71400 Y-3.93490
X-2.71400 Y-0.31390
X-2.71500 Y-0.31390
X-2.71500 Y-0.31290
X-2.71700 Y-0.31290
X-2.71700 Y-0.31390
G01 Z-0.12992 F39.37008 ( plunge. )
G04 P0 ( dwell for no time -- G64 should not smooth over this point )
X-2.71700 Y-0.31390
X-2.71800 Y-0.31390
X-2.71800 Y-0.31490
X-2.71900 Y-0.31490
X-2.71900 Y-3.93790
X-2.71800 Y-3.93790
X-2.71800 Y-3.93890
X-2.71700 Y-3.93890
X-2.71700 Y-3.93990
X-1.81000 Y-3.93990
X-1.81000 Y-3.93890
X-1.80900 Y-3.93890
X-1.80900 Y-3.93790
X-1.80800 Y-3.93790
X-1.80800 Y-3.54590
X-0.90800 Y-3.54590
X-0.90800 Y-3.93790
X-0.90700 Y-3.93790
X-0.90700 Y-3.93890
X-0.90600 Y-3.93890
X-0.90600 Y-3.93990
X0.00100 Y-3.93990
X0.00100 Y-3.93890
X0.00200 Y-3.93890
X0.00200 Y-3.93690
X0.00100 Y-3.93690
X0.00100 Y-3.93590
X0.00000 Y-3.93590
X0.00000 Y-3.93490
X-0.90300 Y-3.93490
X-0.90300 Y-3.54190
X-0.90400 Y-3.54190
X-0.90400 Y-3.54090
X-1.81100 Y-3.54090
X-1.81100 Y-3.54190
X-1.81200 Y-3.54190
X-1.81200 Y-3.54290
X-1.81300 Y-3.54290
X-1.81300 Y-3.93490
X-2.71400 Y-3.93490
X-2.71400 Y-0.31390
X-2.71500 Y-0.31390
X-2.71500 Y-0.31290
X-2.71700 Y-0.31290
X-2.71700 Y-0.31390
G01 Z-0.13780 F39.37008 ( plunge. )
G04 P0 ( dwell for no time -- G64 should not smooth over this point )
X-2.71700 Y-0.31390
X-2.71800 Y-0.31390
X-2.71800 Y-0.31490
X-2.71900 Y-0.31490
X-2.71900 Y-3.93790
X-2.71800 Y-3.93790
X-2.71800 Y-3.93890
X-2.71700 Y-3.93890
X-2.71700 Y-3.93990
X-1.81000 Y-3.93990
X-1.81000 Y-3.93890
X-1.80900 Y-3.93890
X-1.80900 Y-3.93790
X-1.80800 Y-3.93790
X-1.80800 Y-3.54590
X-0.90800 Y-3.54590
X-0.90800 Y-3.93790
X-0.90700 Y-3.93790
X-0.90700 Y-3.93890
X-0.90600 Y-3.93890
X-0.90600 Y-3.93990
X0.00100 Y-3.93990
X0.00100 Y-3.93890
X0.00200 Y-3.93890
X0.00200 Y-3.93690
X0.00100 Y-3.93690
X0.00100 Y-3.93590
X0.00000 Y-3.93590
X0.00000 Y-3.93490
X-0.90300 Y-3.93490
X-0.90300 Y-3.54190
X-0.90400 Y-3.54190
X-0.90400 Y-3.54090
X-1.81100 Y-3.54090
X-1.81100 Y-3.54190
X-1.81200 Y-3.54190
X-1.81200 Y-3.54290
X-1.81300 Y-3.54290
X-1.81300 Y-3.93490
X-2.71400 Y-3.93490
X-2.71400 Y-0.31390
X-2.71500 Y-0.31390
X-2.71500 Y-0.31290
X-2.71700 Y-0.31290
X-2.71700 Y-0.31390
G01 Z-0.14567 F39.37008 ( plunge. )
G04 P0 ( dwell for no time -- G64 should not smooth over this point )
X-2.71700 Y-0.31390
X-2.71800 Y-0.31390
X-2.71800 Y-0.31490
X-2.71900 Y-0.31490
X-2.71900 Y-3.93790
X-2.71800 Y-3.93790
X-2.71800 Y-3.93890
X-2.71700 Y-3.93890
X-2.71700 Y-3.93990
X-1.81000 Y-3.93990
X-1.81000 Y-3.93890
X-1.80900 Y-3.93890
X-1.80900 Y-3.93790
X-1.80800 Y-3.93790
X-1.80800 Y-3.54590
X-0.90800 Y-3.54590
X-0.90800 Y-3.93790
X-0.90700 Y-3.93790
X-0.90700 Y-3.93890
X-0.90600 Y-3.93890
X-0.90600 Y-3.93990
X0.00100 Y-3.93990
X0.00100 Y-3.93890
X0.00200 Y-3.93890
X0.00200 Y-3.93690
X0.00100 Y-3.93690
X0.00100 Y-3.93590
X0.00000 Y-3.93590
X0.00000 Y-3.93490
X-0.90300 Y-3.93490
X-0.90300 Y-3.54190
X-0.90400 Y-3.54190
X-0.90400 Y-3.54090
X-1.81100 Y-3.54090
X-1.81100 Y-3.54190
X-1.81200 Y-3.54190
X-1.81200 Y-3.54290
X-1.81300 Y-3.54290
X-1.81300 Y-3.93490
X-2.71400 Y-3.93490
X-2.71400 Y-0.31390
X-2.71500 Y-0.31390
X-2.71500 Y-0.31290
X-2.71700 Y-0.31290
X-2.71700 Y-0.31390
G01 Z-0.15354 F39.37008 ( plunge. )
G04 P0 ( dwell for no time -- G64 should not smooth over this point )
X-2.71700 Y-0.31390
X-2.71800 Y-0.31390
X-2.71800 Y-0.31490
X-2.71900 Y-0.31490
X-2.71900 Y-3.93790
X-2.71800 Y-3.93790
X-2.71800 Y-3.93890
X-2.71700 Y-3.93890
X-2.71700 Y-3.93990
X-1.81000 Y-3.93990
X-1.81000 Y-3.93890
X-1.80900 Y-3.93890
X-1.80900 Y-3.93790
X-1.80800 Y-3.93790
X-1.80800 Y-3.54590
X-0.90800 Y-3.54590
X-0.90800 Y-3.93790
X-0.90700 Y-3.93790
X-0.90700 Y-3.93890
X-0.90600 Y-3.93890
X-0.90600 Y-3.93990
X0.00100 Y-3.93990
X0.00100 Y-3.93890
X0.00200 Y-3.93890
X0.00200 Y-3.93690
X0.00100 Y-3.93690
X0.00100 Y-3.93590
X0.00000 Y-3.93590
X0.00000 Y-3.93490
X-0.90300 Y-3.93490
X-0.90300 Y-3.54190
X-0.90400 Y-3.54190
X-0.90400 Y-3.54090
X-1.81100 Y-3.54090
X-1.81100 Y-3.54190
X-1.81200 Y-3.54190
X-1.81200 Y-3.54290
X-1.81300 Y-3.54290
X-1.81300 Y-3.93490
X-2.71400 Y-3.93490
X-2.71400 Y-0.31390
X-2.71500 Y-0.31390
X-2.71500 Y-0.31290
X-2.71700 Y-0.31290
X-2.71700 Y-0.31390
G01 Z-0.16142 F39.37008 ( plunge. )
G04 P0 ( dwell for no time -- G64 should not smooth over this point )
X-2.71700 Y-0.31390
X-2.71800 Y-0.31390
X-2.71800 Y-0.31490
X-2.71900 Y-0.31490
X-2.71900 Y-3.93790
X-2.71800 Y-3.93790
X-2.71800 Y-3.93890
X-2.71700 Y-3.93890
X-2.71700 Y-3.93990
X-1.81000 Y-3.93990
X-1.81000 Y-3.93890
X-1.80900 Y-3.93890
X-1.80900 Y-3.93790
X-1.80800 Y-3.93790
X-1.80800 Y-3.54590
X-0.90800 Y-3.54590
X-0.90800 Y-3.93790
X-0.90700 Y-3.93790
X-0.90700 Y-3.93890
X-0.90600 Y-3.93890
X-0.90600 Y-3.93990
X0.00100 Y-3.93990
X0.00100 Y-3.93890
X0.00200 Y-3.93890
X0.00200 Y-3.93690
X0.00100 Y-3.93690
X0.00100 Y-3.93590
X0.00000 Y-3.93590
X0.00000 Y-3.93490
X-0.90300 Y-3.93490
X-0.90300 Y-3.54190
X-0.90400 Y-3.54190
X-0.90400 Y-3.54090
X-1.81100 Y-3.54090
X-1.81100 Y-3.54190
X-1.81200 Y-3.54190
X-1.81200 Y-3.54290
X-1.81300 Y-3.54290
X-1.81300 Y-3.93490
X-2.71400 Y-3.93490
X-2.71400 Y-0.31390
X-2.71500 Y-0.31390
X-2.71500 Y-0.31290
X-2.71700 Y-0.31290
X-2.71700 Y-0.31390
G01 Z-0.16929 F39.37008 ( plunge. )
G04 P0 ( dwell for no time -- G64 should not smooth over this point )
X-2.71700 Y-0.31390
X-2.71800 Y-0.31390
X-2.71800 Y-0.31490
X-2.71900 Y-0.31490
X-2.71900 Y-3.93790
X-2.71800 Y-3.93790
X-2.71800 Y-3.93890
X-2.71700 Y-3.93890
X-2.71700 Y-3.93990
X-1.81000 Y-3.93990
X-1.81000 Y-3.93890
X-1.80900 Y-3.93890
X-1.80900 Y-3.93790
X-1.80800 Y-3.93790
X-1.80800 Y-3.54590
X-0.90800 Y-3.54590
X-0.90800 Y-3.93790
X-0.90700 Y-3.93790
X-0.90700 Y-3.93890
X-0.90600 Y-3.93890
X-0.90600 Y-3.93990
X0.00100 Y-3.93990
X0.00100 Y-3.93890
X0.00200 Y-3.93890
X0.00200 Y-3.93690
X0.00100 Y-3.93690
X0.00100 Y-3.93590
X0.00000 Y-3.93590
X0.00000 Y-3.93490
X-0.90300 Y-3.93490
X-0.90300 Y-3.54190
X-0.90400 Y-3.54190
X-0.90400 Y-3.54090
X-1.81100 Y-3.54090
X-1.81100 Y-3.54190
X-1.81200 Y-3.54190
X-1.81200 Y-3.54290
X-1.81300 Y-3.54290
X-1.81300 Y-3.93490
X-2.71400 Y-3.93490
X-2.71400 Y-0.31390
X-2.71500 Y-0.31390
X-2.71500 Y-0.31290
X-2.71700 Y-0.31290
X-2.71700 Y-0.31390
G01 Z-0.17717 F39.37008 ( plunge. )
G04 P0 ( dwell for no time -- G64 should not smooth over this point )
X-2.71700 Y-0.31390
X-2.71800 Y-0.31390
X-2.71800 Y-0.31490
X-2.71900 Y-0.31490
X-2.71900 Y-3.93790
X-2.71800 Y-3.93790
X-2.71800 Y-3.93890
X-2.71700 Y-3.93890
X-2.71700 Y-3.93990
X-1.81000 Y-3.93990
X-1.81000 Y-3.93890
X-1.80900 Y-3.93890
X-1.80900 Y-3.93790
X-1.80800 Y-3.93790
X-1.80800 Y-3.54590
X-0.90800 Y-3.54590
X-0.90800 Y-3.93790
X-0.90700 Y-3.93790
X-0.90700 Y-3.93890
X-0.90600 Y-3.93890
X-0.90600 Y-3.93990
X0.00100 Y-3.93990
X0.00100 Y-3.93890
X0.00200 Y-3.93890
X0.00200 Y-3.93690
X0.00100 Y-3.93690
X0.00100 Y-3.93590
X0.00000 Y-3.93590
X0.00000 Y-3.93490
X-0.90300 Y-3.93490
X-0.90300 Y-3.54190
X-0.90400 Y-3.54190
X-0.90400 Y-3.54090
X-1.81100 Y-3.54090
X-1.81100 Y-3.54190
X-1.81200 Y-3.54190
X-1.81200 Y-3.54290
X-1.81300 Y-3.54290
X-1.81300 Y-3.93490
X-2.71400 Y-3.93490
X-2.71400 Y-0.31390
X-2.71500 Y-0.31390
X-2.71500 Y-0.31290
X-2.71700 Y-0.31290
X-2.71700 Y-0.31390
G01 Z-0.18504 F39.37008 ( plunge. )
G04 P0 ( dwell for no time -- G64 should not smooth over this point )
X-2.71700 Y-0.31390
X-2.71800 Y-0.31390
X-2.71800 Y-0.31490
X-2.71900 Y-0.31490
X-2.71900 Y-3.93790
X-2.71800 Y-3.93790
X-2.71800 Y-3.93890
X-2.71700 Y-3.93890
X-2.71700 Y-3.93990
X-1.81000 Y-3.93990
X-1.81000 Y-3.93890
X-1.80900 Y-3.93890
X-1.80900 Y-3.93790
X-1.80800 Y-3.93790
X-1.80800 Y-3.54590
X-0.90800 Y-3.54590
X-0.90800 Y-3.93790
X-0.90700 Y-3.93790
X-0.90700 Y-3.93890
X-0.90600 Y-3.93890
X-0.90600 Y-3.93990
X0.00100 Y-3.93990
X0.00100 Y-3.93890
X0.00200 Y-3.93890
X0.00200 Y-3.93690
X0.00100 Y-3.93690
X0.00100 Y-3.93590
X0.00000 Y-3.93590
X0.00000 Y-3.93490
X-0.90300 Y-3.93490
X-0.90300 Y-3.54190
X-0.90400 Y-3.54190
X-0.90400 Y-3.54090
X-1.81100 Y-3.54090
X-1.81100 Y-3.54190
X-1.81200 Y-3.54190
X-1.81200 Y-3.54290
X-1.81300 Y-3.54290
X-1.81300 Y-3.93490
X-2.71400 Y-3.93490
X-2.71400 Y-0.31390
X-2.71500 Y-0.31390
X-2.71500 Y-0.31290
X-2.71700 Y-0.31290
X-2.71700 Y-0.31390
G01 Z-0.19291 F39.37008 ( plunge. )
G04 P0 ( dwell for no time -- G64 should not smooth over this point )
X-2.71700 Y-0.31390
X-2.71800 Y-0.31390
X-2.71800 Y-0.31490
X-2.71900 Y-0.31490
X-2.71900 Y-3.93790
X-2.71800 Y-3.93790
X-2.71800 Y-3.93890
X-2.71700 Y-3.93890
X-2.71700 Y-3.93990
X-1.81000 Y-3.93990
X-1.81000 Y-3.93890
X-1.80900 Y-3.93890
X-1.80900 Y-3.93790
X-1.80800 Y-3.93790
X-1.80800 Y-3.54590
X-0.90800 Y-3.54590
X-0.90800 Y-3.93790
X-0.90700 Y-3.93790
X-0.90700 Y-3.93890
X-0.90600 Y-3.93890
X-0.90600 Y-3.93990
X0.00100 Y-3.93990
X0.00100 Y-3.93890
X0.00200 Y-3.93890
X0.00200 Y-3.93690
X0.00100 Y-3.93690
X0.00100 Y-3.93590
X0.00000 Y-3.93590
X0.00000 Y-3.93490
X-0.90300 Y-3.93490
X-0.90300 Y-3.54190
X-0.90400 Y-3.54190
X-0.90400 Y-3.54090
X-1.81100 Y-3.54090
X-1.81100 Y-3.54190
X-1.81200 Y-3.54190
X-1.81200 Y-3.54290
X-1.81300 Y-3.54290
X-1.81300 Y-3.93490
X-2.71400 Y-3.93490
X-2.71400 Y-0.31390
X-2.71500 Y-0.31390
X-2.71500 Y-0.31290
X-2.71700 Y-0.31290
X-2.71700 Y-0.31390
G01 Z-0.20079 F39.37008 ( plunge. )
G04 P0 ( dwell for no time -- G64 should not smooth over this point )
X-2.71700 Y-0.31390
X-2.71800 Y-0.31390
X-2.71800 Y-0.31490
X-2.71900 Y-0.31490
X-2.71900 Y-3.93790
X-2.71800 Y-3.93790
X-2.71800 Y-3.93890
X-2.71700 Y-3.93890
X-2.71700 Y-3.93990
X-1.81000 Y-3.93990
X-1.81000 Y-3.93890
X-1.80900 Y-3.93890
X-1.80900 Y-3.93790
X-1.80800 Y-3.93790
X-1.80800 Y-3.54590
X-0.90800 Y-3.54590
X-0.90800 Y-3.93790
X-0.90700 Y-3.93790
X-0.90700 Y-3.93890
X-0.90600 Y-3.93890
X-0.90600 Y-3.93990
X0.00100 Y-3.93990
X0.00100 Y-3.93890
X0.00200 Y-3.93890
X0.00200 Y-3.93690
X0.00100 Y-3.93690
X0.00100 Y-3.93590
X0.00000 Y-3.93590
X0.00000 Y-3.93490
X-0.90300 Y-3.93490
X-0.90300 Y-3.54190
X-0.90400 Y-3.54190
X-0.90400 Y-3.54090
X-1.81100 Y-3.54090
X-1.81100 Y-3.54190
X-1.81200 Y-3.54190
X-1.81200 Y-3.54290
X-1.81300 Y-3.54290
X-1.81300 Y-3.93490
X-2.71400 Y-3.93490
X-2.71400 Y-0.31390
X-2.71500 Y-0.31390
X-2.71500 Y-0.31290
X-2.71700 Y-0.31290
X-2.71700 Y-0.31390
G01 Z-0.20866 F39.37008 ( plunge. )
G04 P0 ( dwell for no time -- G64 should not smooth over this point )
X-2.71700 Y-0.31390
X-2.71800 Y-0.31390
X-2.71800 Y-0.31490
X-2.71900 Y-0.31490
X-2.71900 Y-3.93790
X-2.71800 Y-3.93790
X-2.71800 Y-3.93890
X-2.71700 Y-3.93890
X-2.71700 Y-3.93990
X-1.81000 Y-3.93990
X-1.81000 Y-3.93890
X-1.80900 Y-3.93890
X-1.80900 Y-3.93790
X-1.80800 Y-3.93790
X-1.80800 Y-3.54590
X-0.90800 Y-3.54590
X-0.90800 Y-3.93790
X-0.90700 Y-3.93790
X-0.90700 Y-3.93890
X-0.90600 Y-3.93890
X-0.90600 Y-3.93990
X0.00100 Y-3.93990
X0.00100 Y-3.93890
X0.00200 Y-3.93890
X0.00200 Y-3.93690
X0.00100 Y-3.93690
X0.00100 Y-3.93590
X0.00000 Y-3.93590
X0.00000 Y-3.93490
X-0.90300 Y-3.93490
X-0.90300 Y-3.54190
X-0.90400 Y-3.54190
X-0.90400 Y-3.54090
X-1.81100 Y-3.54090
X-1.81100 Y-3.54190
X-1.81200 Y-3.54190
X-1.81200 Y-3.54290
X-1.81300 Y-3.54290
X-1.81300 Y-3.93490
X-2.71400 Y-3.93490
X-2.71400 Y-0.31390
X-2.71500 Y-0.31390
X-2.71500 Y-0.31290
X-2.71700 Y-0.31290
X-2.71700 Y-0.31390
G01 Z-0.21654 F39.37008 ( plunge. )
G04 P0 ( dwell for no time -- G64 should not smooth over this point )
X-2.71700 Y-0.31390
X-2.71800 Y-0.31390
X-2.71800 Y-0.31490
X-2.71900 Y-0.31490
X-2.71900 Y-3.93790
X-2.71800 Y-3.93790
X-2.71800 Y-3.93890
X-2.71700 Y-3.93890
X-2.71700 Y-3.93990
X-1.81000 Y-3.93990
X-1.81000 Y-3.93890
X-1.80900 Y-3.93890
X-1.80900 Y-3.93790
X-1.80800 Y-3.93790
X-1.80800 Y-3.54590
X-0.90800 Y-3.54590
X-0.90800 Y-3.93790
X-0.90700 Y-3.93790
X-0.90700 Y-3.93890
X-0.90600 Y-3.93890
X-0.90600 Y-3.93990
X0.00100 Y-3.93990
X0.00100 Y-3.93890
X0.00200 Y-3.93890
X0.00200 Y-3.93690
X0.00100 Y-3.93690
X0.00100 Y-3.93590
X0.00000 Y-3.93590
X0.00000 Y-3.93490
X-0.90300 Y-3.93490
X-0.90300 Y-3.54190
X-0.90400 Y-3.54190
X-0.90400 Y-3.54090
X-1.81100 Y-3.54090
X-1.81100 Y-3.54190
X-1.81200 Y-3.54190
X-1.81200 Y-3.54290
X-1.81300 Y-3.54290
X-1.81300 Y-3.93490
X-2.71400 Y-3.93490
X-2.71400 Y-0.31390
X-2.71500 Y-0.31390
X-2.71500 Y-0.31290
X-2.71700 Y-0.31290
X-2.71700 Y-0.31390
G01 Z-0.22441 F39.37008 ( plunge. )
G04 P0 ( dwell for no time -- G64 should not smooth over this point )
X-2.71700 Y-0.31390
X-2.71800 Y-0.31390
X-2.71800 Y-0.31490
X-2.71900 Y-0.31490
X-2.71900 Y-3.93790
X-2.71800 Y-3.93790
X-2.71800 Y-3.93890
X-2.71700 Y-3.93890
X-2.71700 Y-3.93990
X-1.81000 Y-3.93990
X-1.81000 Y-3.93890
X-1.80900 Y-3.93890
X-1.80900 Y-3.93790
X-1.80800 Y-3.93790
X-1.80800 Y-3.54590
X-0.90800 Y-3.54590
X-0.90800 Y-3.93790
X-0.90700 Y-3.93790
X-0.90700 Y-3.93890
X-0.90600 Y-3.93890
X-0.90600 Y-3.93990
X0.00100 Y-3.93990
X0.00100 Y-3.93890
X0.00200 Y-3.93890
X0.00200 Y-3.93690
X0.00100 Y-3.93690
X0.00100 Y-3.93590
X0.00000 Y-3.93590
X0.00000 Y-3.93490
X-0.90300 Y-3.93490
X-0.90300 Y-3.54190
X-0.90400 Y-3.54190
X-0.90400 Y-3.54090
X-1.81100 Y-3.54090
X-1.81100 Y-3.54190
X-1.81200 Y-3.54190
X-1.81200 Y-3.54290
X-1.81300 Y-3.54290
X-1.81300 Y-3.93490
X-2.71400 Y-3.93490
X-2.71400 Y-0.31390
X-2.71500 Y-0.31390
X-2.71500 Y-0.31290
X-2.71700 Y-0.31290
X-2.71700 Y-0.31390
G01 Z-0.23228 F39.37008 ( plunge. )
G04 P0 ( dwell for no time -- G64 should not smooth over this point )
X-2.71700 Y-0.31390
X-2.71800 Y-0.31390
X-2.71800 Y-0.31490
X-2.71900 Y-0.31490
X-2.71900 Y-3.93790
X-2.71800 Y-3.93790
X-2.71800 Y-3.93890
X-2.71700 Y-3.93890
X-2.71700 Y-3.93990
X-1.81000 Y-3.93990
X-1.81000 Y-3.93890
X-1.80900 Y-3.93890
X-1.80900 Y-3.93790
X-1.80800 Y-3.93790
X-1.80800 Y-3.54590
X-0.90800 Y-3.54590
X-0.90800 Y-3.93790
X-0.90700 Y-3.93790
X-0.90700 Y-3.93890
X-0.90600 Y-3.93890
X-0.90600 Y-3.93990
X0.00100 Y-3.93990
X0.00100 Y-3.93890
X0.00200 Y-3.93890
X0.00200 Y-3.93690
X0.00100 Y-3.93690
X0.00100 Y-3.93590
X0.00000 Y-3.93590
X0.00000 Y-3.93490
X-0.90300 Y-3.93490
X-0.90300 Y-3.54190
X-0.90400 Y-3.54190
X-0.90400 Y-3.54090
X-1.81100 Y-3.54090
X-1.81100 Y-3.54190
X-1.81200 Y-3.54190
X-1.81200 Y-3.54290
X-1.81300 Y-3.54290
X-1.81300 Y-3.93490
X-2.71400 Y-3.93490
X-2.71400 Y-0.31390
X-2.71500 Y-0.31390
X-2.71500 Y-0.31290
X-2.71700 Y-0.31290
X-2.71700 Y-0.31390
G01 Z-0.24016 F39.37008 ( plunge. )
G04 P0 ( dwell for no time -- G64 should not smooth over this point )
X-2.71700 Y-0.31390
X-2.71800 Y-0.31390
X-2.71800 Y-0.31490
X-2.71900 Y-0.31490
X-2.71900 Y-3.93790
X-2.71800 Y-3.93790
X-2.71800 Y-3.93890
X-2.71700 Y-3.93890
X-2.71700 Y-3.93990
X-1.81000 Y-3.93990
X-1.81000 Y-3.93890
X-1.80900 Y-3.93890
X-1.80900 Y-3.93790
X-1.80800 Y-3.93790
X-1.80800 Y-3.54590
X-0.90800 Y-3.54590
X-0.90800 Y-3.93790
X-0.90700 Y-3.93790
X-0.90700 Y-3.93890
X-0.90600 Y-3.93890
X-0.90600 Y-3.93990
X0.00100 Y-3.93990
X0.00100 Y-3.93890
X0.00200 Y-3.93890
X0.00200 Y-3.93690
X0.00100 Y-3.93690
X0.00100 Y-3.93590
X0.00000 Y-3.93590
X0.00000 Y-3.93490
X-0.90300 Y-3.93490
X-0.90300 Y-3.54190
X-0.90400 Y-3.54190
X-0.90400 Y-3.54090
X-1.81100 Y-3.54090
X-1.81100 Y-3.54190
X-1.81200 Y-3.54190
X-1.81200 Y-3.54290
X-1.81300 Y-3.54290
X-1.81300 Y-3.93490
X-2.71400 Y-3.93490
X-2.71400 Y-0.31390
X-2.71500 Y-0.31390
X-2.71500 Y-0.31290
X-2.71700 Y-0.31290
X-2.71700 Y-0.31390
G01 Z-0.24803 F39.37008 ( plunge. )
G04 P0 ( dwell for no time -- G64 should not smooth over this point )
X-2.71700 Y-0.31390
X-2.71800 Y-0.31390
X-2.71800 Y-0.31490
X-2.71900 Y-0.31490
X-2.71900 Y-3.93790
X-2.71800 Y-3.93790
X-2.71800 Y-3.93890
X-2.71700 Y-3.93890
X-2.71700 Y-3.93990
X-1.81000 Y-3.93990
X-1.81000 Y-3.93890
X-1.80900 Y-3.93890
X-1.80900 Y-3.93790
X-1.80800 Y-3.93790
X-1.80800 Y-3.54590
X-0.90800 Y-3.54590
X-0.90800 Y-3.93790
X-0.90700 Y-3.93790
X-0.90700 Y-3.93890
X-0.90600 Y-3.93890
X-0.90600 Y-3.93990
X0.00100 Y-3.93990
X0.00100 Y-3.93890
X0.00200 Y-3.93890
X0.00200 Y-3.93690
X0.00100 Y-3.93690
X0.00100 Y-3.93590
X0.00000 Y-3.93590
X0.00000 Y-3.93490
X-0.90300 Y-3.93490
X-0.90300 Y-3.54190
X-0.90400 Y-3.54190
X-0.90400 Y-3.54090
X-1.81100 Y-3.54090
X-1.81100 Y-3.54190
X-1.81200 Y-3.54190
X-1.81200 Y-3.54290
X-1.81300 Y-3.54290
X-1.81300 Y-3.93490
X-2.71400 Y-3.93490
X-2.71400 Y-0.31390
X-2.71500 Y-0.31390
X-2.71500 Y-0.31290
X-2.71700 Y-0.31290
X-2.71700 Y-0.31390
G01 Z-0.25591 F39.37008 ( plunge. )
G04 P0 ( dwell for no time -- G64 should not smooth over this point )
X-2.71700 Y-0.31390
X-2.71800 Y-0.31390
X-2.71800 Y-0.31490
X-2.71900 Y-0.31490
X-2.71900 Y-3.93790
X-2.71800 Y-3.93790
X-2.71800 Y-3.93890
X-2.71700 Y-3.93890
X-2.71700 Y-3.93990
X-1.81000 Y-3.93990
X-1.81000 Y-3.93890
X-1.80900 Y-3.93890
X-1.80900 Y-3.93790
X-1.80800 Y-3.93790
X-1.80800 Y-3.54590
X-0.90800 Y-3.54590
X-0.90800 Y-3.93790
X-0.90700 Y-3.93790
X-0.90700 Y-3.93890
X-0.90600 Y-3.93890
X-0.90600 Y-3.93990
X0.00100 Y-3.93990
X0.00100 Y-3.93890
X0.00200 Y-3.93890
X0.00200 Y-3.93690
X0.00100 Y-3.93690
X0.00100 Y-3.93590
X0.00000 Y-3.93590
X0.00000 Y-3.93490
X-0.90300 Y-3.93490
X-0.90300 Y-3.54190
X-0.90400 Y-3.54190
X-0.90400 Y-3.54090
X-1.81100 Y-3.54090
X-1.81100 Y-3.54190
X-1.81200 Y-3.54190
X-1.81200 Y-3.54290
X-1.81300 Y-3.54290
X-1.81300 Y-3.93490
X-2.71400 Y-3.93490
X-2.71400 Y-0.31390
X-2.71500 Y-0.31390
X-2.71500 Y-0.31290
X-2.71700 Y-0.31290
X-2.71700 Y-0.31390

G04 P0 ( dwell for no time -- G64 should not smooth over this point )
G00 Z0.78740 ( retract )

M9 ( Coolant off. )
M2 ( Program end. )

