( pcb2gcode 1.1.4 )

G94     ( Inches per minute feed rate. )
G20     ( Units == INCHES.             )
G90     ( Absolute coordinates.        )
S10000  ( RPM spindle speed.           )
M3      ( Spindle on clockwise.        )

G64 P0.00500 ( set maximum deviation from commanded toolpath )

G04 P0 ( dwell for no time -- G64 should not smooth over this point )
G00 Z0.19685 ( retract )

G00 X-3.94400 Y-3.68200 ( rapid move to begin. )
G01 Z-0.00394 F39.37008 ( plunge. )
G04 P0 ( dwell for no time -- G64 should not smooth over this point )
X-3.94400 Y-3.68200
X-3.96200 Y-3.68200
X-3.96200 Y-3.68300
X-3.97000 Y-3.68300
X-3.97000 Y-3.68400
X-3.97600 Y-3.68400
X-3.97600 Y-3.68500
X-3.98300 Y-3.68500
X-3.98300 Y-3.68600
X-3.98900 Y-3.68600
X-3.98900 Y-3.68700
X-3.99300 Y-3.68700
X-3.99300 Y-3.68800
X-3.99700 Y-3.68800
X-3.99700 Y-3.68900
X-4.00100 Y-3.68900
X-4.00100 Y-3.69000
X-4.00500 Y-3.69000
X-4.00500 Y-3.69100
X-4.00900 Y-3.69100
X-4.00900 Y-3.69200
X-4.01200 Y-3.69200
X-4.01200 Y-3.69300
X-4.01500 Y-3.69300
X-4.01500 Y-3.69400
X-4.01700 Y-3.69400
X-4.01700 Y-3.69500
X-4.02000 Y-3.69500
X-4.02000 Y-3.69600
X-4.02300 Y-3.69600
X-4.02300 Y-3.69700
X-4.02600 Y-3.69700
X-4.02600 Y-3.69800
X-4.02800 Y-3.69800
X-4.02800 Y-3.69900
X-4.03100 Y-3.69900
X-4.03100 Y-3.70000
X-4.03300 Y-3.70000
X-4.03300 Y-3.70100
X-4.03500 Y-3.70100
X-4.03500 Y-3.70200
X-4.03700 Y-3.70200
X-4.03700 Y-3.70300
X-4.03900 Y-3.70300
X-4.03900 Y-3.70400
X-4.04100 Y-3.70400
X-4.04100 Y-3.70500
X-4.04300 Y-3.70500
X-4.04300 Y-3.70600
X-4.04600 Y-3.70600
X-4.04600 Y-3.70700
X-4.04800 Y-3.70700
X-4.04800 Y-3.70800
X-4.05000 Y-3.70800
X-4.05000 Y-3.70900
X-4.05200 Y-3.70900
X-4.05200 Y-3.71000
X-4.05400 Y-3.71000
X-4.05400 Y-3.71100
X-4.05600 Y-3.71100
X-4.05600 Y-3.71200
X-4.05800 Y-3.71200
X-4.05800 Y-3.71300
X-4.06000 Y-3.71300
X-4.06000 Y-3.71400
X-4.06200 Y-3.71400
X-4.06200 Y-3.71500
X-4.06400 Y-3.71500
X-4.06400 Y-3.71600
X-4.06600 Y-3.71600
X-4.06600 Y-3.71700
X-4.06700 Y-3.71700
X-4.06700 Y-3.71800
X-4.06900 Y-3.71800
X-4.06900 Y-3.71900
X-4.07100 Y-3.71900
X-4.07100 Y-3.72000
X-4.07200 Y-3.72000
X-4.07200 Y-3.72100
X-4.07400 Y-3.72100
X-4.07400 Y-3.72200
X-4.07500 Y-3.72200
X-4.07500 Y-3.72300
X-4.07700 Y-3.72300
X-4.07700 Y-3.72400
X-4.07900 Y-3.72400
X-4.07900 Y-3.72500
X-4.08000 Y-3.72500
X-4.08000 Y-3.72600
X-4.08200 Y-3.72600
X-4.08200 Y-3.72700
X-4.08300 Y-3.72700
X-4.08300 Y-3.72800
X-4.08500 Y-3.72800
X-4.08500 Y-3.72900
X-4.08600 Y-3.72900
X-4.08600 Y-3.73000
X-4.08700 Y-3.73000
X-4.08700 Y-3.73100
X-4.08900 Y-3.73100
X-4.08900 Y-3.73200
X-4.09000 Y-3.73200
X-4.09000 Y-3.73300
X-4.09100 Y-3.73300
X-4.09100 Y-3.73400
X-4.09300 Y-3.73400
X-4.09300 Y-3.73500
X-4.09400 Y-3.73500
X-4.09400 Y-3.73600
X-4.09500 Y-3.73600
X-4.09500 Y-3.73700
X-4.09700 Y-3.73700
X-4.09700 Y-3.73800
X-4.09800 Y-3.73800
X-4.09800 Y-3.73900
X-4.09900 Y-3.73900
X-4.09900 Y-3.74000
X-4.10000 Y-3.74000
X-4.10000 Y-3.74100
X-4.10100 Y-3.74100
X-4.10100 Y-3.74200
X-4.10300 Y-3.74200
X-4.10300 Y-3.74300
X-4.10400 Y-3.74300
X-4.10400 Y-3.74400
X-4.10500 Y-3.74400
X-4.10500 Y-3.74500
X-4.10600 Y-3.74500
X-4.10600 Y-3.74600
X-4.10700 Y-3.74600
X-4.10700 Y-3.74700
X-4.10800 Y-3.74700
X-4.10800 Y-3.74800
X-4.10900 Y-3.74800
X-4.10900 Y-3.74900
X-4.11000 Y-3.74900
X-4.11000 Y-3.75000
X-4.11100 Y-3.75000
X-4.11100 Y-3.75100
X-4.11200 Y-3.75100
X-4.11200 Y-3.75200
X-4.11400 Y-3.75200
X-4.11400 Y-3.75300
X-4.11500 Y-3.75300
X-4.11500 Y-3.75400
X-4.11600 Y-3.75400
X-4.11600 Y-3.75600
X-4.11700 Y-3.75600
X-4.11700 Y-3.75700
X-4.11800 Y-3.75700
X-4.11800 Y-3.75800
X-4.11900 Y-3.75800
X-4.11900 Y-3.75900
X-4.12000 Y-3.75900
X-4.12000 Y-3.76000
X-4.12100 Y-3.76000
X-4.12100 Y-3.76100
X-4.12200 Y-3.76100
X-4.12200 Y-3.76200
X-4.12300 Y-3.76200
X-4.12300 Y-3.76300
X-4.12400 Y-3.76300
X-4.12400 Y-3.76400
X-4.12500 Y-3.76400
X-4.12500 Y-3.76500
X-4.12600 Y-3.76500
X-4.12600 Y-3.76700
X-4.12700 Y-3.76700
X-4.12700 Y-3.76800
X-4.12800 Y-3.76800
X-4.12800 Y-3.76900
X-4.12900 Y-3.76900
X-4.12900 Y-3.77000
X-4.13000 Y-3.77000
X-4.13000 Y-3.77100
X-4.13100 Y-3.77100
X-4.13100 Y-3.77200
X-4.13200 Y-3.77200
X-4.13200 Y-3.77400
X-4.13300 Y-3.77400
X-4.13300 Y-3.77500
X-4.13400 Y-3.77500
X-4.13400 Y-3.77600
X-4.13500 Y-3.77600
X-4.13500 Y-3.77700
X-4.13600 Y-3.77700
X-4.13600 Y-3.77900
X-4.13700 Y-3.77900
X-4.13700 Y-3.78000
X-4.13800 Y-3.78000
X-4.13800 Y-3.78100
X-4.13900 Y-3.78100
X-4.13900 Y-3.78300
X-4.14000 Y-3.78300
X-4.14000 Y-3.78400
X-4.14100 Y-3.78400
X-4.14100 Y-3.78500
X-4.14200 Y-3.78500
X-4.14200 Y-3.78700
X-4.14300 Y-3.78700
X-4.14300 Y-3.78800
X-4.14400 Y-3.78800
X-4.14400 Y-3.78900
X-4.14500 Y-3.78900
X-4.14500 Y-3.79100
X-4.14600 Y-3.79100
X-4.14600 Y-3.79200
X-4.14700 Y-3.79200
X-4.14700 Y-3.79300
X-4.14800 Y-3.79300
X-4.14800 Y-3.79500
X-4.14900 Y-3.79500
X-4.14900 Y-3.79600
X-4.15000 Y-3.79600
X-4.15000 Y-3.79700
X-4.15100 Y-3.79700
X-4.15100 Y-3.79900
X-4.15200 Y-3.79900
X-4.15200 Y-3.80100
X-4.15300 Y-3.80100
X-4.15300 Y-3.80200
X-4.15400 Y-3.80200
X-4.15400 Y-3.80400
X-4.15500 Y-3.80400
X-4.15500 Y-3.80600
X-4.15600 Y-3.80600
X-4.15600 Y-3.80700
X-4.15700 Y-3.80700
X-4.15700 Y-3.80900
X-4.15800 Y-3.80900
X-4.15800 Y-3.81100
X-4.15900 Y-3.81100
X-4.15900 Y-3.81200
X-4.16000 Y-3.81200
X-4.16000 Y-3.81400
X-4.16100 Y-3.81400
X-4.16100 Y-3.81500
X-4.16200 Y-3.81500
X-4.16200 Y-3.81700
X-4.16300 Y-3.81700
X-4.16300 Y-3.82000
X-4.16400 Y-3.82000
X-4.16400 Y-3.82200
X-4.16500 Y-3.82200
X-4.16500 Y-3.82400
X-4.16600 Y-3.82400
X-4.16600 Y-3.82600
X-4.16700 Y-3.82600
X-4.16700 Y-3.82800
X-4.16800 Y-3.82800
X-4.16800 Y-3.83000
X-4.16900 Y-3.83000
X-4.16900 Y-3.83200
X-4.17000 Y-3.83200
X-4.17000 Y-3.83400
X-4.17100 Y-3.83400
X-4.17100 Y-3.83600
X-4.17200 Y-3.83600
X-4.17200 Y-3.83900
X-4.17300 Y-3.83900
X-4.17300 Y-3.84200
X-4.17400 Y-3.84200
X-4.17400 Y-3.84500
X-4.17500 Y-3.84500
X-4.17500 Y-3.84700
X-4.17600 Y-3.84700
X-4.17600 Y-3.85000
X-4.17700 Y-3.85000
X-4.17700 Y-3.85300
X-4.17800 Y-3.85300
X-4.17800 Y-3.85500
X-4.17900 Y-3.85500
X-4.17900 Y-3.85900
X-4.18000 Y-3.85900
X-4.18000 Y-3.86300
X-4.18100 Y-3.86300
X-4.18100 Y-3.86700
X-4.18200 Y-3.86700
X-4.18200 Y-3.87100
X-4.18300 Y-3.87100
X-4.18300 Y-3.87500
X-4.18400 Y-3.87500
X-4.18400 Y-3.87800
X-4.18500 Y-3.87800
X-4.18500 Y-3.88300
X-4.18600 Y-3.88300
X-4.18600 Y-3.88700
X-4.18700 Y-3.88700
X-4.18700 Y-3.89200
X-4.18800 Y-3.89200
X-4.18800 Y-3.89900
X-4.18900 Y-3.89900
X-4.18900 Y-3.90500
X-4.19000 Y-3.90500
X-4.19000 Y-3.91200
X-4.19100 Y-3.91200
X-4.19100 Y-3.92900
X-4.19200 Y-3.92900
X-4.19200 Y-3.94400
X-4.19100 Y-3.94400
X-4.19100 Y-3.96100
X-4.19000 Y-3.96100
X-4.19000 Y-3.96800
X-4.18900 Y-3.96800
X-4.18900 Y-3.97400
X-4.18800 Y-3.97400
X-4.18800 Y-3.98100
X-4.18700 Y-3.98100
X-4.18700 Y-3.98600
X-4.18600 Y-3.98600
X-4.18600 Y-3.99000
X-4.18500 Y-3.99000
X-4.18500 Y-3.99500
X-4.18400 Y-3.99500
X-4.18400 Y-3.99900
X-4.18300 Y-3.99900
X-4.18300 Y-4.00200
X-4.18200 Y-4.00200
X-4.18200 Y-4.00600
X-4.18100 Y-4.00600
X-4.18100 Y-4.01000
X-4.18000 Y-4.01000
X-4.18000 Y-4.01400
X-4.17900 Y-4.01400
X-4.17900 Y-4.01800
X-4.17800 Y-4.01800
X-4.17800 Y-4.02000
X-4.17700 Y-4.02000
X-4.17700 Y-4.02300
X-4.17600 Y-4.02300
X-4.17600 Y-4.02600
X-4.17500 Y-4.02600
X-4.17500 Y-4.02900
X-4.17400 Y-4.02900
X-4.17400 Y-4.03100
X-4.17300 Y-4.03100
X-4.17300 Y-4.03400
X-4.17200 Y-4.03400
X-4.17200 Y-4.03700
X-4.17100 Y-4.03700
X-4.17100 Y-4.03900
X-4.17000 Y-4.03900
X-4.17000 Y-4.04100
X-4.16900 Y-4.04100
X-4.16900 Y-4.04300
X-4.16800 Y-4.04300
X-4.16800 Y-4.04500
X-4.16700 Y-4.04500
X-4.16700 Y-4.04700
X-4.16600 Y-4.04700
X-4.16600 Y-4.04900
X-4.16500 Y-4.04900
X-4.16500 Y-4.05200
X-4.16400 Y-4.05200
X-4.16400 Y-4.05400
X-4.16300 Y-4.05400
X-4.16300 Y-4.05600
X-4.16200 Y-4.05600
X-4.16200 Y-4.05800
X-4.16100 Y-4.05800
X-4.16100 Y-4.05900
X-4.16000 Y-4.05900
X-4.16000 Y-4.06100
X-4.15900 Y-4.06100
X-4.15900 Y-4.06300
X-4.15800 Y-4.06300
X-4.15800 Y-4.06400
X-4.15700 Y-4.06400
X-4.15700 Y-4.06600
X-4.15600 Y-4.06600
X-4.15600 Y-4.06800
X-4.15500 Y-4.06800
X-4.15500 Y-4.06900
X-4.15400 Y-4.06900
X-4.15400 Y-4.07100
X-4.15300 Y-4.07100
X-4.15300 Y-4.07200
X-4.15200 Y-4.07200
X-4.15200 Y-4.07400
X-4.15100 Y-4.07400
X-4.15100 Y-4.07600
X-4.15000 Y-4.07600
X-4.15000 Y-4.07700
X-4.14900 Y-4.07700
X-4.14900 Y-4.07800
X-4.14800 Y-4.07800
X-4.14800 Y-4.08000
X-4.14700 Y-4.08000
X-4.14700 Y-4.08100
X-4.14600 Y-4.08100
X-4.14600 Y-4.08200
X-4.14500 Y-4.08200
X-4.14500 Y-4.08400
X-4.14400 Y-4.08400
X-4.14400 Y-4.08500
X-4.14300 Y-4.08500
X-4.14300 Y-4.08700
X-4.14200 Y-4.08700
X-4.14200 Y-4.08800
X-4.14100 Y-4.08800
X-4.14100 Y-4.08900
X-4.14000 Y-4.08900
X-4.14000 Y-4.09100
X-4.13900 Y-4.09100
X-4.13900 Y-4.09200
X-4.13800 Y-4.09200
X-4.13800 Y-4.09300
X-4.13700 Y-4.09300
X-4.13700 Y-4.09400
X-4.13600 Y-4.09400
X-4.13600 Y-4.09600
X-4.13500 Y-4.09600
X-4.13500 Y-4.09700
X-4.13400 Y-4.09700
X-4.13400 Y-4.09800
X-4.13300 Y-4.09800
X-4.13300 Y-4.09900
X-4.13200 Y-4.09900
X-4.13200 Y-4.10100
X-4.13100 Y-4.10100
X-4.13100 Y-4.10200
X-4.13000 Y-4.10200
X-4.13000 Y-4.10300
X-4.12900 Y-4.10300
X-4.12900 Y-4.10400
X-4.12800 Y-4.10400
X-4.12800 Y-4.10500
X-4.12700 Y-4.10500
X-4.12700 Y-4.10700
X-4.12600 Y-4.10700
X-4.12600 Y-4.10800
X-4.12500 Y-4.10800
X-4.12500 Y-4.10900
X-4.12400 Y-4.10900
X-4.12400 Y-4.11000
X-4.12300 Y-4.11000
X-4.12300 Y-4.11100
X-4.12200 Y-4.11100
X-4.12200 Y-4.11200
X-4.12100 Y-4.11200
X-4.12100 Y-4.11300
X-4.12000 Y-4.11300
X-4.12000 Y-4.11400
X-4.11900 Y-4.11400
X-4.11900 Y-4.11500
X-4.11800 Y-4.11500
X-4.11800 Y-4.11600
X-4.11700 Y-4.11600
X-4.11700 Y-4.11800
X-4.11600 Y-4.11800
X-4.11600 Y-4.11900
X-4.11500 Y-4.11900
X-4.11500 Y-4.12000
X-4.11400 Y-4.12000
X-4.11400 Y-4.12100
X-4.11300 Y-4.12100
X-4.11300 Y-4.12200
X-4.11100 Y-4.12200
X-4.11100 Y-4.12300
X-4.11000 Y-4.12300
X-4.11000 Y-4.12400
X-4.10900 Y-4.12400
X-4.10900 Y-4.12500
X-4.10800 Y-4.12500
X-4.10800 Y-4.12600
X-4.10700 Y-4.12600
X-4.10700 Y-4.12700
X-4.10600 Y-4.12700
X-4.10600 Y-4.12800
X-4.10500 Y-4.12800
X-4.10500 Y-4.12900
X-4.10400 Y-4.12900
X-4.10400 Y-4.13000
X-4.10300 Y-4.13000
X-4.10300 Y-4.13100
X-4.10200 Y-4.13100
X-4.10200 Y-4.13200
X-4.10000 Y-4.13200
X-4.10000 Y-4.13300
X-4.09900 Y-4.13300
X-4.09900 Y-4.13400
X-4.09800 Y-4.13400
X-4.09800 Y-4.13500
X-4.09700 Y-4.13500
X-4.09700 Y-4.13600
X-4.09500 Y-4.13600
X-4.09500 Y-4.13700
X-4.09400 Y-4.13700
X-4.09400 Y-4.13800
X-4.09300 Y-4.13800
X-4.09300 Y-4.13900
X-4.09100 Y-4.13900
X-4.09100 Y-4.14000
X-4.09000 Y-4.14000
X-4.09000 Y-4.14100
X-4.08900 Y-4.14100
X-4.08900 Y-4.14200
X-4.08700 Y-4.14200
X-4.08700 Y-4.14300
X-4.08600 Y-4.14300
X-4.08600 Y-4.14400
X-4.08500 Y-4.14400
X-4.08500 Y-4.14500
X-4.08300 Y-4.14500
X-4.08300 Y-4.14600
X-4.08200 Y-4.14600
X-4.08200 Y-4.14700
X-4.08100 Y-4.14700
X-4.08100 Y-4.14800
X-4.07900 Y-4.14800
X-4.07900 Y-4.14900
X-4.07700 Y-4.14900
X-4.07700 Y-4.15000
X-4.07600 Y-4.15000
X-4.07600 Y-4.15100
X-4.07400 Y-4.15100
X-4.07400 Y-4.15200
X-4.07200 Y-4.15200
X-4.07200 Y-4.15300
X-4.07100 Y-4.15300
X-4.07100 Y-4.15400
X-4.06900 Y-4.15400
X-4.06900 Y-4.15500
X-4.06700 Y-4.15500
X-4.06700 Y-4.15600
X-4.06600 Y-4.15600
X-4.06600 Y-4.15700
X-4.06400 Y-4.15700
X-4.06400 Y-4.15800
X-4.06200 Y-4.15800
X-4.06200 Y-4.15900
X-4.06000 Y-4.15900
X-4.06000 Y-4.16000
X-4.05800 Y-4.16000
X-4.05800 Y-4.16100
X-4.05600 Y-4.16100
X-4.05600 Y-4.16200
X-4.05400 Y-4.16200
X-4.05400 Y-4.16300
X-4.05200 Y-4.16300
X-4.05200 Y-4.16400
X-4.05000 Y-4.16400
X-4.05000 Y-4.16500
X-4.04800 Y-4.16500
X-4.04800 Y-4.16600
X-4.04600 Y-4.16600
X-4.04600 Y-4.16700
X-4.04400 Y-4.16700
X-4.04400 Y-4.16800
X-4.04200 Y-4.16800
X-4.04200 Y-4.16900
X-4.04000 Y-4.16900
X-4.04000 Y-4.17000
X-4.03800 Y-4.17000
X-4.03800 Y-4.17100
X-4.03500 Y-4.17100
X-4.03500 Y-4.17200
X-4.03300 Y-4.17200
X-4.03300 Y-4.17300
X-4.03100 Y-4.17300
X-4.03100 Y-4.17400
X-4.02900 Y-4.17400
X-4.02900 Y-4.17500
X-4.02600 Y-4.17500
X-4.02600 Y-4.17600
X-4.02300 Y-4.17600
X-4.02300 Y-4.17700
X-4.02000 Y-4.17700
X-4.02000 Y-4.17800
X-4.01800 Y-4.17800
X-4.01800 Y-4.17900
X-4.01500 Y-4.17900
X-4.01500 Y-4.18000
X-4.01200 Y-4.18000
X-4.01200 Y-4.18100
X-4.00900 Y-4.18100
X-4.00900 Y-4.18200
X-4.00500 Y-4.18200
X-4.00500 Y-4.18300
X-4.00100 Y-4.18300
X-4.00100 Y-4.18400
X-3.99700 Y-4.18400
X-3.99700 Y-4.18500
X-3.99400 Y-4.18500
X-3.99400 Y-4.18600
X-3.99000 Y-4.18600
X-3.99000 Y-4.18700
X-3.98400 Y-4.18700
X-3.98400 Y-4.18800
X-3.97700 Y-4.18800
X-3.97700 Y-4.18900
X-3.97000 Y-4.18900
X-3.97000 Y-4.19000
X-3.96300 Y-4.19000
X-3.96300 Y-4.19100
X-3.94700 Y-4.19100
X-3.94700 Y-4.19200
X-3.92600 Y-4.19200
X-3.92600 Y-4.19100
X-3.91000 Y-4.19100
X-3.91000 Y-4.19000
X-3.90200 Y-4.19000
X-3.90200 Y-4.18900
X-3.89600 Y-4.18900
X-3.89600 Y-4.18800
X-3.88900 Y-4.18800
X-3.88900 Y-4.18700
X-3.88300 Y-4.18700
X-3.88300 Y-4.18600
X-3.87900 Y-4.18600
X-3.87900 Y-4.18500
X-3.87500 Y-4.18500
X-3.87500 Y-4.18400
X-3.87200 Y-4.18400
X-3.87200 Y-4.18300
X-3.86800 Y-4.18300
X-3.86800 Y-4.18200
X-3.86400 Y-4.18200
X-3.86400 Y-4.18100
X-3.86100 Y-4.18100
X-3.86100 Y-4.18000
X-3.85800 Y-4.18000
X-3.85800 Y-4.17900
X-3.85500 Y-4.17900
X-3.85500 Y-4.17800
X-3.85200 Y-4.17800
X-3.85200 Y-4.17700
X-3.85000 Y-4.17700
X-3.85000 Y-4.17600
X-3.84700 Y-4.17600
X-3.84700 Y-4.17500
X-3.84400 Y-4.17500
X-3.84400 Y-4.17400
X-3.84200 Y-4.17400
X-3.84200 Y-4.17300
X-3.83900 Y-4.17300
X-3.83900 Y-4.17200
X-3.83700 Y-4.17200
X-3.83700 Y-4.17100
X-3.83500 Y-4.17100
X-3.83500 Y-4.17000
X-3.83300 Y-4.17000
X-3.83300 Y-4.16900
X-3.83100 Y-4.16900
X-3.83100 Y-4.16800
X-3.82900 Y-4.16800
X-3.82900 Y-4.16700
X-3.82700 Y-4.16700
X-3.82700 Y-4.16600
X-3.82500 Y-4.16600
X-3.82500 Y-4.16500
X-3.82300 Y-4.16500
X-3.82300 Y-4.16400
X-3.82100 Y-4.16400
X-3.82100 Y-4.16300
X-3.81900 Y-4.16300
X-3.81900 Y-4.16200
X-3.81700 Y-4.16200
X-3.81700 Y-4.16100
X-3.81500 Y-4.16100
X-3.81500 Y-4.16000
X-3.81200 Y-4.16000
X-3.81200 Y-4.15900
X-3.81000 Y-4.15900
X-3.81000 Y-4.15800
X-3.80900 Y-4.15800
X-3.80900 Y-4.15700
X-3.80700 Y-4.15700
X-3.80700 Y-4.15600
X-3.80500 Y-4.15600
X-3.80500 Y-4.15500
X-3.80400 Y-4.15500
X-3.80400 Y-4.15400
X-3.80200 Y-4.15400
X-3.80200 Y-4.15300
X-3.80000 Y-4.15300
X-3.80000 Y-4.15200
X-3.79900 Y-4.15200
X-3.79900 Y-4.15100
X-3.79700 Y-4.15100
X-3.79700 Y-4.15000
X-3.79600 Y-4.15000
X-3.79600 Y-4.14900
X-3.79400 Y-4.14900
X-3.79400 Y-4.14800
X-3.79200 Y-4.14800
X-3.79200 Y-4.14700
X-3.79100 Y-4.14700
X-3.79100 Y-4.14600
X-3.78900 Y-4.14600
X-3.78900 Y-4.14500
X-3.78800 Y-4.14500
X-3.78800 Y-4.14400
X-3.78700 Y-4.14400
X-3.78700 Y-4.14300
X-3.78500 Y-4.14300
X-3.78500 Y-4.14200
X-3.78400 Y-4.14200
X-3.78400 Y-4.14100
X-3.78300 Y-4.14100
X-3.78300 Y-4.14000
X-3.78100 Y-4.14000
X-3.78100 Y-4.13900
X-3.78000 Y-4.13900
X-3.78000 Y-4.13800
X-3.77900 Y-4.13800
X-3.77900 Y-4.13700
X-3.77700 Y-4.13700
X-3.77700 Y-4.13600
X-3.77600 Y-4.13600
X-3.77600 Y-4.13500
X-3.77500 Y-4.13500
X-3.77500 Y-4.13400
X-3.77300 Y-4.13400
X-3.77300 Y-4.13300
X-3.77200 Y-4.13300
X-3.77200 Y-4.13200
X-3.77100 Y-4.13200
X-3.77100 Y-4.13100
X-3.77000 Y-4.13100
X-3.77000 Y-4.13000
X-3.76900 Y-4.13000
X-3.76900 Y-4.12900
X-3.76800 Y-4.12900
X-3.76800 Y-4.12800
X-3.76700 Y-4.12800
X-3.76700 Y-4.12700
X-3.76600 Y-4.12700
X-3.76600 Y-4.12600
X-3.76500 Y-4.12600
X-3.76500 Y-4.12500
X-3.76400 Y-4.12500
X-3.76400 Y-4.12400
X-3.76200 Y-4.12400
X-3.76200 Y-4.12300
X-3.76100 Y-4.12300
X-3.76100 Y-4.12200
X-3.76000 Y-4.12200
X-3.76000 Y-4.12100
X-3.75900 Y-4.12100
X-3.75900 Y-4.12000
X-3.75800 Y-4.12000
X-3.75800 Y-4.11900
X-3.75700 Y-4.11900
X-3.75700 Y-4.11800
X-3.75600 Y-4.11800
X-3.75600 Y-4.11700
X-3.75500 Y-4.11700
X-3.75500 Y-4.11600
X-3.75400 Y-4.11600
X-3.75400 Y-4.11400
X-3.75300 Y-4.11400
X-3.75300 Y-4.11300
X-3.75200 Y-4.11300
X-3.75200 Y-4.11200
X-3.75100 Y-4.11200
X-3.75100 Y-4.11100
X-3.75000 Y-4.11100
X-3.75000 Y-4.11000
X-3.74900 Y-4.11000
X-3.74900 Y-4.10900
X-3.74800 Y-4.10900
X-3.74800 Y-4.10800
X-3.74700 Y-4.10800
X-3.74700 Y-4.10700
X-3.74600 Y-4.10700
X-3.74600 Y-4.10600
X-3.74500 Y-4.10600
X-3.74500 Y-4.10500
X-3.74400 Y-4.10500
X-3.74400 Y-4.10300
X-3.74300 Y-4.10300
X-3.74300 Y-4.10200
X-3.74200 Y-4.10200
X-3.74200 Y-4.10100
X-3.74100 Y-4.10100
X-3.74100 Y-4.10000
X-3.74000 Y-4.10000
X-3.74000 Y-4.09800
X-3.73900 Y-4.09800
X-3.73900 Y-4.09700
X-3.73800 Y-4.09700
X-3.73800 Y-4.09600
X-3.73700 Y-4.09600
X-3.73700 Y-4.09500
X-3.73600 Y-4.09500
X-3.73600 Y-4.09300
X-3.73500 Y-4.09300
X-3.73500 Y-4.09200
X-3.73400 Y-4.09200
X-3.73400 Y-4.09100
X-3.73300 Y-4.09100
X-3.73300 Y-4.08900
X-3.73200 Y-4.08900
X-3.73200 Y-4.08800
X-3.73100 Y-4.08800
X-3.73100 Y-4.08700
X-3.73000 Y-4.08700
X-3.73000 Y-4.08500
X-3.72900 Y-4.08500
X-3.72900 Y-4.08400
X-3.72800 Y-4.08400
X-3.72800 Y-4.08300
X-3.72700 Y-4.08300
X-3.72700 Y-4.08100
X-3.72600 Y-4.08100
X-3.72600 Y-4.08000
X-3.72500 Y-4.08000
X-3.72500 Y-4.07900
X-3.72400 Y-4.07900
X-3.72400 Y-4.07700
X-3.72300 Y-4.07700
X-3.72300 Y-4.07600
X-3.72200 Y-4.07600
X-3.72200 Y-4.07400
X-3.72100 Y-4.07400
X-3.72100 Y-4.07300
X-3.72000 Y-4.07300
X-3.72000 Y-4.07100
X-3.71900 Y-4.07100
X-3.71900 Y-4.06900
X-3.71800 Y-4.06900
X-3.71800 Y-4.06800
X-3.71700 Y-4.06800
X-3.71700 Y-4.06600
X-3.71600 Y-4.06600
X-3.71600 Y-4.06500
X-3.71500 Y-4.06500
X-3.71500 Y-4.06300
X-3.71400 Y-4.06300
X-3.71400 Y-4.06100
X-3.71300 Y-4.06100
X-3.71300 Y-4.06000
X-3.71200 Y-4.06000
X-3.71200 Y-4.05800
X-3.71100 Y-4.05800
X-3.71100 Y-4.05600
X-3.71000 Y-4.05600
X-3.71000 Y-4.05400
X-3.70900 Y-4.05400
X-3.70900 Y-4.05200
X-3.70800 Y-4.05200
X-3.70800 Y-4.05000
X-3.70700 Y-4.05000
X-3.70700 Y-4.04800
X-3.70600 Y-4.04800
X-3.70600 Y-4.04600
X-3.70500 Y-4.04600
X-3.70500 Y-4.04400
X-3.70400 Y-4.04400
X-3.70400 Y-4.04100
X-3.70300 Y-4.04100
X-3.70300 Y-4.03900
X-3.70200 Y-4.03900
X-3.70200 Y-4.03700
X-3.70100 Y-4.03700
X-3.70100 Y-4.03500
X-3.70000 Y-4.03500
X-3.70000 Y-4.03200
X-3.69900 Y-4.03200
X-3.69900 Y-4.02900
X-3.69800 Y-4.02900
X-3.69800 Y-4.02600
X-3.69700 Y-4.02600
X-3.69700 Y-4.02400
X-3.69600 Y-4.02400
X-3.69600 Y-4.02100
X-3.69500 Y-4.02100
X-3.69500 Y-4.01800
X-3.69400 Y-4.01800
X-3.69400 Y-4.01500
X-3.69300 Y-4.01500
X-3.69300 Y-4.01100
X-3.69200 Y-4.01100
X-3.69200 Y-4.00700
X-3.69100 Y-4.00700
X-3.69100 Y-4.00300
X-3.69000 Y-4.00300
X-3.69000 Y-3.99900
X-3.68900 Y-3.99900
X-3.68900 Y-3.99500
X-3.68800 Y-3.99500
X-3.68800 Y-3.99100
X-3.68700 Y-3.99100
X-3.68700 Y-3.98700
X-3.68600 Y-3.98700
X-3.68600 Y-3.98200
X-3.68500 Y-3.98200
X-3.68500 Y-3.97500
X-3.68400 Y-3.97500
X-3.68400 Y-3.96900
X-3.68300 Y-3.96900
X-3.68300 Y-3.96200
X-3.68200 Y-3.96200
X-3.68200 Y-3.94700
X-3.68100 Y-3.94700
X-3.68100 Y-3.92600
X-3.68200 Y-3.92600
X-3.68200 Y-3.91100
X-3.68300 Y-3.91100
X-3.68300 Y-3.90400
X-3.68400 Y-3.90400
X-3.68400 Y-3.89800
X-3.68500 Y-3.89800
X-3.68500 Y-3.89100
X-3.68600 Y-3.89100
X-3.68600 Y-3.88700
X-3.68700 Y-3.88700
X-3.68700 Y-3.88200
X-3.68800 Y-3.88200
X-3.68800 Y-3.87800
X-3.68900 Y-3.87800
X-3.68900 Y-3.87400
X-3.69000 Y-3.87400
X-3.69000 Y-3.87000
X-3.69100 Y-3.87000
X-3.69100 Y-3.86600
X-3.69200 Y-3.86600
X-3.69200 Y-3.86200
X-3.69300 Y-3.86200
X-3.69300 Y-3.85800
X-3.69400 Y-3.85800
X-3.69400 Y-3.85500
X-3.69500 Y-3.85500
X-3.69500 Y-3.85200
X-3.69600 Y-3.85200
X-3.69600 Y-3.85000
X-3.69700 Y-3.85000
X-3.69700 Y-3.84700
X-3.69800 Y-3.84700
X-3.69800 Y-3.84400
X-3.69900 Y-3.84400
X-3.69900 Y-3.84100
X-3.70000 Y-3.84100
X-3.70000 Y-3.83900
X-3.70100 Y-3.83900
X-3.70100 Y-3.83600
X-3.70200 Y-3.83600
X-3.70200 Y-3.83400
X-3.70300 Y-3.83400
X-3.70300 Y-3.83200
X-3.70400 Y-3.83200
X-3.70400 Y-3.83000
X-3.70500 Y-3.83000
X-3.70500 Y-3.82700
X-3.70600 Y-3.82700
X-3.70600 Y-3.82500
X-3.70700 Y-3.82500
X-3.70700 Y-3.82300
X-3.70800 Y-3.82300
X-3.70800 Y-3.82100
X-3.70900 Y-3.82100
X-3.70900 Y-3.81900
X-3.71000 Y-3.81900
X-3.71000 Y-3.81700
X-3.71100 Y-3.81700
X-3.71100 Y-3.81500
X-3.71200 Y-3.81500
X-3.71200 Y-3.81400
X-3.71300 Y-3.81400
X-3.71300 Y-3.81200
X-3.71400 Y-3.81200
X-3.71400 Y-3.81000
X-3.71500 Y-3.81000
X-3.71500 Y-3.80900
X-3.71600 Y-3.80900
X-3.71600 Y-3.80700
X-3.71700 Y-3.80700
X-3.71700 Y-3.80500
X-3.71800 Y-3.80500
X-3.71800 Y-3.80400
X-3.71900 Y-3.80400
X-3.71900 Y-3.80200
X-3.72000 Y-3.80200
X-3.72000 Y-3.80000
X-3.72100 Y-3.80000
X-3.72100 Y-3.79900
X-3.72200 Y-3.79900
X-3.72200 Y-3.79700
X-3.72300 Y-3.79700
X-3.72300 Y-3.79600
X-3.72400 Y-3.79600
X-3.72400 Y-3.79400
X-3.72500 Y-3.79400
X-3.72500 Y-3.79300
X-3.72600 Y-3.79300
X-3.72600 Y-3.79200
X-3.72700 Y-3.79200
X-3.72700 Y-3.79000
X-3.72800 Y-3.79000
X-3.72800 Y-3.78900
X-3.72900 Y-3.78900
X-3.72900 Y-3.78800
X-3.73000 Y-3.78800
X-3.73000 Y-3.78600
X-3.73100 Y-3.78600
X-3.73100 Y-3.78500
X-3.73200 Y-3.78500
X-3.73200 Y-3.78400
X-3.73300 Y-3.78400
X-3.73300 Y-3.78200
X-3.73400 Y-3.78200
X-3.73400 Y-3.78100
X-3.73500 Y-3.78100
X-3.73500 Y-3.78000
X-3.73600 Y-3.78000
X-3.73600 Y-3.77800
X-3.73700 Y-3.77800
X-3.73700 Y-3.77700
X-3.73800 Y-3.77700
X-3.73800 Y-3.77600
X-3.73900 Y-3.77600
X-3.73900 Y-3.77500
X-3.74000 Y-3.77500
X-3.74000 Y-3.77300
X-3.74100 Y-3.77300
X-3.74100 Y-3.77200
X-3.74200 Y-3.77200
X-3.74200 Y-3.77100
X-3.74300 Y-3.77100
X-3.74300 Y-3.77000
X-3.74400 Y-3.77000
X-3.74400 Y-3.76900
X-3.74500 Y-3.76900
X-3.74500 Y-3.76700
X-3.74600 Y-3.76700
X-3.74600 Y-3.76600
X-3.74700 Y-3.76600
X-3.74700 Y-3.76500
X-3.74800 Y-3.76500
X-3.74800 Y-3.76400
X-3.74900 Y-3.76400
X-3.74900 Y-3.76300
X-3.75000 Y-3.76300
X-3.75000 Y-3.76200
X-3.75100 Y-3.76200
X-3.75100 Y-3.76100
X-3.75200 Y-3.76100
X-3.75200 Y-3.76000
X-3.75300 Y-3.76000
X-3.75300 Y-3.75900
X-3.75400 Y-3.75900
X-3.75400 Y-3.75800
X-3.75500 Y-3.75800
X-3.75500 Y-3.75600
X-3.75600 Y-3.75600
X-3.75600 Y-3.75500
X-3.75700 Y-3.75500
X-3.75700 Y-3.75400
X-3.75800 Y-3.75400
X-3.75800 Y-3.75300
X-3.75900 Y-3.75300
X-3.75900 Y-3.75200
X-3.76000 Y-3.75200
X-3.76000 Y-3.75100
X-3.76200 Y-3.75100
X-3.76200 Y-3.75000
X-3.76300 Y-3.75000
X-3.76300 Y-3.74900
X-3.76400 Y-3.74900
X-3.76400 Y-3.74800
X-3.76500 Y-3.74800
X-3.76500 Y-3.74700
X-3.76600 Y-3.74700
X-3.76600 Y-3.74600
X-3.76700 Y-3.74600
X-3.76700 Y-3.74500
X-3.76800 Y-3.74500
X-3.76800 Y-3.74400
X-3.76900 Y-3.74400
X-3.76900 Y-3.74300
X-3.77000 Y-3.74300
X-3.77000 Y-3.74200
X-3.77100 Y-3.74200
X-3.77100 Y-3.74100
X-3.77300 Y-3.74100
X-3.77300 Y-3.74000
X-3.77400 Y-3.74000
X-3.77400 Y-3.73900
X-3.77500 Y-3.73900
X-3.77500 Y-3.73800
X-3.77600 Y-3.73800
X-3.77600 Y-3.73700
X-3.77800 Y-3.73700
X-3.77800 Y-3.73600
X-3.77900 Y-3.73600
X-3.77900 Y-3.73500
X-3.78000 Y-3.73500
X-3.78000 Y-3.73400
X-3.78200 Y-3.73400
X-3.78200 Y-3.73300
X-3.78300 Y-3.73300
X-3.78300 Y-3.73200
X-3.78400 Y-3.73200
X-3.78400 Y-3.73100
X-3.78600 Y-3.73100
X-3.78600 Y-3.73000
X-3.78700 Y-3.73000
X-3.78700 Y-3.72900
X-3.78800 Y-3.72900
X-3.78800 Y-3.72800
X-3.79000 Y-3.72800
X-3.79000 Y-3.72700
X-3.79100 Y-3.72700
X-3.79100 Y-3.72600
X-3.79200 Y-3.72600
X-3.79200 Y-3.72500
X-3.79400 Y-3.72500
X-3.79400 Y-3.72400
X-3.79600 Y-3.72400
X-3.79600 Y-3.72300
X-3.79700 Y-3.72300
X-3.79700 Y-3.72200
X-3.79900 Y-3.72200
X-3.79900 Y-3.72100
X-3.80100 Y-3.72100
X-3.80100 Y-3.72000
X-3.80200 Y-3.72000
X-3.80200 Y-3.71900
X-3.80400 Y-3.71900
X-3.80400 Y-3.71800
X-3.80600 Y-3.71800
X-3.80600 Y-3.71700
X-3.80700 Y-3.71700
X-3.80700 Y-3.71600
X-3.80900 Y-3.71600
X-3.80900 Y-3.71500
X-3.81100 Y-3.71500
X-3.81100 Y-3.71400
X-3.81300 Y-3.71400
X-3.81300 Y-3.71300
X-3.81500 Y-3.71300
X-3.81500 Y-3.71200
X-3.81700 Y-3.71200
X-3.81700 Y-3.71100
X-3.81900 Y-3.71100
X-3.81900 Y-3.71000
X-3.82100 Y-3.71000
X-3.82100 Y-3.70900
X-3.82300 Y-3.70900
X-3.82300 Y-3.70800
X-3.82500 Y-3.70800
X-3.82500 Y-3.70700
X-3.82700 Y-3.70700
X-3.82700 Y-3.70600
X-3.82900 Y-3.70600
X-3.82900 Y-3.70500
X-3.83100 Y-3.70500
X-3.83100 Y-3.70400
X-3.83400 Y-3.70400
X-3.83400 Y-3.70300
X-3.83600 Y-3.70300
X-3.83600 Y-3.70200
X-3.83800 Y-3.70200
X-3.83800 Y-3.70100
X-3.84000 Y-3.70100
X-3.84000 Y-3.70000
X-3.84200 Y-3.70000
X-3.84200 Y-3.69900
X-3.84500 Y-3.69900
X-3.84500 Y-3.69800
X-3.84700 Y-3.69800
X-3.84700 Y-3.69700
X-3.85000 Y-3.69700
X-3.85000 Y-3.69600
X-3.85300 Y-3.69600
X-3.85300 Y-3.69500
X-3.85600 Y-3.69500
X-3.85600 Y-3.69400
X-3.85800 Y-3.69400
X-3.85800 Y-3.69300
X-3.86100 Y-3.69300
X-3.86100 Y-3.69200
X-3.86400 Y-3.69200
X-3.86400 Y-3.69100
X-3.86800 Y-3.69100
X-3.86800 Y-3.69000
X-3.87200 Y-3.69000
X-3.87200 Y-3.68900
X-3.87600 Y-3.68900
X-3.87600 Y-3.68800
X-3.88000 Y-3.68800
X-3.88000 Y-3.68700
X-3.88400 Y-3.68700
X-3.88400 Y-3.68600
X-3.89000 Y-3.68600
X-3.89000 Y-3.68500
X-3.89700 Y-3.68500
X-3.89700 Y-3.68400
X-3.90300 Y-3.68400
X-3.90300 Y-3.68300
X-3.91100 Y-3.68300
X-3.91100 Y-3.68200
X-3.92900 Y-3.68200
X-3.92900 Y-3.68100
X-3.94400 Y-3.68100
X-3.94400 Y-3.68200
G01 Z-0.01181 F39.37008 ( plunge. )
G04 P0 ( dwell for no time -- G64 should not smooth over this point )
X-3.94400 Y-3.68200
X-3.96200 Y-3.68200
X-3.96200 Y-3.68300
X-3.97000 Y-3.68300
X-3.97000 Y-3.68400
X-3.97600 Y-3.68400
X-3.97600 Y-3.68500
X-3.98300 Y-3.68500
X-3.98300 Y-3.68600
X-3.98900 Y-3.68600
X-3.98900 Y-3.68700
X-3.99300 Y-3.68700
X-3.99300 Y-3.68800
X-3.99700 Y-3.68800
X-3.99700 Y-3.68900
X-4.00100 Y-3.68900
X-4.00100 Y-3.69000
X-4.00500 Y-3.69000
X-4.00500 Y-3.69100
X-4.00900 Y-3.69100
X-4.00900 Y-3.69200
X-4.01200 Y-3.69200
X-4.01200 Y-3.69300
X-4.01500 Y-3.69300
X-4.01500 Y-3.69400
X-4.01700 Y-3.69400
X-4.01700 Y-3.69500
X-4.02000 Y-3.69500
X-4.02000 Y-3.69600
X-4.02300 Y-3.69600
X-4.02300 Y-3.69700
X-4.02600 Y-3.69700
X-4.02600 Y-3.69800
X-4.02800 Y-3.69800
X-4.02800 Y-3.69900
X-4.03100 Y-3.69900
X-4.03100 Y-3.70000
X-4.03300 Y-3.70000
X-4.03300 Y-3.70100
X-4.03500 Y-3.70100
X-4.03500 Y-3.70200
X-4.03700 Y-3.70200
X-4.03700 Y-3.70300
X-4.03900 Y-3.70300
X-4.03900 Y-3.70400
X-4.04100 Y-3.70400
X-4.04100 Y-3.70500
X-4.04300 Y-3.70500
X-4.04300 Y-3.70600
X-4.04600 Y-3.70600
X-4.04600 Y-3.70700
X-4.04800 Y-3.70700
X-4.04800 Y-3.70800
X-4.05000 Y-3.70800
X-4.05000 Y-3.70900
X-4.05200 Y-3.70900
X-4.05200 Y-3.71000
X-4.05400 Y-3.71000
X-4.05400 Y-3.71100
X-4.05600 Y-3.71100
X-4.05600 Y-3.71200
X-4.05800 Y-3.71200
X-4.05800 Y-3.71300
X-4.06000 Y-3.71300
X-4.06000 Y-3.71400
X-4.06200 Y-3.71400
X-4.06200 Y-3.71500
X-4.06400 Y-3.71500
X-4.06400 Y-3.71600
X-4.06600 Y-3.71600
X-4.06600 Y-3.71700
X-4.06700 Y-3.71700
X-4.06700 Y-3.71800
X-4.06900 Y-3.71800
X-4.06900 Y-3.71900
X-4.07100 Y-3.71900
X-4.07100 Y-3.72000
X-4.07200 Y-3.72000
X-4.07200 Y-3.72100
X-4.07400 Y-3.72100
X-4.07400 Y-3.72200
X-4.07500 Y-3.72200
X-4.07500 Y-3.72300
X-4.07700 Y-3.72300
X-4.07700 Y-3.72400
X-4.07900 Y-3.72400
X-4.07900 Y-3.72500
X-4.08000 Y-3.72500
X-4.08000 Y-3.72600
X-4.08200 Y-3.72600
X-4.08200 Y-3.72700
X-4.08300 Y-3.72700
X-4.08300 Y-3.72800
X-4.08500 Y-3.72800
X-4.08500 Y-3.72900
X-4.08600 Y-3.72900
X-4.08600 Y-3.73000
X-4.08700 Y-3.73000
X-4.08700 Y-3.73100
X-4.08900 Y-3.73100
X-4.08900 Y-3.73200
X-4.09000 Y-3.73200
X-4.09000 Y-3.73300
X-4.09100 Y-3.73300
X-4.09100 Y-3.73400
X-4.09300 Y-3.73400
X-4.09300 Y-3.73500
X-4.09400 Y-3.73500
X-4.09400 Y-3.73600
X-4.09500 Y-3.73600
X-4.09500 Y-3.73700
X-4.09700 Y-3.73700
X-4.09700 Y-3.73800
X-4.09800 Y-3.73800
X-4.09800 Y-3.73900
X-4.09900 Y-3.73900
X-4.09900 Y-3.74000
X-4.10000 Y-3.74000
X-4.10000 Y-3.74100
X-4.10100 Y-3.74100
X-4.10100 Y-3.74200
X-4.10300 Y-3.74200
X-4.10300 Y-3.74300
X-4.10400 Y-3.74300
X-4.10400 Y-3.74400
X-4.10500 Y-3.74400
X-4.10500 Y-3.74500
X-4.10600 Y-3.74500
X-4.10600 Y-3.74600
X-4.10700 Y-3.74600
X-4.10700 Y-3.74700
X-4.10800 Y-3.74700
X-4.10800 Y-3.74800
X-4.10900 Y-3.74800
X-4.10900 Y-3.74900
X-4.11000 Y-3.74900
X-4.11000 Y-3.75000
X-4.11100 Y-3.75000
X-4.11100 Y-3.75100
X-4.11200 Y-3.75100
X-4.11200 Y-3.75200
X-4.11400 Y-3.75200
X-4.11400 Y-3.75300
X-4.11500 Y-3.75300
X-4.11500 Y-3.75400
X-4.11600 Y-3.75400
X-4.11600 Y-3.75600
X-4.11700 Y-3.75600
X-4.11700 Y-3.75700
X-4.11800 Y-3.75700
X-4.11800 Y-3.75800
X-4.11900 Y-3.75800
X-4.11900 Y-3.75900
X-4.12000 Y-3.75900
X-4.12000 Y-3.76000
X-4.12100 Y-3.76000
X-4.12100 Y-3.76100
X-4.12200 Y-3.76100
X-4.12200 Y-3.76200
X-4.12300 Y-3.76200
X-4.12300 Y-3.76300
X-4.12400 Y-3.76300
X-4.12400 Y-3.76400
X-4.12500 Y-3.76400
X-4.12500 Y-3.76500
X-4.12600 Y-3.76500
X-4.12600 Y-3.76700
X-4.12700 Y-3.76700
X-4.12700 Y-3.76800
X-4.12800 Y-3.76800
X-4.12800 Y-3.76900
X-4.12900 Y-3.76900
X-4.12900 Y-3.77000
X-4.13000 Y-3.77000
X-4.13000 Y-3.77100
X-4.13100 Y-3.77100
X-4.13100 Y-3.77200
X-4.13200 Y-3.77200
X-4.13200 Y-3.77400
X-4.13300 Y-3.77400
X-4.13300 Y-3.77500
X-4.13400 Y-3.77500
X-4.13400 Y-3.77600
X-4.13500 Y-3.77600
X-4.13500 Y-3.77700
X-4.13600 Y-3.77700
X-4.13600 Y-3.77900
X-4.13700 Y-3.77900
X-4.13700 Y-3.78000
X-4.13800 Y-3.78000
X-4.13800 Y-3.78100
X-4.13900 Y-3.78100
X-4.13900 Y-3.78300
X-4.14000 Y-3.78300
X-4.14000 Y-3.78400
X-4.14100 Y-3.78400
X-4.14100 Y-3.78500
X-4.14200 Y-3.78500
X-4.14200 Y-3.78700
X-4.14300 Y-3.78700
X-4.14300 Y-3.78800
X-4.14400 Y-3.78800
X-4.14400 Y-3.78900
X-4.14500 Y-3.78900
X-4.14500 Y-3.79100
X-4.14600 Y-3.79100
X-4.14600 Y-3.79200
X-4.14700 Y-3.79200
X-4.14700 Y-3.79300
X-4.14800 Y-3.79300
X-4.14800 Y-3.79500
X-4.14900 Y-3.79500
X-4.14900 Y-3.79600
X-4.15000 Y-3.79600
X-4.15000 Y-3.79700
X-4.15100 Y-3.79700
X-4.15100 Y-3.79900
X-4.15200 Y-3.79900
X-4.15200 Y-3.80100
X-4.15300 Y-3.80100
X-4.15300 Y-3.80200
X-4.15400 Y-3.80200
X-4.15400 Y-3.80400
X-4.15500 Y-3.80400
X-4.15500 Y-3.80600
X-4.15600 Y-3.80600
X-4.15600 Y-3.80700
X-4.15700 Y-3.80700
X-4.15700 Y-3.80900
X-4.15800 Y-3.80900
X-4.15800 Y-3.81100
X-4.15900 Y-3.81100
X-4.15900 Y-3.81200
X-4.16000 Y-3.81200
X-4.16000 Y-3.81400
X-4.16100 Y-3.81400
X-4.16100 Y-3.81500
X-4.16200 Y-3.81500
X-4.16200 Y-3.81700
X-4.16300 Y-3.81700
X-4.16300 Y-3.82000
X-4.16400 Y-3.82000
X-4.16400 Y-3.82200
X-4.16500 Y-3.82200
X-4.16500 Y-3.82400
X-4.16600 Y-3.82400
X-4.16600 Y-3.82600
X-4.16700 Y-3.82600
X-4.16700 Y-3.82800
X-4.16800 Y-3.82800
X-4.16800 Y-3.83000
X-4.16900 Y-3.83000
X-4.16900 Y-3.83200
X-4.17000 Y-3.83200
X-4.17000 Y-3.83400
X-4.17100 Y-3.83400
X-4.17100 Y-3.83600
X-4.17200 Y-3.83600
X-4.17200 Y-3.83900
X-4.17300 Y-3.83900
X-4.17300 Y-3.84200
X-4.17400 Y-3.84200
X-4.17400 Y-3.84500
X-4.17500 Y-3.84500
X-4.17500 Y-3.84700
X-4.17600 Y-3.84700
X-4.17600 Y-3.85000
X-4.17700 Y-3.85000
X-4.17700 Y-3.85300
X-4.17800 Y-3.85300
X-4.17800 Y-3.85500
X-4.17900 Y-3.85500
X-4.17900 Y-3.85900
X-4.18000 Y-3.85900
X-4.18000 Y-3.86300
X-4.18100 Y-3.86300
X-4.18100 Y-3.86700
X-4.18200 Y-3.86700
X-4.18200 Y-3.87100
X-4.18300 Y-3.87100
X-4.18300 Y-3.87500
X-4.18400 Y-3.87500
X-4.18400 Y-3.87800
X-4.18500 Y-3.87800
X-4.18500 Y-3.88300
X-4.18600 Y-3.88300
X-4.18600 Y-3.88700
X-4.18700 Y-3.88700
X-4.18700 Y-3.89200
X-4.18800 Y-3.89200
X-4.18800 Y-3.89900
X-4.18900 Y-3.89900
X-4.18900 Y-3.90500
X-4.19000 Y-3.90500
X-4.19000 Y-3.91200
X-4.19100 Y-3.91200
X-4.19100 Y-3.92900
X-4.19200 Y-3.92900
X-4.19200 Y-3.94400
X-4.19100 Y-3.94400
X-4.19100 Y-3.96100
X-4.19000 Y-3.96100
X-4.19000 Y-3.96800
X-4.18900 Y-3.96800
X-4.18900 Y-3.97400
X-4.18800 Y-3.97400
X-4.18800 Y-3.98100
X-4.18700 Y-3.98100
X-4.18700 Y-3.98600
X-4.18600 Y-3.98600
X-4.18600 Y-3.99000
X-4.18500 Y-3.99000
X-4.18500 Y-3.99500
X-4.18400 Y-3.99500
X-4.18400 Y-3.99900
X-4.18300 Y-3.99900
X-4.18300 Y-4.00200
X-4.18200 Y-4.00200
X-4.18200 Y-4.00600
X-4.18100 Y-4.00600
X-4.18100 Y-4.01000
X-4.18000 Y-4.01000
X-4.18000 Y-4.01400
X-4.17900 Y-4.01400
X-4.17900 Y-4.01800
X-4.17800 Y-4.01800
X-4.17800 Y-4.02000
X-4.17700 Y-4.02000
X-4.17700 Y-4.02300
X-4.17600 Y-4.02300
X-4.17600 Y-4.02600
X-4.17500 Y-4.02600
X-4.17500 Y-4.02900
X-4.17400 Y-4.02900
X-4.17400 Y-4.03100
X-4.17300 Y-4.03100
X-4.17300 Y-4.03400
X-4.17200 Y-4.03400
X-4.17200 Y-4.03700
X-4.17100 Y-4.03700
X-4.17100 Y-4.03900
X-4.17000 Y-4.03900
X-4.17000 Y-4.04100
X-4.16900 Y-4.04100
X-4.16900 Y-4.04300
X-4.16800 Y-4.04300
X-4.16800 Y-4.04500
X-4.16700 Y-4.04500
X-4.16700 Y-4.04700
X-4.16600 Y-4.04700
X-4.16600 Y-4.04900
X-4.16500 Y-4.04900
X-4.16500 Y-4.05200
X-4.16400 Y-4.05200
X-4.16400 Y-4.05400
X-4.16300 Y-4.05400
X-4.16300 Y-4.05600
X-4.16200 Y-4.05600
X-4.16200 Y-4.05800
X-4.16100 Y-4.05800
X-4.16100 Y-4.05900
X-4.16000 Y-4.05900
X-4.16000 Y-4.06100
X-4.15900 Y-4.06100
X-4.15900 Y-4.06300
X-4.15800 Y-4.06300
X-4.15800 Y-4.06400
X-4.15700 Y-4.06400
X-4.15700 Y-4.06600
X-4.15600 Y-4.06600
X-4.15600 Y-4.06800
X-4.15500 Y-4.06800
X-4.15500 Y-4.06900
X-4.15400 Y-4.06900
X-4.15400 Y-4.07100
X-4.15300 Y-4.07100
X-4.15300 Y-4.07200
X-4.15200 Y-4.07200
X-4.15200 Y-4.07400
X-4.15100 Y-4.07400
X-4.15100 Y-4.07600
X-4.15000 Y-4.07600
X-4.15000 Y-4.07700
X-4.14900 Y-4.07700
X-4.14900 Y-4.07800
X-4.14800 Y-4.07800
X-4.14800 Y-4.08000
X-4.14700 Y-4.08000
X-4.14700 Y-4.08100
X-4.14600 Y-4.08100
X-4.14600 Y-4.08200
X-4.14500 Y-4.08200
X-4.14500 Y-4.08400
X-4.14400 Y-4.08400
X-4.14400 Y-4.08500
X-4.14300 Y-4.08500
X-4.14300 Y-4.08700
X-4.14200 Y-4.08700
X-4.14200 Y-4.08800
X-4.14100 Y-4.08800
X-4.14100 Y-4.08900
X-4.14000 Y-4.08900
X-4.14000 Y-4.09100
X-4.13900 Y-4.09100
X-4.13900 Y-4.09200
X-4.13800 Y-4.09200
X-4.13800 Y-4.09300
X-4.13700 Y-4.09300
X-4.13700 Y-4.09400
X-4.13600 Y-4.09400
X-4.13600 Y-4.09600
X-4.13500 Y-4.09600
X-4.13500 Y-4.09700
X-4.13400 Y-4.09700
X-4.13400 Y-4.09800
X-4.13300 Y-4.09800
X-4.13300 Y-4.09900
X-4.13200 Y-4.09900
X-4.13200 Y-4.10100
X-4.13100 Y-4.10100
X-4.13100 Y-4.10200
X-4.13000 Y-4.10200
X-4.13000 Y-4.10300
X-4.12900 Y-4.10300
X-4.12900 Y-4.10400
X-4.12800 Y-4.10400
X-4.12800 Y-4.10500
X-4.12700 Y-4.10500
X-4.12700 Y-4.10700
X-4.12600 Y-4.10700
X-4.12600 Y-4.10800
X-4.12500 Y-4.10800
X-4.12500 Y-4.10900
X-4.12400 Y-4.10900
X-4.12400 Y-4.11000
X-4.12300 Y-4.11000
X-4.12300 Y-4.11100
X-4.12200 Y-4.11100
X-4.12200 Y-4.11200
X-4.12100 Y-4.11200
X-4.12100 Y-4.11300
X-4.12000 Y-4.11300
X-4.12000 Y-4.11400
X-4.11900 Y-4.11400
X-4.11900 Y-4.11500
X-4.11800 Y-4.11500
X-4.11800 Y-4.11600
X-4.11700 Y-4.11600
X-4.11700 Y-4.11800
X-4.11600 Y-4.11800
X-4.11600 Y-4.11900
X-4.11500 Y-4.11900
X-4.11500 Y-4.12000
X-4.11400 Y-4.12000
X-4.11400 Y-4.12100
X-4.11300 Y-4.12100
X-4.11300 Y-4.12200
X-4.11100 Y-4.12200
X-4.11100 Y-4.12300
X-4.11000 Y-4.12300
X-4.11000 Y-4.12400
X-4.10900 Y-4.12400
X-4.10900 Y-4.12500
X-4.10800 Y-4.12500
X-4.10800 Y-4.12600
X-4.10700 Y-4.12600
X-4.10700 Y-4.12700
X-4.10600 Y-4.12700
X-4.10600 Y-4.12800
X-4.10500 Y-4.12800
X-4.10500 Y-4.12900
X-4.10400 Y-4.12900
X-4.10400 Y-4.13000
X-4.10300 Y-4.13000
X-4.10300 Y-4.13100
X-4.10200 Y-4.13100
X-4.10200 Y-4.13200
X-4.10000 Y-4.13200
X-4.10000 Y-4.13300
X-4.09900 Y-4.13300
X-4.09900 Y-4.13400
X-4.09800 Y-4.13400
X-4.09800 Y-4.13500
X-4.09700 Y-4.13500
X-4.09700 Y-4.13600
X-4.09500 Y-4.13600
X-4.09500 Y-4.13700
X-4.09400 Y-4.13700
X-4.09400 Y-4.13800
X-4.09300 Y-4.13800
X-4.09300 Y-4.13900
X-4.09100 Y-4.13900
X-4.09100 Y-4.14000
X-4.09000 Y-4.14000
X-4.09000 Y-4.14100
X-4.08900 Y-4.14100
X-4.08900 Y-4.14200
X-4.08700 Y-4.14200
X-4.08700 Y-4.14300
X-4.08600 Y-4.14300
X-4.08600 Y-4.14400
X-4.08500 Y-4.14400
X-4.08500 Y-4.14500
X-4.08300 Y-4.14500
X-4.08300 Y-4.14600
X-4.08200 Y-4.14600
X-4.08200 Y-4.14700
X-4.08100 Y-4.14700
X-4.08100 Y-4.14800
X-4.07900 Y-4.14800
X-4.07900 Y-4.14900
X-4.07700 Y-4.14900
X-4.07700 Y-4.15000
X-4.07600 Y-4.15000
X-4.07600 Y-4.15100
X-4.07400 Y-4.15100
X-4.07400 Y-4.15200
X-4.07200 Y-4.15200
X-4.07200 Y-4.15300
X-4.07100 Y-4.15300
X-4.07100 Y-4.15400
X-4.06900 Y-4.15400
X-4.06900 Y-4.15500
X-4.06700 Y-4.15500
X-4.06700 Y-4.15600
X-4.06600 Y-4.15600
X-4.06600 Y-4.15700
X-4.06400 Y-4.15700
X-4.06400 Y-4.15800
X-4.06200 Y-4.15800
X-4.06200 Y-4.15900
X-4.06000 Y-4.15900
X-4.06000 Y-4.16000
X-4.05800 Y-4.16000
X-4.05800 Y-4.16100
X-4.05600 Y-4.16100
X-4.05600 Y-4.16200
X-4.05400 Y-4.16200
X-4.05400 Y-4.16300
X-4.05200 Y-4.16300
X-4.05200 Y-4.16400
X-4.05000 Y-4.16400
X-4.05000 Y-4.16500
X-4.04800 Y-4.16500
X-4.04800 Y-4.16600
X-4.04600 Y-4.16600
X-4.04600 Y-4.16700
X-4.04400 Y-4.16700
X-4.04400 Y-4.16800
X-4.04200 Y-4.16800
X-4.04200 Y-4.16900
X-4.04000 Y-4.16900
X-4.04000 Y-4.17000
X-4.03800 Y-4.17000
X-4.03800 Y-4.17100
X-4.03500 Y-4.17100
X-4.03500 Y-4.17200
X-4.03300 Y-4.17200
X-4.03300 Y-4.17300
X-4.03100 Y-4.17300
X-4.03100 Y-4.17400
X-4.02900 Y-4.17400
X-4.02900 Y-4.17500
X-4.02600 Y-4.17500
X-4.02600 Y-4.17600
X-4.02300 Y-4.17600
X-4.02300 Y-4.17700
X-4.02000 Y-4.17700
X-4.02000 Y-4.17800
X-4.01800 Y-4.17800
X-4.01800 Y-4.17900
X-4.01500 Y-4.17900
X-4.01500 Y-4.18000
X-4.01200 Y-4.18000
X-4.01200 Y-4.18100
X-4.00900 Y-4.18100
X-4.00900 Y-4.18200
X-4.00500 Y-4.18200
X-4.00500 Y-4.18300
X-4.00100 Y-4.18300
X-4.00100 Y-4.18400
X-3.99700 Y-4.18400
X-3.99700 Y-4.18500
X-3.99400 Y-4.18500
X-3.99400 Y-4.18600
X-3.99000 Y-4.18600
X-3.99000 Y-4.18700
X-3.98400 Y-4.18700
X-3.98400 Y-4.18800
X-3.97700 Y-4.18800
X-3.97700 Y-4.18900
X-3.97000 Y-4.18900
X-3.97000 Y-4.19000
X-3.96300 Y-4.19000
X-3.96300 Y-4.19100
X-3.94700 Y-4.19100
X-3.94700 Y-4.19200
X-3.92600 Y-4.19200
X-3.92600 Y-4.19100
X-3.91000 Y-4.19100
X-3.91000 Y-4.19000
X-3.90200 Y-4.19000
X-3.90200 Y-4.18900
X-3.89600 Y-4.18900
X-3.89600 Y-4.18800
X-3.88900 Y-4.18800
X-3.88900 Y-4.18700
X-3.88300 Y-4.18700
X-3.88300 Y-4.18600
X-3.87900 Y-4.18600
X-3.87900 Y-4.18500
X-3.87500 Y-4.18500
X-3.87500 Y-4.18400
X-3.87200 Y-4.18400
X-3.87200 Y-4.18300
X-3.86800 Y-4.18300
X-3.86800 Y-4.18200
X-3.86400 Y-4.18200
X-3.86400 Y-4.18100
X-3.86100 Y-4.18100
X-3.86100 Y-4.18000
X-3.85800 Y-4.18000
X-3.85800 Y-4.17900
X-3.85500 Y-4.17900
X-3.85500 Y-4.17800
X-3.85200 Y-4.17800
X-3.85200 Y-4.17700
X-3.85000 Y-4.17700
X-3.85000 Y-4.17600
X-3.84700 Y-4.17600
X-3.84700 Y-4.17500
X-3.84400 Y-4.17500
X-3.84400 Y-4.17400
X-3.84200 Y-4.17400
X-3.84200 Y-4.17300
X-3.83900 Y-4.17300
X-3.83900 Y-4.17200
X-3.83700 Y-4.17200
X-3.83700 Y-4.17100
X-3.83500 Y-4.17100
X-3.83500 Y-4.17000
X-3.83300 Y-4.17000
X-3.83300 Y-4.16900
X-3.83100 Y-4.16900
X-3.83100 Y-4.16800
X-3.82900 Y-4.16800
X-3.82900 Y-4.16700
X-3.82700 Y-4.16700
X-3.82700 Y-4.16600
X-3.82500 Y-4.16600
X-3.82500 Y-4.16500
X-3.82300 Y-4.16500
X-3.82300 Y-4.16400
X-3.82100 Y-4.16400
X-3.82100 Y-4.16300
X-3.81900 Y-4.16300
X-3.81900 Y-4.16200
X-3.81700 Y-4.16200
X-3.81700 Y-4.16100
X-3.81500 Y-4.16100
X-3.81500 Y-4.16000
X-3.81200 Y-4.16000
X-3.81200 Y-4.15900
X-3.81000 Y-4.15900
X-3.81000 Y-4.15800
X-3.80900 Y-4.15800
X-3.80900 Y-4.15700
X-3.80700 Y-4.15700
X-3.80700 Y-4.15600
X-3.80500 Y-4.15600
X-3.80500 Y-4.15500
X-3.80400 Y-4.15500
X-3.80400 Y-4.15400
X-3.80200 Y-4.15400
X-3.80200 Y-4.15300
X-3.80000 Y-4.15300
X-3.80000 Y-4.15200
X-3.79900 Y-4.15200
X-3.79900 Y-4.15100
X-3.79700 Y-4.15100
X-3.79700 Y-4.15000
X-3.79600 Y-4.15000
X-3.79600 Y-4.14900
X-3.79400 Y-4.14900
X-3.79400 Y-4.14800
X-3.79200 Y-4.14800
X-3.79200 Y-4.14700
X-3.79100 Y-4.14700
X-3.79100 Y-4.14600
X-3.78900 Y-4.14600
X-3.78900 Y-4.14500
X-3.78800 Y-4.14500
X-3.78800 Y-4.14400
X-3.78700 Y-4.14400
X-3.78700 Y-4.14300
X-3.78500 Y-4.14300
X-3.78500 Y-4.14200
X-3.78400 Y-4.14200
X-3.78400 Y-4.14100
X-3.78300 Y-4.14100
X-3.78300 Y-4.14000
X-3.78100 Y-4.14000
X-3.78100 Y-4.13900
X-3.78000 Y-4.13900
X-3.78000 Y-4.13800
X-3.77900 Y-4.13800
X-3.77900 Y-4.13700
X-3.77700 Y-4.13700
X-3.77700 Y-4.13600
X-3.77600 Y-4.13600
X-3.77600 Y-4.13500
X-3.77500 Y-4.13500
X-3.77500 Y-4.13400
X-3.77300 Y-4.13400
X-3.77300 Y-4.13300
X-3.77200 Y-4.13300
X-3.77200 Y-4.13200
X-3.77100 Y-4.13200
X-3.77100 Y-4.13100
X-3.77000 Y-4.13100
X-3.77000 Y-4.13000
X-3.76900 Y-4.13000
X-3.76900 Y-4.12900
X-3.76800 Y-4.12900
X-3.76800 Y-4.12800
X-3.76700 Y-4.12800
X-3.76700 Y-4.12700
X-3.76600 Y-4.12700
X-3.76600 Y-4.12600
X-3.76500 Y-4.12600
X-3.76500 Y-4.12500
X-3.76400 Y-4.12500
X-3.76400 Y-4.12400
X-3.76200 Y-4.12400
X-3.76200 Y-4.12300
X-3.76100 Y-4.12300
X-3.76100 Y-4.12200
X-3.76000 Y-4.12200
X-3.76000 Y-4.12100
X-3.75900 Y-4.12100
X-3.75900 Y-4.12000
X-3.75800 Y-4.12000
X-3.75800 Y-4.11900
X-3.75700 Y-4.11900
X-3.75700 Y-4.11800
X-3.75600 Y-4.11800
X-3.75600 Y-4.11700
X-3.75500 Y-4.11700
X-3.75500 Y-4.11600
X-3.75400 Y-4.11600
X-3.75400 Y-4.11400
X-3.75300 Y-4.11400
X-3.75300 Y-4.11300
X-3.75200 Y-4.11300
X-3.75200 Y-4.11200
X-3.75100 Y-4.11200
X-3.75100 Y-4.11100
X-3.75000 Y-4.11100
X-3.75000 Y-4.11000
X-3.74900 Y-4.11000
X-3.74900 Y-4.10900
X-3.74800 Y-4.10900
X-3.74800 Y-4.10800
X-3.74700 Y-4.10800
X-3.74700 Y-4.10700
X-3.74600 Y-4.10700
X-3.74600 Y-4.10600
X-3.74500 Y-4.10600
X-3.74500 Y-4.10500
X-3.74400 Y-4.10500
X-3.74400 Y-4.10300
X-3.74300 Y-4.10300
X-3.74300 Y-4.10200
X-3.74200 Y-4.10200
X-3.74200 Y-4.10100
X-3.74100 Y-4.10100
X-3.74100 Y-4.10000
X-3.74000 Y-4.10000
X-3.74000 Y-4.09800
X-3.73900 Y-4.09800
X-3.73900 Y-4.09700
X-3.73800 Y-4.09700
X-3.73800 Y-4.09600
X-3.73700 Y-4.09600
X-3.73700 Y-4.09500
X-3.73600 Y-4.09500
X-3.73600 Y-4.09300
X-3.73500 Y-4.09300
X-3.73500 Y-4.09200
X-3.73400 Y-4.09200
X-3.73400 Y-4.09100
X-3.73300 Y-4.09100
X-3.73300 Y-4.08900
X-3.73200 Y-4.08900
X-3.73200 Y-4.08800
X-3.73100 Y-4.08800
X-3.73100 Y-4.08700
X-3.73000 Y-4.08700
X-3.73000 Y-4.08500
X-3.72900 Y-4.08500
X-3.72900 Y-4.08400
X-3.72800 Y-4.08400
X-3.72800 Y-4.08300
X-3.72700 Y-4.08300
X-3.72700 Y-4.08100
X-3.72600 Y-4.08100
X-3.72600 Y-4.08000
X-3.72500 Y-4.08000
X-3.72500 Y-4.07900
X-3.72400 Y-4.07900
X-3.72400 Y-4.07700
X-3.72300 Y-4.07700
X-3.72300 Y-4.07600
X-3.72200 Y-4.07600
X-3.72200 Y-4.07400
X-3.72100 Y-4.07400
X-3.72100 Y-4.07300
X-3.72000 Y-4.07300
X-3.72000 Y-4.07100
X-3.71900 Y-4.07100
X-3.71900 Y-4.06900
X-3.71800 Y-4.06900
X-3.71800 Y-4.06800
X-3.71700 Y-4.06800
X-3.71700 Y-4.06600
X-3.71600 Y-4.06600
X-3.71600 Y-4.06500
X-3.71500 Y-4.06500
X-3.71500 Y-4.06300
X-3.71400 Y-4.06300
X-3.71400 Y-4.06100
X-3.71300 Y-4.06100
X-3.71300 Y-4.06000
X-3.71200 Y-4.06000
X-3.71200 Y-4.05800
X-3.71100 Y-4.05800
X-3.71100 Y-4.05600
X-3.71000 Y-4.05600
X-3.71000 Y-4.05400
X-3.70900 Y-4.05400
X-3.70900 Y-4.05200
X-3.70800 Y-4.05200
X-3.70800 Y-4.05000
X-3.70700 Y-4.05000
X-3.70700 Y-4.04800
X-3.70600 Y-4.04800
X-3.70600 Y-4.04600
X-3.70500 Y-4.04600
X-3.70500 Y-4.04400
X-3.70400 Y-4.04400
X-3.70400 Y-4.04100
X-3.70300 Y-4.04100
X-3.70300 Y-4.03900
X-3.70200 Y-4.03900
X-3.70200 Y-4.03700
X-3.70100 Y-4.03700
X-3.70100 Y-4.03500
X-3.70000 Y-4.03500
X-3.70000 Y-4.03200
X-3.69900 Y-4.03200
X-3.69900 Y-4.02900
X-3.69800 Y-4.02900
X-3.69800 Y-4.02600
X-3.69700 Y-4.02600
X-3.69700 Y-4.02400
X-3.69600 Y-4.02400
X-3.69600 Y-4.02100
X-3.69500 Y-4.02100
X-3.69500 Y-4.01800
X-3.69400 Y-4.01800
X-3.69400 Y-4.01500
X-3.69300 Y-4.01500
X-3.69300 Y-4.01100
X-3.69200 Y-4.01100
X-3.69200 Y-4.00700
X-3.69100 Y-4.00700
X-3.69100 Y-4.00300
X-3.69000 Y-4.00300
X-3.69000 Y-3.99900
X-3.68900 Y-3.99900
X-3.68900 Y-3.99500
X-3.68800 Y-3.99500
X-3.68800 Y-3.99100
X-3.68700 Y-3.99100
X-3.68700 Y-3.98700
X-3.68600 Y-3.98700
X-3.68600 Y-3.98200
X-3.68500 Y-3.98200
X-3.68500 Y-3.97500
X-3.68400 Y-3.97500
X-3.68400 Y-3.96900
X-3.68300 Y-3.96900
X-3.68300 Y-3.96200
X-3.68200 Y-3.96200
X-3.68200 Y-3.94700
X-3.68100 Y-3.94700
X-3.68100 Y-3.92600
X-3.68200 Y-3.92600
X-3.68200 Y-3.91100
X-3.68300 Y-3.91100
X-3.68300 Y-3.90400
X-3.68400 Y-3.90400
X-3.68400 Y-3.89800
X-3.68500 Y-3.89800
X-3.68500 Y-3.89100
X-3.68600 Y-3.89100
X-3.68600 Y-3.88700
X-3.68700 Y-3.88700
X-3.68700 Y-3.88200
X-3.68800 Y-3.88200
X-3.68800 Y-3.87800
X-3.68900 Y-3.87800
X-3.68900 Y-3.87400
X-3.69000 Y-3.87400
X-3.69000 Y-3.87000
X-3.69100 Y-3.87000
X-3.69100 Y-3.86600
X-3.69200 Y-3.86600
X-3.69200 Y-3.86200
X-3.69300 Y-3.86200
X-3.69300 Y-3.85800
X-3.69400 Y-3.85800
X-3.69400 Y-3.85500
X-3.69500 Y-3.85500
X-3.69500 Y-3.85200
X-3.69600 Y-3.85200
X-3.69600 Y-3.85000
X-3.69700 Y-3.85000
X-3.69700 Y-3.84700
X-3.69800 Y-3.84700
X-3.69800 Y-3.84400
X-3.69900 Y-3.84400
X-3.69900 Y-3.84100
X-3.70000 Y-3.84100
X-3.70000 Y-3.83900
X-3.70100 Y-3.83900
X-3.70100 Y-3.83600
X-3.70200 Y-3.83600
X-3.70200 Y-3.83400
X-3.70300 Y-3.83400
X-3.70300 Y-3.83200
X-3.70400 Y-3.83200
X-3.70400 Y-3.83000
X-3.70500 Y-3.83000
X-3.70500 Y-3.82700
X-3.70600 Y-3.82700
X-3.70600 Y-3.82500
X-3.70700 Y-3.82500
X-3.70700 Y-3.82300
X-3.70800 Y-3.82300
X-3.70800 Y-3.82100
X-3.70900 Y-3.82100
X-3.70900 Y-3.81900
X-3.71000 Y-3.81900
X-3.71000 Y-3.81700
X-3.71100 Y-3.81700
X-3.71100 Y-3.81500
X-3.71200 Y-3.81500
X-3.71200 Y-3.81400
X-3.71300 Y-3.81400
X-3.71300 Y-3.81200
X-3.71400 Y-3.81200
X-3.71400 Y-3.81000
X-3.71500 Y-3.81000
X-3.71500 Y-3.80900
X-3.71600 Y-3.80900
X-3.71600 Y-3.80700
X-3.71700 Y-3.80700
X-3.71700 Y-3.80500
X-3.71800 Y-3.80500
X-3.71800 Y-3.80400
X-3.71900 Y-3.80400
X-3.71900 Y-3.80200
X-3.72000 Y-3.80200
X-3.72000 Y-3.80000
X-3.72100 Y-3.80000
X-3.72100 Y-3.79900
X-3.72200 Y-3.79900
X-3.72200 Y-3.79700
X-3.72300 Y-3.79700
X-3.72300 Y-3.79600
X-3.72400 Y-3.79600
X-3.72400 Y-3.79400
X-3.72500 Y-3.79400
X-3.72500 Y-3.79300
X-3.72600 Y-3.79300
X-3.72600 Y-3.79200
X-3.72700 Y-3.79200
X-3.72700 Y-3.79000
X-3.72800 Y-3.79000
X-3.72800 Y-3.78900
X-3.72900 Y-3.78900
X-3.72900 Y-3.78800
X-3.73000 Y-3.78800
X-3.73000 Y-3.78600
X-3.73100 Y-3.78600
X-3.73100 Y-3.78500
X-3.73200 Y-3.78500
X-3.73200 Y-3.78400
X-3.73300 Y-3.78400
X-3.73300 Y-3.78200
X-3.73400 Y-3.78200
X-3.73400 Y-3.78100
X-3.73500 Y-3.78100
X-3.73500 Y-3.78000
X-3.73600 Y-3.78000
X-3.73600 Y-3.77800
X-3.73700 Y-3.77800
X-3.73700 Y-3.77700
X-3.73800 Y-3.77700
X-3.73800 Y-3.77600
X-3.73900 Y-3.77600
X-3.73900 Y-3.77500
X-3.74000 Y-3.77500
X-3.74000 Y-3.77300
X-3.74100 Y-3.77300
X-3.74100 Y-3.77200
X-3.74200 Y-3.77200
X-3.74200 Y-3.77100
X-3.74300 Y-3.77100
X-3.74300 Y-3.77000
X-3.74400 Y-3.77000
X-3.74400 Y-3.76900
X-3.74500 Y-3.76900
X-3.74500 Y-3.76700
X-3.74600 Y-3.76700
X-3.74600 Y-3.76600
X-3.74700 Y-3.76600
X-3.74700 Y-3.76500
X-3.74800 Y-3.76500
X-3.74800 Y-3.76400
X-3.74900 Y-3.76400
X-3.74900 Y-3.76300
X-3.75000 Y-3.76300
X-3.75000 Y-3.76200
X-3.75100 Y-3.76200
X-3.75100 Y-3.76100
X-3.75200 Y-3.76100
X-3.75200 Y-3.76000
X-3.75300 Y-3.76000
X-3.75300 Y-3.75900
X-3.75400 Y-3.75900
X-3.75400 Y-3.75800
X-3.75500 Y-3.75800
X-3.75500 Y-3.75600
X-3.75600 Y-3.75600
X-3.75600 Y-3.75500
X-3.75700 Y-3.75500
X-3.75700 Y-3.75400
X-3.75800 Y-3.75400
X-3.75800 Y-3.75300
X-3.75900 Y-3.75300
X-3.75900 Y-3.75200
X-3.76000 Y-3.75200
X-3.76000 Y-3.75100
X-3.76200 Y-3.75100
X-3.76200 Y-3.75000
X-3.76300 Y-3.75000
X-3.76300 Y-3.74900
X-3.76400 Y-3.74900
X-3.76400 Y-3.74800
X-3.76500 Y-3.74800
X-3.76500 Y-3.74700
X-3.76600 Y-3.74700
X-3.76600 Y-3.74600
X-3.76700 Y-3.74600
X-3.76700 Y-3.74500
X-3.76800 Y-3.74500
X-3.76800 Y-3.74400
X-3.76900 Y-3.74400
X-3.76900 Y-3.74300
X-3.77000 Y-3.74300
X-3.77000 Y-3.74200
X-3.77100 Y-3.74200
X-3.77100 Y-3.74100
X-3.77300 Y-3.74100
X-3.77300 Y-3.74000
X-3.77400 Y-3.74000
X-3.77400 Y-3.73900
X-3.77500 Y-3.73900
X-3.77500 Y-3.73800
X-3.77600 Y-3.73800
X-3.77600 Y-3.73700
X-3.77800 Y-3.73700
X-3.77800 Y-3.73600
X-3.77900 Y-3.73600
X-3.77900 Y-3.73500
X-3.78000 Y-3.73500
X-3.78000 Y-3.73400
X-3.78200 Y-3.73400
X-3.78200 Y-3.73300
X-3.78300 Y-3.73300
X-3.78300 Y-3.73200
X-3.78400 Y-3.73200
X-3.78400 Y-3.73100
X-3.78600 Y-3.73100
X-3.78600 Y-3.73000
X-3.78700 Y-3.73000
X-3.78700 Y-3.72900
X-3.78800 Y-3.72900
X-3.78800 Y-3.72800
X-3.79000 Y-3.72800
X-3.79000 Y-3.72700
X-3.79100 Y-3.72700
X-3.79100 Y-3.72600
X-3.79200 Y-3.72600
X-3.79200 Y-3.72500
X-3.79400 Y-3.72500
X-3.79400 Y-3.72400
X-3.79600 Y-3.72400
X-3.79600 Y-3.72300
X-3.79700 Y-3.72300
X-3.79700 Y-3.72200
X-3.79900 Y-3.72200
X-3.79900 Y-3.72100
X-3.80100 Y-3.72100
X-3.80100 Y-3.72000
X-3.80200 Y-3.72000
X-3.80200 Y-3.71900
X-3.80400 Y-3.71900
X-3.80400 Y-3.71800
X-3.80600 Y-3.71800
X-3.80600 Y-3.71700
X-3.80700 Y-3.71700
X-3.80700 Y-3.71600
X-3.80900 Y-3.71600
X-3.80900 Y-3.71500
X-3.81100 Y-3.71500
X-3.81100 Y-3.71400
X-3.81300 Y-3.71400
X-3.81300 Y-3.71300
X-3.81500 Y-3.71300
X-3.81500 Y-3.71200
X-3.81700 Y-3.71200
X-3.81700 Y-3.71100
X-3.81900 Y-3.71100
X-3.81900 Y-3.71000
X-3.82100 Y-3.71000
X-3.82100 Y-3.70900
X-3.82300 Y-3.70900
X-3.82300 Y-3.70800
X-3.82500 Y-3.70800
X-3.82500 Y-3.70700
X-3.82700 Y-3.70700
X-3.82700 Y-3.70600
X-3.82900 Y-3.70600
X-3.82900 Y-3.70500
X-3.83100 Y-3.70500
X-3.83100 Y-3.70400
X-3.83400 Y-3.70400
X-3.83400 Y-3.70300
X-3.83600 Y-3.70300
X-3.83600 Y-3.70200
X-3.83800 Y-3.70200
X-3.83800 Y-3.70100
X-3.84000 Y-3.70100
X-3.84000 Y-3.70000
X-3.84200 Y-3.70000
X-3.84200 Y-3.69900
X-3.84500 Y-3.69900
X-3.84500 Y-3.69800
X-3.84700 Y-3.69800
X-3.84700 Y-3.69700
X-3.85000 Y-3.69700
X-3.85000 Y-3.69600
X-3.85300 Y-3.69600
X-3.85300 Y-3.69500
X-3.85600 Y-3.69500
X-3.85600 Y-3.69400
X-3.85800 Y-3.69400
X-3.85800 Y-3.69300
X-3.86100 Y-3.69300
X-3.86100 Y-3.69200
X-3.86400 Y-3.69200
X-3.86400 Y-3.69100
X-3.86800 Y-3.69100
X-3.86800 Y-3.69000
X-3.87200 Y-3.69000
X-3.87200 Y-3.68900
X-3.87600 Y-3.68900
X-3.87600 Y-3.68800
X-3.88000 Y-3.68800
X-3.88000 Y-3.68700
X-3.88400 Y-3.68700
X-3.88400 Y-3.68600
X-3.89000 Y-3.68600
X-3.89000 Y-3.68500
X-3.89700 Y-3.68500
X-3.89700 Y-3.68400
X-3.90300 Y-3.68400
X-3.90300 Y-3.68300
X-3.91100 Y-3.68300
X-3.91100 Y-3.68200
X-3.92900 Y-3.68200
X-3.92900 Y-3.68100
X-3.94400 Y-3.68100
X-3.94400 Y-3.68200
G01 Z-0.01969 F39.37008 ( plunge. )
G04 P0 ( dwell for no time -- G64 should not smooth over this point )
X-3.94400 Y-3.68200
X-3.96200 Y-3.68200
X-3.96200 Y-3.68300
X-3.97000 Y-3.68300
X-3.97000 Y-3.68400
X-3.97600 Y-3.68400
X-3.97600 Y-3.68500
X-3.98300 Y-3.68500
X-3.98300 Y-3.68600
X-3.98900 Y-3.68600
X-3.98900 Y-3.68700
X-3.99300 Y-3.68700
X-3.99300 Y-3.68800
X-3.99700 Y-3.68800
X-3.99700 Y-3.68900
X-4.00100 Y-3.68900
X-4.00100 Y-3.69000
X-4.00500 Y-3.69000
X-4.00500 Y-3.69100
X-4.00900 Y-3.69100
X-4.00900 Y-3.69200
X-4.01200 Y-3.69200
X-4.01200 Y-3.69300
X-4.01500 Y-3.69300
X-4.01500 Y-3.69400
X-4.01700 Y-3.69400
X-4.01700 Y-3.69500
X-4.02000 Y-3.69500
X-4.02000 Y-3.69600
X-4.02300 Y-3.69600
X-4.02300 Y-3.69700
X-4.02600 Y-3.69700
X-4.02600 Y-3.69800
X-4.02800 Y-3.69800
X-4.02800 Y-3.69900
X-4.03100 Y-3.69900
X-4.03100 Y-3.70000
X-4.03300 Y-3.70000
X-4.03300 Y-3.70100
X-4.03500 Y-3.70100
X-4.03500 Y-3.70200
X-4.03700 Y-3.70200
X-4.03700 Y-3.70300
X-4.03900 Y-3.70300
X-4.03900 Y-3.70400
X-4.04100 Y-3.70400
X-4.04100 Y-3.70500
X-4.04300 Y-3.70500
X-4.04300 Y-3.70600
X-4.04600 Y-3.70600
X-4.04600 Y-3.70700
X-4.04800 Y-3.70700
X-4.04800 Y-3.70800
X-4.05000 Y-3.70800
X-4.05000 Y-3.70900
X-4.05200 Y-3.70900
X-4.05200 Y-3.71000
X-4.05400 Y-3.71000
X-4.05400 Y-3.71100
X-4.05600 Y-3.71100
X-4.05600 Y-3.71200
X-4.05800 Y-3.71200
X-4.05800 Y-3.71300
X-4.06000 Y-3.71300
X-4.06000 Y-3.71400
X-4.06200 Y-3.71400
X-4.06200 Y-3.71500
X-4.06400 Y-3.71500
X-4.06400 Y-3.71600
X-4.06600 Y-3.71600
X-4.06600 Y-3.71700
X-4.06700 Y-3.71700
X-4.06700 Y-3.71800
X-4.06900 Y-3.71800
X-4.06900 Y-3.71900
X-4.07100 Y-3.71900
X-4.07100 Y-3.72000
X-4.07200 Y-3.72000
X-4.07200 Y-3.72100
X-4.07400 Y-3.72100
X-4.07400 Y-3.72200
X-4.07500 Y-3.72200
X-4.07500 Y-3.72300
X-4.07700 Y-3.72300
X-4.07700 Y-3.72400
X-4.07900 Y-3.72400
X-4.07900 Y-3.72500
X-4.08000 Y-3.72500
X-4.08000 Y-3.72600
X-4.08200 Y-3.72600
X-4.08200 Y-3.72700
X-4.08300 Y-3.72700
X-4.08300 Y-3.72800
X-4.08500 Y-3.72800
X-4.08500 Y-3.72900
X-4.08600 Y-3.72900
X-4.08600 Y-3.73000
X-4.08700 Y-3.73000
X-4.08700 Y-3.73100
X-4.08900 Y-3.73100
X-4.08900 Y-3.73200
X-4.09000 Y-3.73200
X-4.09000 Y-3.73300
X-4.09100 Y-3.73300
X-4.09100 Y-3.73400
X-4.09300 Y-3.73400
X-4.09300 Y-3.73500
X-4.09400 Y-3.73500
X-4.09400 Y-3.73600
X-4.09500 Y-3.73600
X-4.09500 Y-3.73700
X-4.09700 Y-3.73700
X-4.09700 Y-3.73800
X-4.09800 Y-3.73800
X-4.09800 Y-3.73900
X-4.09900 Y-3.73900
X-4.09900 Y-3.74000
X-4.10000 Y-3.74000
X-4.10000 Y-3.74100
X-4.10100 Y-3.74100
X-4.10100 Y-3.74200
X-4.10300 Y-3.74200
X-4.10300 Y-3.74300
X-4.10400 Y-3.74300
X-4.10400 Y-3.74400
X-4.10500 Y-3.74400
X-4.10500 Y-3.74500
X-4.10600 Y-3.74500
X-4.10600 Y-3.74600
X-4.10700 Y-3.74600
X-4.10700 Y-3.74700
X-4.10800 Y-3.74700
X-4.10800 Y-3.74800
X-4.10900 Y-3.74800
X-4.10900 Y-3.74900
X-4.11000 Y-3.74900
X-4.11000 Y-3.75000
X-4.11100 Y-3.75000
X-4.11100 Y-3.75100
X-4.11200 Y-3.75100
X-4.11200 Y-3.75200
X-4.11400 Y-3.75200
X-4.11400 Y-3.75300
X-4.11500 Y-3.75300
X-4.11500 Y-3.75400
X-4.11600 Y-3.75400
X-4.11600 Y-3.75600
X-4.11700 Y-3.75600
X-4.11700 Y-3.75700
X-4.11800 Y-3.75700
X-4.11800 Y-3.75800
X-4.11900 Y-3.75800
X-4.11900 Y-3.75900
X-4.12000 Y-3.75900
X-4.12000 Y-3.76000
X-4.12100 Y-3.76000
X-4.12100 Y-3.76100
X-4.12200 Y-3.76100
X-4.12200 Y-3.76200
X-4.12300 Y-3.76200
X-4.12300 Y-3.76300
X-4.12400 Y-3.76300
X-4.12400 Y-3.76400
X-4.12500 Y-3.76400
X-4.12500 Y-3.76500
X-4.12600 Y-3.76500
X-4.12600 Y-3.76700
X-4.12700 Y-3.76700
X-4.12700 Y-3.76800
X-4.12800 Y-3.76800
X-4.12800 Y-3.76900
X-4.12900 Y-3.76900
X-4.12900 Y-3.77000
X-4.13000 Y-3.77000
X-4.13000 Y-3.77100
X-4.13100 Y-3.77100
X-4.13100 Y-3.77200
X-4.13200 Y-3.77200
X-4.13200 Y-3.77400
X-4.13300 Y-3.77400
X-4.13300 Y-3.77500
X-4.13400 Y-3.77500
X-4.13400 Y-3.77600
X-4.13500 Y-3.77600
X-4.13500 Y-3.77700
X-4.13600 Y-3.77700
X-4.13600 Y-3.77900
X-4.13700 Y-3.77900
X-4.13700 Y-3.78000
X-4.13800 Y-3.78000
X-4.13800 Y-3.78100
X-4.13900 Y-3.78100
X-4.13900 Y-3.78300
X-4.14000 Y-3.78300
X-4.14000 Y-3.78400
X-4.14100 Y-3.78400
X-4.14100 Y-3.78500
X-4.14200 Y-3.78500
X-4.14200 Y-3.78700
X-4.14300 Y-3.78700
X-4.14300 Y-3.78800
X-4.14400 Y-3.78800
X-4.14400 Y-3.78900
X-4.14500 Y-3.78900
X-4.14500 Y-3.79100
X-4.14600 Y-3.79100
X-4.14600 Y-3.79200
X-4.14700 Y-3.79200
X-4.14700 Y-3.79300
X-4.14800 Y-3.79300
X-4.14800 Y-3.79500
X-4.14900 Y-3.79500
X-4.14900 Y-3.79600
X-4.15000 Y-3.79600
X-4.15000 Y-3.79700
X-4.15100 Y-3.79700
X-4.15100 Y-3.79900
X-4.15200 Y-3.79900
X-4.15200 Y-3.80100
X-4.15300 Y-3.80100
X-4.15300 Y-3.80200
X-4.15400 Y-3.80200
X-4.15400 Y-3.80400
X-4.15500 Y-3.80400
X-4.15500 Y-3.80600
X-4.15600 Y-3.80600
X-4.15600 Y-3.80700
X-4.15700 Y-3.80700
X-4.15700 Y-3.80900
X-4.15800 Y-3.80900
X-4.15800 Y-3.81100
X-4.15900 Y-3.81100
X-4.15900 Y-3.81200
X-4.16000 Y-3.81200
X-4.16000 Y-3.81400
X-4.16100 Y-3.81400
X-4.16100 Y-3.81500
X-4.16200 Y-3.81500
X-4.16200 Y-3.81700
X-4.16300 Y-3.81700
X-4.16300 Y-3.82000
X-4.16400 Y-3.82000
X-4.16400 Y-3.82200
X-4.16500 Y-3.82200
X-4.16500 Y-3.82400
X-4.16600 Y-3.82400
X-4.16600 Y-3.82600
X-4.16700 Y-3.82600
X-4.16700 Y-3.82800
X-4.16800 Y-3.82800
X-4.16800 Y-3.83000
X-4.16900 Y-3.83000
X-4.16900 Y-3.83200
X-4.17000 Y-3.83200
X-4.17000 Y-3.83400
X-4.17100 Y-3.83400
X-4.17100 Y-3.83600
X-4.17200 Y-3.83600
X-4.17200 Y-3.83900
X-4.17300 Y-3.83900
X-4.17300 Y-3.84200
X-4.17400 Y-3.84200
X-4.17400 Y-3.84500
X-4.17500 Y-3.84500
X-4.17500 Y-3.84700
X-4.17600 Y-3.84700
X-4.17600 Y-3.85000
X-4.17700 Y-3.85000
X-4.17700 Y-3.85300
X-4.17800 Y-3.85300
X-4.17800 Y-3.85500
X-4.17900 Y-3.85500
X-4.17900 Y-3.85900
X-4.18000 Y-3.85900
X-4.18000 Y-3.86300
X-4.18100 Y-3.86300
X-4.18100 Y-3.86700
X-4.18200 Y-3.86700
X-4.18200 Y-3.87100
X-4.18300 Y-3.87100
X-4.18300 Y-3.87500
X-4.18400 Y-3.87500
X-4.18400 Y-3.87800
X-4.18500 Y-3.87800
X-4.18500 Y-3.88300
X-4.18600 Y-3.88300
X-4.18600 Y-3.88700
X-4.18700 Y-3.88700
X-4.18700 Y-3.89200
X-4.18800 Y-3.89200
X-4.18800 Y-3.89900
X-4.18900 Y-3.89900
X-4.18900 Y-3.90500
X-4.19000 Y-3.90500
X-4.19000 Y-3.91200
X-4.19100 Y-3.91200
X-4.19100 Y-3.92900
X-4.19200 Y-3.92900
X-4.19200 Y-3.94400
X-4.19100 Y-3.94400
X-4.19100 Y-3.96100
X-4.19000 Y-3.96100
X-4.19000 Y-3.96800
X-4.18900 Y-3.96800
X-4.18900 Y-3.97400
X-4.18800 Y-3.97400
X-4.18800 Y-3.98100
X-4.18700 Y-3.98100
X-4.18700 Y-3.98600
X-4.18600 Y-3.98600
X-4.18600 Y-3.99000
X-4.18500 Y-3.99000
X-4.18500 Y-3.99500
X-4.18400 Y-3.99500
X-4.18400 Y-3.99900
X-4.18300 Y-3.99900
X-4.18300 Y-4.00200
X-4.18200 Y-4.00200
X-4.18200 Y-4.00600
X-4.18100 Y-4.00600
X-4.18100 Y-4.01000
X-4.18000 Y-4.01000
X-4.18000 Y-4.01400
X-4.17900 Y-4.01400
X-4.17900 Y-4.01800
X-4.17800 Y-4.01800
X-4.17800 Y-4.02000
X-4.17700 Y-4.02000
X-4.17700 Y-4.02300
X-4.17600 Y-4.02300
X-4.17600 Y-4.02600
X-4.17500 Y-4.02600
X-4.17500 Y-4.02900
X-4.17400 Y-4.02900
X-4.17400 Y-4.03100
X-4.17300 Y-4.03100
X-4.17300 Y-4.03400
X-4.17200 Y-4.03400
X-4.17200 Y-4.03700
X-4.17100 Y-4.03700
X-4.17100 Y-4.03900
X-4.17000 Y-4.03900
X-4.17000 Y-4.04100
X-4.16900 Y-4.04100
X-4.16900 Y-4.04300
X-4.16800 Y-4.04300
X-4.16800 Y-4.04500
X-4.16700 Y-4.04500
X-4.16700 Y-4.04700
X-4.16600 Y-4.04700
X-4.16600 Y-4.04900
X-4.16500 Y-4.04900
X-4.16500 Y-4.05200
X-4.16400 Y-4.05200
X-4.16400 Y-4.05400
X-4.16300 Y-4.05400
X-4.16300 Y-4.05600
X-4.16200 Y-4.05600
X-4.16200 Y-4.05800
X-4.16100 Y-4.05800
X-4.16100 Y-4.05900
X-4.16000 Y-4.05900
X-4.16000 Y-4.06100
X-4.15900 Y-4.06100
X-4.15900 Y-4.06300
X-4.15800 Y-4.06300
X-4.15800 Y-4.06400
X-4.15700 Y-4.06400
X-4.15700 Y-4.06600
X-4.15600 Y-4.06600
X-4.15600 Y-4.06800
X-4.15500 Y-4.06800
X-4.15500 Y-4.06900
X-4.15400 Y-4.06900
X-4.15400 Y-4.07100
X-4.15300 Y-4.07100
X-4.15300 Y-4.07200
X-4.15200 Y-4.07200
X-4.15200 Y-4.07400
X-4.15100 Y-4.07400
X-4.15100 Y-4.07600
X-4.15000 Y-4.07600
X-4.15000 Y-4.07700
X-4.14900 Y-4.07700
X-4.14900 Y-4.07800
X-4.14800 Y-4.07800
X-4.14800 Y-4.08000
X-4.14700 Y-4.08000
X-4.14700 Y-4.08100
X-4.14600 Y-4.08100
X-4.14600 Y-4.08200
X-4.14500 Y-4.08200
X-4.14500 Y-4.08400
X-4.14400 Y-4.08400
X-4.14400 Y-4.08500
X-4.14300 Y-4.08500
X-4.14300 Y-4.08700
X-4.14200 Y-4.08700
X-4.14200 Y-4.08800
X-4.14100 Y-4.08800
X-4.14100 Y-4.08900
X-4.14000 Y-4.08900
X-4.14000 Y-4.09100
X-4.13900 Y-4.09100
X-4.13900 Y-4.09200
X-4.13800 Y-4.09200
X-4.13800 Y-4.09300
X-4.13700 Y-4.09300
X-4.13700 Y-4.09400
X-4.13600 Y-4.09400
X-4.13600 Y-4.09600
X-4.13500 Y-4.09600
X-4.13500 Y-4.09700
X-4.13400 Y-4.09700
X-4.13400 Y-4.09800
X-4.13300 Y-4.09800
X-4.13300 Y-4.09900
X-4.13200 Y-4.09900
X-4.13200 Y-4.10100
X-4.13100 Y-4.10100
X-4.13100 Y-4.10200
X-4.13000 Y-4.10200
X-4.13000 Y-4.10300
X-4.12900 Y-4.10300
X-4.12900 Y-4.10400
X-4.12800 Y-4.10400
X-4.12800 Y-4.10500
X-4.12700 Y-4.10500
X-4.12700 Y-4.10700
X-4.12600 Y-4.10700
X-4.12600 Y-4.10800
X-4.12500 Y-4.10800
X-4.12500 Y-4.10900
X-4.12400 Y-4.10900
X-4.12400 Y-4.11000
X-4.12300 Y-4.11000
X-4.12300 Y-4.11100
X-4.12200 Y-4.11100
X-4.12200 Y-4.11200
X-4.12100 Y-4.11200
X-4.12100 Y-4.11300
X-4.12000 Y-4.11300
X-4.12000 Y-4.11400
X-4.11900 Y-4.11400
X-4.11900 Y-4.11500
X-4.11800 Y-4.11500
X-4.11800 Y-4.11600
X-4.11700 Y-4.11600
X-4.11700 Y-4.11800
X-4.11600 Y-4.11800
X-4.11600 Y-4.11900
X-4.11500 Y-4.11900
X-4.11500 Y-4.12000
X-4.11400 Y-4.12000
X-4.11400 Y-4.12100
X-4.11300 Y-4.12100
X-4.11300 Y-4.12200
X-4.11100 Y-4.12200
X-4.11100 Y-4.12300
X-4.11000 Y-4.12300
X-4.11000 Y-4.12400
X-4.10900 Y-4.12400
X-4.10900 Y-4.12500
X-4.10800 Y-4.12500
X-4.10800 Y-4.12600
X-4.10700 Y-4.12600
X-4.10700 Y-4.12700
X-4.10600 Y-4.12700
X-4.10600 Y-4.12800
X-4.10500 Y-4.12800
X-4.10500 Y-4.12900
X-4.10400 Y-4.12900
X-4.10400 Y-4.13000
X-4.10300 Y-4.13000
X-4.10300 Y-4.13100
X-4.10200 Y-4.13100
X-4.10200 Y-4.13200
X-4.10000 Y-4.13200
X-4.10000 Y-4.13300
X-4.09900 Y-4.13300
X-4.09900 Y-4.13400
X-4.09800 Y-4.13400
X-4.09800 Y-4.13500
X-4.09700 Y-4.13500
X-4.09700 Y-4.13600
X-4.09500 Y-4.13600
X-4.09500 Y-4.13700
X-4.09400 Y-4.13700
X-4.09400 Y-4.13800
X-4.09300 Y-4.13800
X-4.09300 Y-4.13900
X-4.09100 Y-4.13900
X-4.09100 Y-4.14000
X-4.09000 Y-4.14000
X-4.09000 Y-4.14100
X-4.08900 Y-4.14100
X-4.08900 Y-4.14200
X-4.08700 Y-4.14200
X-4.08700 Y-4.14300
X-4.08600 Y-4.14300
X-4.08600 Y-4.14400
X-4.08500 Y-4.14400
X-4.08500 Y-4.14500
X-4.08300 Y-4.14500
X-4.08300 Y-4.14600
X-4.08200 Y-4.14600
X-4.08200 Y-4.14700
X-4.08100 Y-4.14700
X-4.08100 Y-4.14800
X-4.07900 Y-4.14800
X-4.07900 Y-4.14900
X-4.07700 Y-4.14900
X-4.07700 Y-4.15000
X-4.07600 Y-4.15000
X-4.07600 Y-4.15100
X-4.07400 Y-4.15100
X-4.07400 Y-4.15200
X-4.07200 Y-4.15200
X-4.07200 Y-4.15300
X-4.07100 Y-4.15300
X-4.07100 Y-4.15400
X-4.06900 Y-4.15400
X-4.06900 Y-4.15500
X-4.06700 Y-4.15500
X-4.06700 Y-4.15600
X-4.06600 Y-4.15600
X-4.06600 Y-4.15700
X-4.06400 Y-4.15700
X-4.06400 Y-4.15800
X-4.06200 Y-4.15800
X-4.06200 Y-4.15900
X-4.06000 Y-4.15900
X-4.06000 Y-4.16000
X-4.05800 Y-4.16000
X-4.05800 Y-4.16100
X-4.05600 Y-4.16100
X-4.05600 Y-4.16200
X-4.05400 Y-4.16200
X-4.05400 Y-4.16300
X-4.05200 Y-4.16300
X-4.05200 Y-4.16400
X-4.05000 Y-4.16400
X-4.05000 Y-4.16500
X-4.04800 Y-4.16500
X-4.04800 Y-4.16600
X-4.04600 Y-4.16600
X-4.04600 Y-4.16700
X-4.04400 Y-4.16700
X-4.04400 Y-4.16800
X-4.04200 Y-4.16800
X-4.04200 Y-4.16900
X-4.04000 Y-4.16900
X-4.04000 Y-4.17000
X-4.03800 Y-4.17000
X-4.03800 Y-4.17100
X-4.03500 Y-4.17100
X-4.03500 Y-4.17200
X-4.03300 Y-4.17200
X-4.03300 Y-4.17300
X-4.03100 Y-4.17300
X-4.03100 Y-4.17400
X-4.02900 Y-4.17400
X-4.02900 Y-4.17500
X-4.02600 Y-4.17500
X-4.02600 Y-4.17600
X-4.02300 Y-4.17600
X-4.02300 Y-4.17700
X-4.02000 Y-4.17700
X-4.02000 Y-4.17800
X-4.01800 Y-4.17800
X-4.01800 Y-4.17900
X-4.01500 Y-4.17900
X-4.01500 Y-4.18000
X-4.01200 Y-4.18000
X-4.01200 Y-4.18100
X-4.00900 Y-4.18100
X-4.00900 Y-4.18200
X-4.00500 Y-4.18200
X-4.00500 Y-4.18300
X-4.00100 Y-4.18300
X-4.00100 Y-4.18400
X-3.99700 Y-4.18400
X-3.99700 Y-4.18500
X-3.99400 Y-4.18500
X-3.99400 Y-4.18600
X-3.99000 Y-4.18600
X-3.99000 Y-4.18700
X-3.98400 Y-4.18700
X-3.98400 Y-4.18800
X-3.97700 Y-4.18800
X-3.97700 Y-4.18900
X-3.97000 Y-4.18900
X-3.97000 Y-4.19000
X-3.96300 Y-4.19000
X-3.96300 Y-4.19100
X-3.94700 Y-4.19100
X-3.94700 Y-4.19200
X-3.92600 Y-4.19200
X-3.92600 Y-4.19100
X-3.91000 Y-4.19100
X-3.91000 Y-4.19000
X-3.90200 Y-4.19000
X-3.90200 Y-4.18900
X-3.89600 Y-4.18900
X-3.89600 Y-4.18800
X-3.88900 Y-4.18800
X-3.88900 Y-4.18700
X-3.88300 Y-4.18700
X-3.88300 Y-4.18600
X-3.87900 Y-4.18600
X-3.87900 Y-4.18500
X-3.87500 Y-4.18500
X-3.87500 Y-4.18400
X-3.87200 Y-4.18400
X-3.87200 Y-4.18300
X-3.86800 Y-4.18300
X-3.86800 Y-4.18200
X-3.86400 Y-4.18200
X-3.86400 Y-4.18100
X-3.86100 Y-4.18100
X-3.86100 Y-4.18000
X-3.85800 Y-4.18000
X-3.85800 Y-4.17900
X-3.85500 Y-4.17900
X-3.85500 Y-4.17800
X-3.85200 Y-4.17800
X-3.85200 Y-4.17700
X-3.85000 Y-4.17700
X-3.85000 Y-4.17600
X-3.84700 Y-4.17600
X-3.84700 Y-4.17500
X-3.84400 Y-4.17500
X-3.84400 Y-4.17400
X-3.84200 Y-4.17400
X-3.84200 Y-4.17300
X-3.83900 Y-4.17300
X-3.83900 Y-4.17200
X-3.83700 Y-4.17200
X-3.83700 Y-4.17100
X-3.83500 Y-4.17100
X-3.83500 Y-4.17000
X-3.83300 Y-4.17000
X-3.83300 Y-4.16900
X-3.83100 Y-4.16900
X-3.83100 Y-4.16800
X-3.82900 Y-4.16800
X-3.82900 Y-4.16700
X-3.82700 Y-4.16700
X-3.82700 Y-4.16600
X-3.82500 Y-4.16600
X-3.82500 Y-4.16500
X-3.82300 Y-4.16500
X-3.82300 Y-4.16400
X-3.82100 Y-4.16400
X-3.82100 Y-4.16300
X-3.81900 Y-4.16300
X-3.81900 Y-4.16200
X-3.81700 Y-4.16200
X-3.81700 Y-4.16100
X-3.81500 Y-4.16100
X-3.81500 Y-4.16000
X-3.81200 Y-4.16000
X-3.81200 Y-4.15900
X-3.81000 Y-4.15900
X-3.81000 Y-4.15800
X-3.80900 Y-4.15800
X-3.80900 Y-4.15700
X-3.80700 Y-4.15700
X-3.80700 Y-4.15600
X-3.80500 Y-4.15600
X-3.80500 Y-4.15500
X-3.80400 Y-4.15500
X-3.80400 Y-4.15400
X-3.80200 Y-4.15400
X-3.80200 Y-4.15300
X-3.80000 Y-4.15300
X-3.80000 Y-4.15200
X-3.79900 Y-4.15200
X-3.79900 Y-4.15100
X-3.79700 Y-4.15100
X-3.79700 Y-4.15000
X-3.79600 Y-4.15000
X-3.79600 Y-4.14900
X-3.79400 Y-4.14900
X-3.79400 Y-4.14800
X-3.79200 Y-4.14800
X-3.79200 Y-4.14700
X-3.79100 Y-4.14700
X-3.79100 Y-4.14600
X-3.78900 Y-4.14600
X-3.78900 Y-4.14500
X-3.78800 Y-4.14500
X-3.78800 Y-4.14400
X-3.78700 Y-4.14400
X-3.78700 Y-4.14300
X-3.78500 Y-4.14300
X-3.78500 Y-4.14200
X-3.78400 Y-4.14200
X-3.78400 Y-4.14100
X-3.78300 Y-4.14100
X-3.78300 Y-4.14000
X-3.78100 Y-4.14000
X-3.78100 Y-4.13900
X-3.78000 Y-4.13900
X-3.78000 Y-4.13800
X-3.77900 Y-4.13800
X-3.77900 Y-4.13700
X-3.77700 Y-4.13700
X-3.77700 Y-4.13600
X-3.77600 Y-4.13600
X-3.77600 Y-4.13500
X-3.77500 Y-4.13500
X-3.77500 Y-4.13400
X-3.77300 Y-4.13400
X-3.77300 Y-4.13300
X-3.77200 Y-4.13300
X-3.77200 Y-4.13200
X-3.77100 Y-4.13200
X-3.77100 Y-4.13100
X-3.77000 Y-4.13100
X-3.77000 Y-4.13000
X-3.76900 Y-4.13000
X-3.76900 Y-4.12900
X-3.76800 Y-4.12900
X-3.76800 Y-4.12800
X-3.76700 Y-4.12800
X-3.76700 Y-4.12700
X-3.76600 Y-4.12700
X-3.76600 Y-4.12600
X-3.76500 Y-4.12600
X-3.76500 Y-4.12500
X-3.76400 Y-4.12500
X-3.76400 Y-4.12400
X-3.76200 Y-4.12400
X-3.76200 Y-4.12300
X-3.76100 Y-4.12300
X-3.76100 Y-4.12200
X-3.76000 Y-4.12200
X-3.76000 Y-4.12100
X-3.75900 Y-4.12100
X-3.75900 Y-4.12000
X-3.75800 Y-4.12000
X-3.75800 Y-4.11900
X-3.75700 Y-4.11900
X-3.75700 Y-4.11800
X-3.75600 Y-4.11800
X-3.75600 Y-4.11700
X-3.75500 Y-4.11700
X-3.75500 Y-4.11600
X-3.75400 Y-4.11600
X-3.75400 Y-4.11400
X-3.75300 Y-4.11400
X-3.75300 Y-4.11300
X-3.75200 Y-4.11300
X-3.75200 Y-4.11200
X-3.75100 Y-4.11200
X-3.75100 Y-4.11100
X-3.75000 Y-4.11100
X-3.75000 Y-4.11000
X-3.74900 Y-4.11000
X-3.74900 Y-4.10900
X-3.74800 Y-4.10900
X-3.74800 Y-4.10800
X-3.74700 Y-4.10800
X-3.74700 Y-4.10700
X-3.74600 Y-4.10700
X-3.74600 Y-4.10600
X-3.74500 Y-4.10600
X-3.74500 Y-4.10500
X-3.74400 Y-4.10500
X-3.74400 Y-4.10300
X-3.74300 Y-4.10300
X-3.74300 Y-4.10200
X-3.74200 Y-4.10200
X-3.74200 Y-4.10100
X-3.74100 Y-4.10100
X-3.74100 Y-4.10000
X-3.74000 Y-4.10000
X-3.74000 Y-4.09800
X-3.73900 Y-4.09800
X-3.73900 Y-4.09700
X-3.73800 Y-4.09700
X-3.73800 Y-4.09600
X-3.73700 Y-4.09600
X-3.73700 Y-4.09500
X-3.73600 Y-4.09500
X-3.73600 Y-4.09300
X-3.73500 Y-4.09300
X-3.73500 Y-4.09200
X-3.73400 Y-4.09200
X-3.73400 Y-4.09100
X-3.73300 Y-4.09100
X-3.73300 Y-4.08900
X-3.73200 Y-4.08900
X-3.73200 Y-4.08800
X-3.73100 Y-4.08800
X-3.73100 Y-4.08700
X-3.73000 Y-4.08700
X-3.73000 Y-4.08500
X-3.72900 Y-4.08500
X-3.72900 Y-4.08400
X-3.72800 Y-4.08400
X-3.72800 Y-4.08300
X-3.72700 Y-4.08300
X-3.72700 Y-4.08100
X-3.72600 Y-4.08100
X-3.72600 Y-4.08000
X-3.72500 Y-4.08000
X-3.72500 Y-4.07900
X-3.72400 Y-4.07900
X-3.72400 Y-4.07700
X-3.72300 Y-4.07700
X-3.72300 Y-4.07600
X-3.72200 Y-4.07600
X-3.72200 Y-4.07400
X-3.72100 Y-4.07400
X-3.72100 Y-4.07300
X-3.72000 Y-4.07300
X-3.72000 Y-4.07100
X-3.71900 Y-4.07100
X-3.71900 Y-4.06900
X-3.71800 Y-4.06900
X-3.71800 Y-4.06800
X-3.71700 Y-4.06800
X-3.71700 Y-4.06600
X-3.71600 Y-4.06600
X-3.71600 Y-4.06500
X-3.71500 Y-4.06500
X-3.71500 Y-4.06300
X-3.71400 Y-4.06300
X-3.71400 Y-4.06100
X-3.71300 Y-4.06100
X-3.71300 Y-4.06000
X-3.71200 Y-4.06000
X-3.71200 Y-4.05800
X-3.71100 Y-4.05800
X-3.71100 Y-4.05600
X-3.71000 Y-4.05600
X-3.71000 Y-4.05400
X-3.70900 Y-4.05400
X-3.70900 Y-4.05200
X-3.70800 Y-4.05200
X-3.70800 Y-4.05000
X-3.70700 Y-4.05000
X-3.70700 Y-4.04800
X-3.70600 Y-4.04800
X-3.70600 Y-4.04600
X-3.70500 Y-4.04600
X-3.70500 Y-4.04400
X-3.70400 Y-4.04400
X-3.70400 Y-4.04100
X-3.70300 Y-4.04100
X-3.70300 Y-4.03900
X-3.70200 Y-4.03900
X-3.70200 Y-4.03700
X-3.70100 Y-4.03700
X-3.70100 Y-4.03500
X-3.70000 Y-4.03500
X-3.70000 Y-4.03200
X-3.69900 Y-4.03200
X-3.69900 Y-4.02900
X-3.69800 Y-4.02900
X-3.69800 Y-4.02600
X-3.69700 Y-4.02600
X-3.69700 Y-4.02400
X-3.69600 Y-4.02400
X-3.69600 Y-4.02100
X-3.69500 Y-4.02100
X-3.69500 Y-4.01800
X-3.69400 Y-4.01800
X-3.69400 Y-4.01500
X-3.69300 Y-4.01500
X-3.69300 Y-4.01100
X-3.69200 Y-4.01100
X-3.69200 Y-4.00700
X-3.69100 Y-4.00700
X-3.69100 Y-4.00300
X-3.69000 Y-4.00300
X-3.69000 Y-3.99900
X-3.68900 Y-3.99900
X-3.68900 Y-3.99500
X-3.68800 Y-3.99500
X-3.68800 Y-3.99100
X-3.68700 Y-3.99100
X-3.68700 Y-3.98700
X-3.68600 Y-3.98700
X-3.68600 Y-3.98200
X-3.68500 Y-3.98200
X-3.68500 Y-3.97500
X-3.68400 Y-3.97500
X-3.68400 Y-3.96900
X-3.68300 Y-3.96900
X-3.68300 Y-3.96200
X-3.68200 Y-3.96200
X-3.68200 Y-3.94700
X-3.68100 Y-3.94700
X-3.68100 Y-3.92600
X-3.68200 Y-3.92600
X-3.68200 Y-3.91100
X-3.68300 Y-3.91100
X-3.68300 Y-3.90400
X-3.68400 Y-3.90400
X-3.68400 Y-3.89800
X-3.68500 Y-3.89800
X-3.68500 Y-3.89100
X-3.68600 Y-3.89100
X-3.68600 Y-3.88700
X-3.68700 Y-3.88700
X-3.68700 Y-3.88200
X-3.68800 Y-3.88200
X-3.68800 Y-3.87800
X-3.68900 Y-3.87800
X-3.68900 Y-3.87400
X-3.69000 Y-3.87400
X-3.69000 Y-3.87000
X-3.69100 Y-3.87000
X-3.69100 Y-3.86600
X-3.69200 Y-3.86600
X-3.69200 Y-3.86200
X-3.69300 Y-3.86200
X-3.69300 Y-3.85800
X-3.69400 Y-3.85800
X-3.69400 Y-3.85500
X-3.69500 Y-3.85500
X-3.69500 Y-3.85200
X-3.69600 Y-3.85200
X-3.69600 Y-3.85000
X-3.69700 Y-3.85000
X-3.69700 Y-3.84700
X-3.69800 Y-3.84700
X-3.69800 Y-3.84400
X-3.69900 Y-3.84400
X-3.69900 Y-3.84100
X-3.70000 Y-3.84100
X-3.70000 Y-3.83900
X-3.70100 Y-3.83900
X-3.70100 Y-3.83600
X-3.70200 Y-3.83600
X-3.70200 Y-3.83400
X-3.70300 Y-3.83400
X-3.70300 Y-3.83200
X-3.70400 Y-3.83200
X-3.70400 Y-3.83000
X-3.70500 Y-3.83000
X-3.70500 Y-3.82700
X-3.70600 Y-3.82700
X-3.70600 Y-3.82500
X-3.70700 Y-3.82500
X-3.70700 Y-3.82300
X-3.70800 Y-3.82300
X-3.70800 Y-3.82100
X-3.70900 Y-3.82100
X-3.70900 Y-3.81900
X-3.71000 Y-3.81900
X-3.71000 Y-3.81700
X-3.71100 Y-3.81700
X-3.71100 Y-3.81500
X-3.71200 Y-3.81500
X-3.71200 Y-3.81400
X-3.71300 Y-3.81400
X-3.71300 Y-3.81200
X-3.71400 Y-3.81200
X-3.71400 Y-3.81000
X-3.71500 Y-3.81000
X-3.71500 Y-3.80900
X-3.71600 Y-3.80900
X-3.71600 Y-3.80700
X-3.71700 Y-3.80700
X-3.71700 Y-3.80500
X-3.71800 Y-3.80500
X-3.71800 Y-3.80400
X-3.71900 Y-3.80400
X-3.71900 Y-3.80200
X-3.72000 Y-3.80200
X-3.72000 Y-3.80000
X-3.72100 Y-3.80000
X-3.72100 Y-3.79900
X-3.72200 Y-3.79900
X-3.72200 Y-3.79700
X-3.72300 Y-3.79700
X-3.72300 Y-3.79600
X-3.72400 Y-3.79600
X-3.72400 Y-3.79400
X-3.72500 Y-3.79400
X-3.72500 Y-3.79300
X-3.72600 Y-3.79300
X-3.72600 Y-3.79200
X-3.72700 Y-3.79200
X-3.72700 Y-3.79000
X-3.72800 Y-3.79000
X-3.72800 Y-3.78900
X-3.72900 Y-3.78900
X-3.72900 Y-3.78800
X-3.73000 Y-3.78800
X-3.73000 Y-3.78600
X-3.73100 Y-3.78600
X-3.73100 Y-3.78500
X-3.73200 Y-3.78500
X-3.73200 Y-3.78400
X-3.73300 Y-3.78400
X-3.73300 Y-3.78200
X-3.73400 Y-3.78200
X-3.73400 Y-3.78100
X-3.73500 Y-3.78100
X-3.73500 Y-3.78000
X-3.73600 Y-3.78000
X-3.73600 Y-3.77800
X-3.73700 Y-3.77800
X-3.73700 Y-3.77700
X-3.73800 Y-3.77700
X-3.73800 Y-3.77600
X-3.73900 Y-3.77600
X-3.73900 Y-3.77500
X-3.74000 Y-3.77500
X-3.74000 Y-3.77300
X-3.74100 Y-3.77300
X-3.74100 Y-3.77200
X-3.74200 Y-3.77200
X-3.74200 Y-3.77100
X-3.74300 Y-3.77100
X-3.74300 Y-3.77000
X-3.74400 Y-3.77000
X-3.74400 Y-3.76900
X-3.74500 Y-3.76900
X-3.74500 Y-3.76700
X-3.74600 Y-3.76700
X-3.74600 Y-3.76600
X-3.74700 Y-3.76600
X-3.74700 Y-3.76500
X-3.74800 Y-3.76500
X-3.74800 Y-3.76400
X-3.74900 Y-3.76400
X-3.74900 Y-3.76300
X-3.75000 Y-3.76300
X-3.75000 Y-3.76200
X-3.75100 Y-3.76200
X-3.75100 Y-3.76100
X-3.75200 Y-3.76100
X-3.75200 Y-3.76000
X-3.75300 Y-3.76000
X-3.75300 Y-3.75900
X-3.75400 Y-3.75900
X-3.75400 Y-3.75800
X-3.75500 Y-3.75800
X-3.75500 Y-3.75600
X-3.75600 Y-3.75600
X-3.75600 Y-3.75500
X-3.75700 Y-3.75500
X-3.75700 Y-3.75400
X-3.75800 Y-3.75400
X-3.75800 Y-3.75300
X-3.75900 Y-3.75300
X-3.75900 Y-3.75200
X-3.76000 Y-3.75200
X-3.76000 Y-3.75100
X-3.76200 Y-3.75100
X-3.76200 Y-3.75000
X-3.76300 Y-3.75000
X-3.76300 Y-3.74900
X-3.76400 Y-3.74900
X-3.76400 Y-3.74800
X-3.76500 Y-3.74800
X-3.76500 Y-3.74700
X-3.76600 Y-3.74700
X-3.76600 Y-3.74600
X-3.76700 Y-3.74600
X-3.76700 Y-3.74500
X-3.76800 Y-3.74500
X-3.76800 Y-3.74400
X-3.76900 Y-3.74400
X-3.76900 Y-3.74300
X-3.77000 Y-3.74300
X-3.77000 Y-3.74200
X-3.77100 Y-3.74200
X-3.77100 Y-3.74100
X-3.77300 Y-3.74100
X-3.77300 Y-3.74000
X-3.77400 Y-3.74000
X-3.77400 Y-3.73900
X-3.77500 Y-3.73900
X-3.77500 Y-3.73800
X-3.77600 Y-3.73800
X-3.77600 Y-3.73700
X-3.77800 Y-3.73700
X-3.77800 Y-3.73600
X-3.77900 Y-3.73600
X-3.77900 Y-3.73500
X-3.78000 Y-3.73500
X-3.78000 Y-3.73400
X-3.78200 Y-3.73400
X-3.78200 Y-3.73300
X-3.78300 Y-3.73300
X-3.78300 Y-3.73200
X-3.78400 Y-3.73200
X-3.78400 Y-3.73100
X-3.78600 Y-3.73100
X-3.78600 Y-3.73000
X-3.78700 Y-3.73000
X-3.78700 Y-3.72900
X-3.78800 Y-3.72900
X-3.78800 Y-3.72800
X-3.79000 Y-3.72800
X-3.79000 Y-3.72700
X-3.79100 Y-3.72700
X-3.79100 Y-3.72600
X-3.79200 Y-3.72600
X-3.79200 Y-3.72500
X-3.79400 Y-3.72500
X-3.79400 Y-3.72400
X-3.79600 Y-3.72400
X-3.79600 Y-3.72300
X-3.79700 Y-3.72300
X-3.79700 Y-3.72200
X-3.79900 Y-3.72200
X-3.79900 Y-3.72100
X-3.80100 Y-3.72100
X-3.80100 Y-3.72000
X-3.80200 Y-3.72000
X-3.80200 Y-3.71900
X-3.80400 Y-3.71900
X-3.80400 Y-3.71800
X-3.80600 Y-3.71800
X-3.80600 Y-3.71700
X-3.80700 Y-3.71700
X-3.80700 Y-3.71600
X-3.80900 Y-3.71600
X-3.80900 Y-3.71500
X-3.81100 Y-3.71500
X-3.81100 Y-3.71400
X-3.81300 Y-3.71400
X-3.81300 Y-3.71300
X-3.81500 Y-3.71300
X-3.81500 Y-3.71200
X-3.81700 Y-3.71200
X-3.81700 Y-3.71100
X-3.81900 Y-3.71100
X-3.81900 Y-3.71000
X-3.82100 Y-3.71000
X-3.82100 Y-3.70900
X-3.82300 Y-3.70900
X-3.82300 Y-3.70800
X-3.82500 Y-3.70800
X-3.82500 Y-3.70700
X-3.82700 Y-3.70700
X-3.82700 Y-3.70600
X-3.82900 Y-3.70600
X-3.82900 Y-3.70500
X-3.83100 Y-3.70500
X-3.83100 Y-3.70400
X-3.83400 Y-3.70400
X-3.83400 Y-3.70300
X-3.83600 Y-3.70300
X-3.83600 Y-3.70200
X-3.83800 Y-3.70200
X-3.83800 Y-3.70100
X-3.84000 Y-3.70100
X-3.84000 Y-3.70000
X-3.84200 Y-3.70000
X-3.84200 Y-3.69900
X-3.84500 Y-3.69900
X-3.84500 Y-3.69800
X-3.84700 Y-3.69800
X-3.84700 Y-3.69700
X-3.85000 Y-3.69700
X-3.85000 Y-3.69600
X-3.85300 Y-3.69600
X-3.85300 Y-3.69500
X-3.85600 Y-3.69500
X-3.85600 Y-3.69400
X-3.85800 Y-3.69400
X-3.85800 Y-3.69300
X-3.86100 Y-3.69300
X-3.86100 Y-3.69200
X-3.86400 Y-3.69200
X-3.86400 Y-3.69100
X-3.86800 Y-3.69100
X-3.86800 Y-3.69000
X-3.87200 Y-3.69000
X-3.87200 Y-3.68900
X-3.87600 Y-3.68900
X-3.87600 Y-3.68800
X-3.88000 Y-3.68800
X-3.88000 Y-3.68700
X-3.88400 Y-3.68700
X-3.88400 Y-3.68600
X-3.89000 Y-3.68600
X-3.89000 Y-3.68500
X-3.89700 Y-3.68500
X-3.89700 Y-3.68400
X-3.90300 Y-3.68400
X-3.90300 Y-3.68300
X-3.91100 Y-3.68300
X-3.91100 Y-3.68200
X-3.92900 Y-3.68200
X-3.92900 Y-3.68100
X-3.94400 Y-3.68100
X-3.94400 Y-3.68200
G01 Z-0.02756 F39.37008 ( plunge. )
G04 P0 ( dwell for no time -- G64 should not smooth over this point )
X-3.94400 Y-3.68200
X-3.96200 Y-3.68200
X-3.96200 Y-3.68300
X-3.97000 Y-3.68300
X-3.97000 Y-3.68400
X-3.97600 Y-3.68400
X-3.97600 Y-3.68500
X-3.98300 Y-3.68500
X-3.98300 Y-3.68600
X-3.98900 Y-3.68600
X-3.98900 Y-3.68700
X-3.99300 Y-3.68700
X-3.99300 Y-3.68800
X-3.99700 Y-3.68800
X-3.99700 Y-3.68900
X-4.00100 Y-3.68900
X-4.00100 Y-3.69000
X-4.00500 Y-3.69000
X-4.00500 Y-3.69100
X-4.00900 Y-3.69100
X-4.00900 Y-3.69200
X-4.01200 Y-3.69200
X-4.01200 Y-3.69300
X-4.01500 Y-3.69300
X-4.01500 Y-3.69400
X-4.01700 Y-3.69400
X-4.01700 Y-3.69500
X-4.02000 Y-3.69500
X-4.02000 Y-3.69600
X-4.02300 Y-3.69600
X-4.02300 Y-3.69700
X-4.02600 Y-3.69700
X-4.02600 Y-3.69800
X-4.02800 Y-3.69800
X-4.02800 Y-3.69900
X-4.03100 Y-3.69900
X-4.03100 Y-3.70000
X-4.03300 Y-3.70000
X-4.03300 Y-3.70100
X-4.03500 Y-3.70100
X-4.03500 Y-3.70200
X-4.03700 Y-3.70200
X-4.03700 Y-3.70300
X-4.03900 Y-3.70300
X-4.03900 Y-3.70400
X-4.04100 Y-3.70400
X-4.04100 Y-3.70500
X-4.04300 Y-3.70500
X-4.04300 Y-3.70600
X-4.04600 Y-3.70600
X-4.04600 Y-3.70700
X-4.04800 Y-3.70700
X-4.04800 Y-3.70800
X-4.05000 Y-3.70800
X-4.05000 Y-3.70900
X-4.05200 Y-3.70900
X-4.05200 Y-3.71000
X-4.05400 Y-3.71000
X-4.05400 Y-3.71100
X-4.05600 Y-3.71100
X-4.05600 Y-3.71200
X-4.05800 Y-3.71200
X-4.05800 Y-3.71300
X-4.06000 Y-3.71300
X-4.06000 Y-3.71400
X-4.06200 Y-3.71400
X-4.06200 Y-3.71500
X-4.06400 Y-3.71500
X-4.06400 Y-3.71600
X-4.06600 Y-3.71600
X-4.06600 Y-3.71700
X-4.06700 Y-3.71700
X-4.06700 Y-3.71800
X-4.06900 Y-3.71800
X-4.06900 Y-3.71900
X-4.07100 Y-3.71900
X-4.07100 Y-3.72000
X-4.07200 Y-3.72000
X-4.07200 Y-3.72100
X-4.07400 Y-3.72100
X-4.07400 Y-3.72200
X-4.07500 Y-3.72200
X-4.07500 Y-3.72300
X-4.07700 Y-3.72300
X-4.07700 Y-3.72400
X-4.07900 Y-3.72400
X-4.07900 Y-3.72500
X-4.08000 Y-3.72500
X-4.08000 Y-3.72600
X-4.08200 Y-3.72600
X-4.08200 Y-3.72700
X-4.08300 Y-3.72700
X-4.08300 Y-3.72800
X-4.08500 Y-3.72800
X-4.08500 Y-3.72900
X-4.08600 Y-3.72900
X-4.08600 Y-3.73000
X-4.08700 Y-3.73000
X-4.08700 Y-3.73100
X-4.08900 Y-3.73100
X-4.08900 Y-3.73200
X-4.09000 Y-3.73200
X-4.09000 Y-3.73300
X-4.09100 Y-3.73300
X-4.09100 Y-3.73400
X-4.09300 Y-3.73400
X-4.09300 Y-3.73500
X-4.09400 Y-3.73500
X-4.09400 Y-3.73600
X-4.09500 Y-3.73600
X-4.09500 Y-3.73700
X-4.09700 Y-3.73700
X-4.09700 Y-3.73800
X-4.09800 Y-3.73800
X-4.09800 Y-3.73900
X-4.09900 Y-3.73900
X-4.09900 Y-3.74000
X-4.10000 Y-3.74000
X-4.10000 Y-3.74100
X-4.10100 Y-3.74100
X-4.10100 Y-3.74200
X-4.10300 Y-3.74200
X-4.10300 Y-3.74300
X-4.10400 Y-3.74300
X-4.10400 Y-3.74400
X-4.10500 Y-3.74400
X-4.10500 Y-3.74500
X-4.10600 Y-3.74500
X-4.10600 Y-3.74600
X-4.10700 Y-3.74600
X-4.10700 Y-3.74700
X-4.10800 Y-3.74700
X-4.10800 Y-3.74800
X-4.10900 Y-3.74800
X-4.10900 Y-3.74900
X-4.11000 Y-3.74900
X-4.11000 Y-3.75000
X-4.11100 Y-3.75000
X-4.11100 Y-3.75100
X-4.11200 Y-3.75100
X-4.11200 Y-3.75200
X-4.11400 Y-3.75200
X-4.11400 Y-3.75300
X-4.11500 Y-3.75300
X-4.11500 Y-3.75400
X-4.11600 Y-3.75400
X-4.11600 Y-3.75600
X-4.11700 Y-3.75600
X-4.11700 Y-3.75700
X-4.11800 Y-3.75700
X-4.11800 Y-3.75800
X-4.11900 Y-3.75800
X-4.11900 Y-3.75900
X-4.12000 Y-3.75900
X-4.12000 Y-3.76000
X-4.12100 Y-3.76000
X-4.12100 Y-3.76100
X-4.12200 Y-3.76100
X-4.12200 Y-3.76200
X-4.12300 Y-3.76200
X-4.12300 Y-3.76300
X-4.12400 Y-3.76300
X-4.12400 Y-3.76400
X-4.12500 Y-3.76400
X-4.12500 Y-3.76500
X-4.12600 Y-3.76500
X-4.12600 Y-3.76700
X-4.12700 Y-3.76700
X-4.12700 Y-3.76800
X-4.12800 Y-3.76800
X-4.12800 Y-3.76900
X-4.12900 Y-3.76900
X-4.12900 Y-3.77000
X-4.13000 Y-3.77000
X-4.13000 Y-3.77100
X-4.13100 Y-3.77100
X-4.13100 Y-3.77200
X-4.13200 Y-3.77200
X-4.13200 Y-3.77400
X-4.13300 Y-3.77400
X-4.13300 Y-3.77500
X-4.13400 Y-3.77500
X-4.13400 Y-3.77600
X-4.13500 Y-3.77600
X-4.13500 Y-3.77700
X-4.13600 Y-3.77700
X-4.13600 Y-3.77900
X-4.13700 Y-3.77900
X-4.13700 Y-3.78000
X-4.13800 Y-3.78000
X-4.13800 Y-3.78100
X-4.13900 Y-3.78100
X-4.13900 Y-3.78300
X-4.14000 Y-3.78300
X-4.14000 Y-3.78400
X-4.14100 Y-3.78400
X-4.14100 Y-3.78500
X-4.14200 Y-3.78500
X-4.14200 Y-3.78700
X-4.14300 Y-3.78700
X-4.14300 Y-3.78800
X-4.14400 Y-3.78800
X-4.14400 Y-3.78900
X-4.14500 Y-3.78900
X-4.14500 Y-3.79100
X-4.14600 Y-3.79100
X-4.14600 Y-3.79200
X-4.14700 Y-3.79200
X-4.14700 Y-3.79300
X-4.14800 Y-3.79300
X-4.14800 Y-3.79500
X-4.14900 Y-3.79500
X-4.14900 Y-3.79600
X-4.15000 Y-3.79600
X-4.15000 Y-3.79700
X-4.15100 Y-3.79700
X-4.15100 Y-3.79900
X-4.15200 Y-3.79900
X-4.15200 Y-3.80100
X-4.15300 Y-3.80100
X-4.15300 Y-3.80200
X-4.15400 Y-3.80200
X-4.15400 Y-3.80400
X-4.15500 Y-3.80400
X-4.15500 Y-3.80600
X-4.15600 Y-3.80600
X-4.15600 Y-3.80700
X-4.15700 Y-3.80700
X-4.15700 Y-3.80900
X-4.15800 Y-3.80900
X-4.15800 Y-3.81100
X-4.15900 Y-3.81100
X-4.15900 Y-3.81200
X-4.16000 Y-3.81200
X-4.16000 Y-3.81400
X-4.16100 Y-3.81400
X-4.16100 Y-3.81500
X-4.16200 Y-3.81500
X-4.16200 Y-3.81700
X-4.16300 Y-3.81700
X-4.16300 Y-3.82000
X-4.16400 Y-3.82000
X-4.16400 Y-3.82200
X-4.16500 Y-3.82200
X-4.16500 Y-3.82400
X-4.16600 Y-3.82400
X-4.16600 Y-3.82600
X-4.16700 Y-3.82600
X-4.16700 Y-3.82800
X-4.16800 Y-3.82800
X-4.16800 Y-3.83000
X-4.16900 Y-3.83000
X-4.16900 Y-3.83200
X-4.17000 Y-3.83200
X-4.17000 Y-3.83400
X-4.17100 Y-3.83400
X-4.17100 Y-3.83600
X-4.17200 Y-3.83600
X-4.17200 Y-3.83900
X-4.17300 Y-3.83900
X-4.17300 Y-3.84200
X-4.17400 Y-3.84200
X-4.17400 Y-3.84500
X-4.17500 Y-3.84500
X-4.17500 Y-3.84700
X-4.17600 Y-3.84700
X-4.17600 Y-3.85000
X-4.17700 Y-3.85000
X-4.17700 Y-3.85300
X-4.17800 Y-3.85300
X-4.17800 Y-3.85500
X-4.17900 Y-3.85500
X-4.17900 Y-3.85900
X-4.18000 Y-3.85900
X-4.18000 Y-3.86300
X-4.18100 Y-3.86300
X-4.18100 Y-3.86700
X-4.18200 Y-3.86700
X-4.18200 Y-3.87100
X-4.18300 Y-3.87100
X-4.18300 Y-3.87500
X-4.18400 Y-3.87500
X-4.18400 Y-3.87800
X-4.18500 Y-3.87800
X-4.18500 Y-3.88300
X-4.18600 Y-3.88300
X-4.18600 Y-3.88700
X-4.18700 Y-3.88700
X-4.18700 Y-3.89200
X-4.18800 Y-3.89200
X-4.18800 Y-3.89900
X-4.18900 Y-3.89900
X-4.18900 Y-3.90500
X-4.19000 Y-3.90500
X-4.19000 Y-3.91200
X-4.19100 Y-3.91200
X-4.19100 Y-3.92900
X-4.19200 Y-3.92900
X-4.19200 Y-3.94400
X-4.19100 Y-3.94400
X-4.19100 Y-3.96100
X-4.19000 Y-3.96100
X-4.19000 Y-3.96800
X-4.18900 Y-3.96800
X-4.18900 Y-3.97400
X-4.18800 Y-3.97400
X-4.18800 Y-3.98100
X-4.18700 Y-3.98100
X-4.18700 Y-3.98600
X-4.18600 Y-3.98600
X-4.18600 Y-3.99000
X-4.18500 Y-3.99000
X-4.18500 Y-3.99500
X-4.18400 Y-3.99500
X-4.18400 Y-3.99900
X-4.18300 Y-3.99900
X-4.18300 Y-4.00200
X-4.18200 Y-4.00200
X-4.18200 Y-4.00600
X-4.18100 Y-4.00600
X-4.18100 Y-4.01000
X-4.18000 Y-4.01000
X-4.18000 Y-4.01400
X-4.17900 Y-4.01400
X-4.17900 Y-4.01800
X-4.17800 Y-4.01800
X-4.17800 Y-4.02000
X-4.17700 Y-4.02000
X-4.17700 Y-4.02300
X-4.17600 Y-4.02300
X-4.17600 Y-4.02600
X-4.17500 Y-4.02600
X-4.17500 Y-4.02900
X-4.17400 Y-4.02900
X-4.17400 Y-4.03100
X-4.17300 Y-4.03100
X-4.17300 Y-4.03400
X-4.17200 Y-4.03400
X-4.17200 Y-4.03700
X-4.17100 Y-4.03700
X-4.17100 Y-4.03900
X-4.17000 Y-4.03900
X-4.17000 Y-4.04100
X-4.16900 Y-4.04100
X-4.16900 Y-4.04300
X-4.16800 Y-4.04300
X-4.16800 Y-4.04500
X-4.16700 Y-4.04500
X-4.16700 Y-4.04700
X-4.16600 Y-4.04700
X-4.16600 Y-4.04900
X-4.16500 Y-4.04900
X-4.16500 Y-4.05200
X-4.16400 Y-4.05200
X-4.16400 Y-4.05400
X-4.16300 Y-4.05400
X-4.16300 Y-4.05600
X-4.16200 Y-4.05600
X-4.16200 Y-4.05800
X-4.16100 Y-4.05800
X-4.16100 Y-4.05900
X-4.16000 Y-4.05900
X-4.16000 Y-4.06100
X-4.15900 Y-4.06100
X-4.15900 Y-4.06300
X-4.15800 Y-4.06300
X-4.15800 Y-4.06400
X-4.15700 Y-4.06400
X-4.15700 Y-4.06600
X-4.15600 Y-4.06600
X-4.15600 Y-4.06800
X-4.15500 Y-4.06800
X-4.15500 Y-4.06900
X-4.15400 Y-4.06900
X-4.15400 Y-4.07100
X-4.15300 Y-4.07100
X-4.15300 Y-4.07200
X-4.15200 Y-4.07200
X-4.15200 Y-4.07400
X-4.15100 Y-4.07400
X-4.15100 Y-4.07600
X-4.15000 Y-4.07600
X-4.15000 Y-4.07700
X-4.14900 Y-4.07700
X-4.14900 Y-4.07800
X-4.14800 Y-4.07800
X-4.14800 Y-4.08000
X-4.14700 Y-4.08000
X-4.14700 Y-4.08100
X-4.14600 Y-4.08100
X-4.14600 Y-4.08200
X-4.14500 Y-4.08200
X-4.14500 Y-4.08400
X-4.14400 Y-4.08400
X-4.14400 Y-4.08500
X-4.14300 Y-4.08500
X-4.14300 Y-4.08700
X-4.14200 Y-4.08700
X-4.14200 Y-4.08800
X-4.14100 Y-4.08800
X-4.14100 Y-4.08900
X-4.14000 Y-4.08900
X-4.14000 Y-4.09100
X-4.13900 Y-4.09100
X-4.13900 Y-4.09200
X-4.13800 Y-4.09200
X-4.13800 Y-4.09300
X-4.13700 Y-4.09300
X-4.13700 Y-4.09400
X-4.13600 Y-4.09400
X-4.13600 Y-4.09600
X-4.13500 Y-4.09600
X-4.13500 Y-4.09700
X-4.13400 Y-4.09700
X-4.13400 Y-4.09800
X-4.13300 Y-4.09800
X-4.13300 Y-4.09900
X-4.13200 Y-4.09900
X-4.13200 Y-4.10100
X-4.13100 Y-4.10100
X-4.13100 Y-4.10200
X-4.13000 Y-4.10200
X-4.13000 Y-4.10300
X-4.12900 Y-4.10300
X-4.12900 Y-4.10400
X-4.12800 Y-4.10400
X-4.12800 Y-4.10500
X-4.12700 Y-4.10500
X-4.12700 Y-4.10700
X-4.12600 Y-4.10700
X-4.12600 Y-4.10800
X-4.12500 Y-4.10800
X-4.12500 Y-4.10900
X-4.12400 Y-4.10900
X-4.12400 Y-4.11000
X-4.12300 Y-4.11000
X-4.12300 Y-4.11100
X-4.12200 Y-4.11100
X-4.12200 Y-4.11200
X-4.12100 Y-4.11200
X-4.12100 Y-4.11300
X-4.12000 Y-4.11300
X-4.12000 Y-4.11400
X-4.11900 Y-4.11400
X-4.11900 Y-4.11500
X-4.11800 Y-4.11500
X-4.11800 Y-4.11600
X-4.11700 Y-4.11600
X-4.11700 Y-4.11800
X-4.11600 Y-4.11800
X-4.11600 Y-4.11900
X-4.11500 Y-4.11900
X-4.11500 Y-4.12000
X-4.11400 Y-4.12000
X-4.11400 Y-4.12100
X-4.11300 Y-4.12100
X-4.11300 Y-4.12200
X-4.11100 Y-4.12200
X-4.11100 Y-4.12300
X-4.11000 Y-4.12300
X-4.11000 Y-4.12400
X-4.10900 Y-4.12400
X-4.10900 Y-4.12500
X-4.10800 Y-4.12500
X-4.10800 Y-4.12600
X-4.10700 Y-4.12600
X-4.10700 Y-4.12700
X-4.10600 Y-4.12700
X-4.10600 Y-4.12800
X-4.10500 Y-4.12800
X-4.10500 Y-4.12900
X-4.10400 Y-4.12900
X-4.10400 Y-4.13000
X-4.10300 Y-4.13000
X-4.10300 Y-4.13100
X-4.10200 Y-4.13100
X-4.10200 Y-4.13200
X-4.10000 Y-4.13200
X-4.10000 Y-4.13300
X-4.09900 Y-4.13300
X-4.09900 Y-4.13400
X-4.09800 Y-4.13400
X-4.09800 Y-4.13500
X-4.09700 Y-4.13500
X-4.09700 Y-4.13600
X-4.09500 Y-4.13600
X-4.09500 Y-4.13700
X-4.09400 Y-4.13700
X-4.09400 Y-4.13800
X-4.09300 Y-4.13800
X-4.09300 Y-4.13900
X-4.09100 Y-4.13900
X-4.09100 Y-4.14000
X-4.09000 Y-4.14000
X-4.09000 Y-4.14100
X-4.08900 Y-4.14100
X-4.08900 Y-4.14200
X-4.08700 Y-4.14200
X-4.08700 Y-4.14300
X-4.08600 Y-4.14300
X-4.08600 Y-4.14400
X-4.08500 Y-4.14400
X-4.08500 Y-4.14500
X-4.08300 Y-4.14500
X-4.08300 Y-4.14600
X-4.08200 Y-4.14600
X-4.08200 Y-4.14700
X-4.08100 Y-4.14700
X-4.08100 Y-4.14800
X-4.07900 Y-4.14800
X-4.07900 Y-4.14900
X-4.07700 Y-4.14900
X-4.07700 Y-4.15000
X-4.07600 Y-4.15000
X-4.07600 Y-4.15100
X-4.07400 Y-4.15100
X-4.07400 Y-4.15200
X-4.07200 Y-4.15200
X-4.07200 Y-4.15300
X-4.07100 Y-4.15300
X-4.07100 Y-4.15400
X-4.06900 Y-4.15400
X-4.06900 Y-4.15500
X-4.06700 Y-4.15500
X-4.06700 Y-4.15600
X-4.06600 Y-4.15600
X-4.06600 Y-4.15700
X-4.06400 Y-4.15700
X-4.06400 Y-4.15800
X-4.06200 Y-4.15800
X-4.06200 Y-4.15900
X-4.06000 Y-4.15900
X-4.06000 Y-4.16000
X-4.05800 Y-4.16000
X-4.05800 Y-4.16100
X-4.05600 Y-4.16100
X-4.05600 Y-4.16200
X-4.05400 Y-4.16200
X-4.05400 Y-4.16300
X-4.05200 Y-4.16300
X-4.05200 Y-4.16400
X-4.05000 Y-4.16400
X-4.05000 Y-4.16500
X-4.04800 Y-4.16500
X-4.04800 Y-4.16600
X-4.04600 Y-4.16600
X-4.04600 Y-4.16700
X-4.04400 Y-4.16700
X-4.04400 Y-4.16800
X-4.04200 Y-4.16800
X-4.04200 Y-4.16900
X-4.04000 Y-4.16900
X-4.04000 Y-4.17000
X-4.03800 Y-4.17000
X-4.03800 Y-4.17100
X-4.03500 Y-4.17100
X-4.03500 Y-4.17200
X-4.03300 Y-4.17200
X-4.03300 Y-4.17300
X-4.03100 Y-4.17300
X-4.03100 Y-4.17400
X-4.02900 Y-4.17400
X-4.02900 Y-4.17500
X-4.02600 Y-4.17500
X-4.02600 Y-4.17600
X-4.02300 Y-4.17600
X-4.02300 Y-4.17700
X-4.02000 Y-4.17700
X-4.02000 Y-4.17800
X-4.01800 Y-4.17800
X-4.01800 Y-4.17900
X-4.01500 Y-4.17900
X-4.01500 Y-4.18000
X-4.01200 Y-4.18000
X-4.01200 Y-4.18100
X-4.00900 Y-4.18100
X-4.00900 Y-4.18200
X-4.00500 Y-4.18200
X-4.00500 Y-4.18300
X-4.00100 Y-4.18300
X-4.00100 Y-4.18400
X-3.99700 Y-4.18400
X-3.99700 Y-4.18500
X-3.99400 Y-4.18500
X-3.99400 Y-4.18600
X-3.99000 Y-4.18600
X-3.99000 Y-4.18700
X-3.98400 Y-4.18700
X-3.98400 Y-4.18800
X-3.97700 Y-4.18800
X-3.97700 Y-4.18900
X-3.97000 Y-4.18900
X-3.97000 Y-4.19000
X-3.96300 Y-4.19000
X-3.96300 Y-4.19100
X-3.94700 Y-4.19100
X-3.94700 Y-4.19200
X-3.92600 Y-4.19200
X-3.92600 Y-4.19100
X-3.91000 Y-4.19100
X-3.91000 Y-4.19000
X-3.90200 Y-4.19000
X-3.90200 Y-4.18900
X-3.89600 Y-4.18900
X-3.89600 Y-4.18800
X-3.88900 Y-4.18800
X-3.88900 Y-4.18700
X-3.88300 Y-4.18700
X-3.88300 Y-4.18600
X-3.87900 Y-4.18600
X-3.87900 Y-4.18500
X-3.87500 Y-4.18500
X-3.87500 Y-4.18400
X-3.87200 Y-4.18400
X-3.87200 Y-4.18300
X-3.86800 Y-4.18300
X-3.86800 Y-4.18200
X-3.86400 Y-4.18200
X-3.86400 Y-4.18100
X-3.86100 Y-4.18100
X-3.86100 Y-4.18000
X-3.85800 Y-4.18000
X-3.85800 Y-4.17900
X-3.85500 Y-4.17900
X-3.85500 Y-4.17800
X-3.85200 Y-4.17800
X-3.85200 Y-4.17700
X-3.85000 Y-4.17700
X-3.85000 Y-4.17600
X-3.84700 Y-4.17600
X-3.84700 Y-4.17500
X-3.84400 Y-4.17500
X-3.84400 Y-4.17400
X-3.84200 Y-4.17400
X-3.84200 Y-4.17300
X-3.83900 Y-4.17300
X-3.83900 Y-4.17200
X-3.83700 Y-4.17200
X-3.83700 Y-4.17100
X-3.83500 Y-4.17100
X-3.83500 Y-4.17000
X-3.83300 Y-4.17000
X-3.83300 Y-4.16900
X-3.83100 Y-4.16900
X-3.83100 Y-4.16800
X-3.82900 Y-4.16800
X-3.82900 Y-4.16700
X-3.82700 Y-4.16700
X-3.82700 Y-4.16600
X-3.82500 Y-4.16600
X-3.82500 Y-4.16500
X-3.82300 Y-4.16500
X-3.82300 Y-4.16400
X-3.82100 Y-4.16400
X-3.82100 Y-4.16300
X-3.81900 Y-4.16300
X-3.81900 Y-4.16200
X-3.81700 Y-4.16200
X-3.81700 Y-4.16100
X-3.81500 Y-4.16100
X-3.81500 Y-4.16000
X-3.81200 Y-4.16000
X-3.81200 Y-4.15900
X-3.81000 Y-4.15900
X-3.81000 Y-4.15800
X-3.80900 Y-4.15800
X-3.80900 Y-4.15700
X-3.80700 Y-4.15700
X-3.80700 Y-4.15600
X-3.80500 Y-4.15600
X-3.80500 Y-4.15500
X-3.80400 Y-4.15500
X-3.80400 Y-4.15400
X-3.80200 Y-4.15400
X-3.80200 Y-4.15300
X-3.80000 Y-4.15300
X-3.80000 Y-4.15200
X-3.79900 Y-4.15200
X-3.79900 Y-4.15100
X-3.79700 Y-4.15100
X-3.79700 Y-4.15000
X-3.79600 Y-4.15000
X-3.79600 Y-4.14900
X-3.79400 Y-4.14900
X-3.79400 Y-4.14800
X-3.79200 Y-4.14800
X-3.79200 Y-4.14700
X-3.79100 Y-4.14700
X-3.79100 Y-4.14600
X-3.78900 Y-4.14600
X-3.78900 Y-4.14500
X-3.78800 Y-4.14500
X-3.78800 Y-4.14400
X-3.78700 Y-4.14400
X-3.78700 Y-4.14300
X-3.78500 Y-4.14300
X-3.78500 Y-4.14200
X-3.78400 Y-4.14200
X-3.78400 Y-4.14100
X-3.78300 Y-4.14100
X-3.78300 Y-4.14000
X-3.78100 Y-4.14000
X-3.78100 Y-4.13900
X-3.78000 Y-4.13900
X-3.78000 Y-4.13800
X-3.77900 Y-4.13800
X-3.77900 Y-4.13700
X-3.77700 Y-4.13700
X-3.77700 Y-4.13600
X-3.77600 Y-4.13600
X-3.77600 Y-4.13500
X-3.77500 Y-4.13500
X-3.77500 Y-4.13400
X-3.77300 Y-4.13400
X-3.77300 Y-4.13300
X-3.77200 Y-4.13300
X-3.77200 Y-4.13200
X-3.77100 Y-4.13200
X-3.77100 Y-4.13100
X-3.77000 Y-4.13100
X-3.77000 Y-4.13000
X-3.76900 Y-4.13000
X-3.76900 Y-4.12900
X-3.76800 Y-4.12900
X-3.76800 Y-4.12800
X-3.76700 Y-4.12800
X-3.76700 Y-4.12700
X-3.76600 Y-4.12700
X-3.76600 Y-4.12600
X-3.76500 Y-4.12600
X-3.76500 Y-4.12500
X-3.76400 Y-4.12500
X-3.76400 Y-4.12400
X-3.76200 Y-4.12400
X-3.76200 Y-4.12300
X-3.76100 Y-4.12300
X-3.76100 Y-4.12200
X-3.76000 Y-4.12200
X-3.76000 Y-4.12100
X-3.75900 Y-4.12100
X-3.75900 Y-4.12000
X-3.75800 Y-4.12000
X-3.75800 Y-4.11900
X-3.75700 Y-4.11900
X-3.75700 Y-4.11800
X-3.75600 Y-4.11800
X-3.75600 Y-4.11700
X-3.75500 Y-4.11700
X-3.75500 Y-4.11600
X-3.75400 Y-4.11600
X-3.75400 Y-4.11400
X-3.75300 Y-4.11400
X-3.75300 Y-4.11300
X-3.75200 Y-4.11300
X-3.75200 Y-4.11200
X-3.75100 Y-4.11200
X-3.75100 Y-4.11100
X-3.75000 Y-4.11100
X-3.75000 Y-4.11000
X-3.74900 Y-4.11000
X-3.74900 Y-4.10900
X-3.74800 Y-4.10900
X-3.74800 Y-4.10800
X-3.74700 Y-4.10800
X-3.74700 Y-4.10700
X-3.74600 Y-4.10700
X-3.74600 Y-4.10600
X-3.74500 Y-4.10600
X-3.74500 Y-4.10500
X-3.74400 Y-4.10500
X-3.74400 Y-4.10300
X-3.74300 Y-4.10300
X-3.74300 Y-4.10200
X-3.74200 Y-4.10200
X-3.74200 Y-4.10100
X-3.74100 Y-4.10100
X-3.74100 Y-4.10000
X-3.74000 Y-4.10000
X-3.74000 Y-4.09800
X-3.73900 Y-4.09800
X-3.73900 Y-4.09700
X-3.73800 Y-4.09700
X-3.73800 Y-4.09600
X-3.73700 Y-4.09600
X-3.73700 Y-4.09500
X-3.73600 Y-4.09500
X-3.73600 Y-4.09300
X-3.73500 Y-4.09300
X-3.73500 Y-4.09200
X-3.73400 Y-4.09200
X-3.73400 Y-4.09100
X-3.73300 Y-4.09100
X-3.73300 Y-4.08900
X-3.73200 Y-4.08900
X-3.73200 Y-4.08800
X-3.73100 Y-4.08800
X-3.73100 Y-4.08700
X-3.73000 Y-4.08700
X-3.73000 Y-4.08500
X-3.72900 Y-4.08500
X-3.72900 Y-4.08400
X-3.72800 Y-4.08400
X-3.72800 Y-4.08300
X-3.72700 Y-4.08300
X-3.72700 Y-4.08100
X-3.72600 Y-4.08100
X-3.72600 Y-4.08000
X-3.72500 Y-4.08000
X-3.72500 Y-4.07900
X-3.72400 Y-4.07900
X-3.72400 Y-4.07700
X-3.72300 Y-4.07700
X-3.72300 Y-4.07600
X-3.72200 Y-4.07600
X-3.72200 Y-4.07400
X-3.72100 Y-4.07400
X-3.72100 Y-4.07300
X-3.72000 Y-4.07300
X-3.72000 Y-4.07100
X-3.71900 Y-4.07100
X-3.71900 Y-4.06900
X-3.71800 Y-4.06900
X-3.71800 Y-4.06800
X-3.71700 Y-4.06800
X-3.71700 Y-4.06600
X-3.71600 Y-4.06600
X-3.71600 Y-4.06500
X-3.71500 Y-4.06500
X-3.71500 Y-4.06300
X-3.71400 Y-4.06300
X-3.71400 Y-4.06100
X-3.71300 Y-4.06100
X-3.71300 Y-4.06000
X-3.71200 Y-4.06000
X-3.71200 Y-4.05800
X-3.71100 Y-4.05800
X-3.71100 Y-4.05600
X-3.71000 Y-4.05600
X-3.71000 Y-4.05400
X-3.70900 Y-4.05400
X-3.70900 Y-4.05200
X-3.70800 Y-4.05200
X-3.70800 Y-4.05000
X-3.70700 Y-4.05000
X-3.70700 Y-4.04800
X-3.70600 Y-4.04800
X-3.70600 Y-4.04600
X-3.70500 Y-4.04600
X-3.70500 Y-4.04400
X-3.70400 Y-4.04400
X-3.70400 Y-4.04100
X-3.70300 Y-4.04100
X-3.70300 Y-4.03900
X-3.70200 Y-4.03900
X-3.70200 Y-4.03700
X-3.70100 Y-4.03700
X-3.70100 Y-4.03500
X-3.70000 Y-4.03500
X-3.70000 Y-4.03200
X-3.69900 Y-4.03200
X-3.69900 Y-4.02900
X-3.69800 Y-4.02900
X-3.69800 Y-4.02600
X-3.69700 Y-4.02600
X-3.69700 Y-4.02400
X-3.69600 Y-4.02400
X-3.69600 Y-4.02100
X-3.69500 Y-4.02100
X-3.69500 Y-4.01800
X-3.69400 Y-4.01800
X-3.69400 Y-4.01500
X-3.69300 Y-4.01500
X-3.69300 Y-4.01100
X-3.69200 Y-4.01100
X-3.69200 Y-4.00700
X-3.69100 Y-4.00700
X-3.69100 Y-4.00300
X-3.69000 Y-4.00300
X-3.69000 Y-3.99900
X-3.68900 Y-3.99900
X-3.68900 Y-3.99500
X-3.68800 Y-3.99500
X-3.68800 Y-3.99100
X-3.68700 Y-3.99100
X-3.68700 Y-3.98700
X-3.68600 Y-3.98700
X-3.68600 Y-3.98200
X-3.68500 Y-3.98200
X-3.68500 Y-3.97500
X-3.68400 Y-3.97500
X-3.68400 Y-3.96900
X-3.68300 Y-3.96900
X-3.68300 Y-3.96200
X-3.68200 Y-3.96200
X-3.68200 Y-3.94700
X-3.68100 Y-3.94700
X-3.68100 Y-3.92600
X-3.68200 Y-3.92600
X-3.68200 Y-3.91100
X-3.68300 Y-3.91100
X-3.68300 Y-3.90400
X-3.68400 Y-3.90400
X-3.68400 Y-3.89800
X-3.68500 Y-3.89800
X-3.68500 Y-3.89100
X-3.68600 Y-3.89100
X-3.68600 Y-3.88700
X-3.68700 Y-3.88700
X-3.68700 Y-3.88200
X-3.68800 Y-3.88200
X-3.68800 Y-3.87800
X-3.68900 Y-3.87800
X-3.68900 Y-3.87400
X-3.69000 Y-3.87400
X-3.69000 Y-3.87000
X-3.69100 Y-3.87000
X-3.69100 Y-3.86600
X-3.69200 Y-3.86600
X-3.69200 Y-3.86200
X-3.69300 Y-3.86200
X-3.69300 Y-3.85800
X-3.69400 Y-3.85800
X-3.69400 Y-3.85500
X-3.69500 Y-3.85500
X-3.69500 Y-3.85200
X-3.69600 Y-3.85200
X-3.69600 Y-3.85000
X-3.69700 Y-3.85000
X-3.69700 Y-3.84700
X-3.69800 Y-3.84700
X-3.69800 Y-3.84400
X-3.69900 Y-3.84400
X-3.69900 Y-3.84100
X-3.70000 Y-3.84100
X-3.70000 Y-3.83900
X-3.70100 Y-3.83900
X-3.70100 Y-3.83600
X-3.70200 Y-3.83600
X-3.70200 Y-3.83400
X-3.70300 Y-3.83400
X-3.70300 Y-3.83200
X-3.70400 Y-3.83200
X-3.70400 Y-3.83000
X-3.70500 Y-3.83000
X-3.70500 Y-3.82700
X-3.70600 Y-3.82700
X-3.70600 Y-3.82500
X-3.70700 Y-3.82500
X-3.70700 Y-3.82300
X-3.70800 Y-3.82300
X-3.70800 Y-3.82100
X-3.70900 Y-3.82100
X-3.70900 Y-3.81900
X-3.71000 Y-3.81900
X-3.71000 Y-3.81700
X-3.71100 Y-3.81700
X-3.71100 Y-3.81500
X-3.71200 Y-3.81500
X-3.71200 Y-3.81400
X-3.71300 Y-3.81400
X-3.71300 Y-3.81200
X-3.71400 Y-3.81200
X-3.71400 Y-3.81000
X-3.71500 Y-3.81000
X-3.71500 Y-3.80900
X-3.71600 Y-3.80900
X-3.71600 Y-3.80700
X-3.71700 Y-3.80700
X-3.71700 Y-3.80500
X-3.71800 Y-3.80500
X-3.71800 Y-3.80400
X-3.71900 Y-3.80400
X-3.71900 Y-3.80200
X-3.72000 Y-3.80200
X-3.72000 Y-3.80000
X-3.72100 Y-3.80000
X-3.72100 Y-3.79900
X-3.72200 Y-3.79900
X-3.72200 Y-3.79700
X-3.72300 Y-3.79700
X-3.72300 Y-3.79600
X-3.72400 Y-3.79600
X-3.72400 Y-3.79400
X-3.72500 Y-3.79400
X-3.72500 Y-3.79300
X-3.72600 Y-3.79300
X-3.72600 Y-3.79200
X-3.72700 Y-3.79200
X-3.72700 Y-3.79000
X-3.72800 Y-3.79000
X-3.72800 Y-3.78900
X-3.72900 Y-3.78900
X-3.72900 Y-3.78800
X-3.73000 Y-3.78800
X-3.73000 Y-3.78600
X-3.73100 Y-3.78600
X-3.73100 Y-3.78500
X-3.73200 Y-3.78500
X-3.73200 Y-3.78400
X-3.73300 Y-3.78400
X-3.73300 Y-3.78200
X-3.73400 Y-3.78200
X-3.73400 Y-3.78100
X-3.73500 Y-3.78100
X-3.73500 Y-3.78000
X-3.73600 Y-3.78000
X-3.73600 Y-3.77800
X-3.73700 Y-3.77800
X-3.73700 Y-3.77700
X-3.73800 Y-3.77700
X-3.73800 Y-3.77600
X-3.73900 Y-3.77600
X-3.73900 Y-3.77500
X-3.74000 Y-3.77500
X-3.74000 Y-3.77300
X-3.74100 Y-3.77300
X-3.74100 Y-3.77200
X-3.74200 Y-3.77200
X-3.74200 Y-3.77100
X-3.74300 Y-3.77100
X-3.74300 Y-3.77000
X-3.74400 Y-3.77000
X-3.74400 Y-3.76900
X-3.74500 Y-3.76900
X-3.74500 Y-3.76700
X-3.74600 Y-3.76700
X-3.74600 Y-3.76600
X-3.74700 Y-3.76600
X-3.74700 Y-3.76500
X-3.74800 Y-3.76500
X-3.74800 Y-3.76400
X-3.74900 Y-3.76400
X-3.74900 Y-3.76300
X-3.75000 Y-3.76300
X-3.75000 Y-3.76200
X-3.75100 Y-3.76200
X-3.75100 Y-3.76100
X-3.75200 Y-3.76100
X-3.75200 Y-3.76000
X-3.75300 Y-3.76000
X-3.75300 Y-3.75900
X-3.75400 Y-3.75900
X-3.75400 Y-3.75800
X-3.75500 Y-3.75800
X-3.75500 Y-3.75600
X-3.75600 Y-3.75600
X-3.75600 Y-3.75500
X-3.75700 Y-3.75500
X-3.75700 Y-3.75400
X-3.75800 Y-3.75400
X-3.75800 Y-3.75300
X-3.75900 Y-3.75300
X-3.75900 Y-3.75200
X-3.76000 Y-3.75200
X-3.76000 Y-3.75100
X-3.76200 Y-3.75100
X-3.76200 Y-3.75000
X-3.76300 Y-3.75000
X-3.76300 Y-3.74900
X-3.76400 Y-3.74900
X-3.76400 Y-3.74800
X-3.76500 Y-3.74800
X-3.76500 Y-3.74700
X-3.76600 Y-3.74700
X-3.76600 Y-3.74600
X-3.76700 Y-3.74600
X-3.76700 Y-3.74500
X-3.76800 Y-3.74500
X-3.76800 Y-3.74400
X-3.76900 Y-3.74400
X-3.76900 Y-3.74300
X-3.77000 Y-3.74300
X-3.77000 Y-3.74200
X-3.77100 Y-3.74200
X-3.77100 Y-3.74100
X-3.77300 Y-3.74100
X-3.77300 Y-3.74000
X-3.77400 Y-3.74000
X-3.77400 Y-3.73900
X-3.77500 Y-3.73900
X-3.77500 Y-3.73800
X-3.77600 Y-3.73800
X-3.77600 Y-3.73700
X-3.77800 Y-3.73700
X-3.77800 Y-3.73600
X-3.77900 Y-3.73600
X-3.77900 Y-3.73500
X-3.78000 Y-3.73500
X-3.78000 Y-3.73400
X-3.78200 Y-3.73400
X-3.78200 Y-3.73300
X-3.78300 Y-3.73300
X-3.78300 Y-3.73200
X-3.78400 Y-3.73200
X-3.78400 Y-3.73100
X-3.78600 Y-3.73100
X-3.78600 Y-3.73000
X-3.78700 Y-3.73000
X-3.78700 Y-3.72900
X-3.78800 Y-3.72900
X-3.78800 Y-3.72800
X-3.79000 Y-3.72800
X-3.79000 Y-3.72700
X-3.79100 Y-3.72700
X-3.79100 Y-3.72600
X-3.79200 Y-3.72600
X-3.79200 Y-3.72500
X-3.79400 Y-3.72500
X-3.79400 Y-3.72400
X-3.79600 Y-3.72400
X-3.79600 Y-3.72300
X-3.79700 Y-3.72300
X-3.79700 Y-3.72200
X-3.79900 Y-3.72200
X-3.79900 Y-3.72100
X-3.80100 Y-3.72100
X-3.80100 Y-3.72000
X-3.80200 Y-3.72000
X-3.80200 Y-3.71900
X-3.80400 Y-3.71900
X-3.80400 Y-3.71800
X-3.80600 Y-3.71800
X-3.80600 Y-3.71700
X-3.80700 Y-3.71700
X-3.80700 Y-3.71600
X-3.80900 Y-3.71600
X-3.80900 Y-3.71500
X-3.81100 Y-3.71500
X-3.81100 Y-3.71400
X-3.81300 Y-3.71400
X-3.81300 Y-3.71300
X-3.81500 Y-3.71300
X-3.81500 Y-3.71200
X-3.81700 Y-3.71200
X-3.81700 Y-3.71100
X-3.81900 Y-3.71100
X-3.81900 Y-3.71000
X-3.82100 Y-3.71000
X-3.82100 Y-3.70900
X-3.82300 Y-3.70900
X-3.82300 Y-3.70800
X-3.82500 Y-3.70800
X-3.82500 Y-3.70700
X-3.82700 Y-3.70700
X-3.82700 Y-3.70600
X-3.82900 Y-3.70600
X-3.82900 Y-3.70500
X-3.83100 Y-3.70500
X-3.83100 Y-3.70400
X-3.83400 Y-3.70400
X-3.83400 Y-3.70300
X-3.83600 Y-3.70300
X-3.83600 Y-3.70200
X-3.83800 Y-3.70200
X-3.83800 Y-3.70100
X-3.84000 Y-3.70100
X-3.84000 Y-3.70000
X-3.84200 Y-3.70000
X-3.84200 Y-3.69900
X-3.84500 Y-3.69900
X-3.84500 Y-3.69800
X-3.84700 Y-3.69800
X-3.84700 Y-3.69700
X-3.85000 Y-3.69700
X-3.85000 Y-3.69600
X-3.85300 Y-3.69600
X-3.85300 Y-3.69500
X-3.85600 Y-3.69500
X-3.85600 Y-3.69400
X-3.85800 Y-3.69400
X-3.85800 Y-3.69300
X-3.86100 Y-3.69300
X-3.86100 Y-3.69200
X-3.86400 Y-3.69200
X-3.86400 Y-3.69100
X-3.86800 Y-3.69100
X-3.86800 Y-3.69000
X-3.87200 Y-3.69000
X-3.87200 Y-3.68900
X-3.87600 Y-3.68900
X-3.87600 Y-3.68800
X-3.88000 Y-3.68800
X-3.88000 Y-3.68700
X-3.88400 Y-3.68700
X-3.88400 Y-3.68600
X-3.89000 Y-3.68600
X-3.89000 Y-3.68500
X-3.89700 Y-3.68500
X-3.89700 Y-3.68400
X-3.90300 Y-3.68400
X-3.90300 Y-3.68300
X-3.91100 Y-3.68300
X-3.91100 Y-3.68200
X-3.92900 Y-3.68200
X-3.92900 Y-3.68100
X-3.94400 Y-3.68100
X-3.94400 Y-3.68200
G01 Z-0.03543 F39.37008 ( plunge. )
G04 P0 ( dwell for no time -- G64 should not smooth over this point )
X-3.94400 Y-3.68200
X-3.96200 Y-3.68200
X-3.96200 Y-3.68300
X-3.97000 Y-3.68300
X-3.97000 Y-3.68400
X-3.97600 Y-3.68400
X-3.97600 Y-3.68500
X-3.98300 Y-3.68500
X-3.98300 Y-3.68600
X-3.98900 Y-3.68600
X-3.98900 Y-3.68700
X-3.99300 Y-3.68700
X-3.99300 Y-3.68800
X-3.99700 Y-3.68800
X-3.99700 Y-3.68900
X-4.00100 Y-3.68900
X-4.00100 Y-3.69000
X-4.00500 Y-3.69000
X-4.00500 Y-3.69100
X-4.00900 Y-3.69100
X-4.00900 Y-3.69200
X-4.01200 Y-3.69200
X-4.01200 Y-3.69300
X-4.01500 Y-3.69300
X-4.01500 Y-3.69400
X-4.01700 Y-3.69400
X-4.01700 Y-3.69500
X-4.02000 Y-3.69500
X-4.02000 Y-3.69600
X-4.02300 Y-3.69600
X-4.02300 Y-3.69700
X-4.02600 Y-3.69700
X-4.02600 Y-3.69800
X-4.02800 Y-3.69800
X-4.02800 Y-3.69900
X-4.03100 Y-3.69900
X-4.03100 Y-3.70000
X-4.03300 Y-3.70000
X-4.03300 Y-3.70100
X-4.03500 Y-3.70100
X-4.03500 Y-3.70200
X-4.03700 Y-3.70200
X-4.03700 Y-3.70300
X-4.03900 Y-3.70300
X-4.03900 Y-3.70400
X-4.04100 Y-3.70400
X-4.04100 Y-3.70500
X-4.04300 Y-3.70500
X-4.04300 Y-3.70600
X-4.04600 Y-3.70600
X-4.04600 Y-3.70700
X-4.04800 Y-3.70700
X-4.04800 Y-3.70800
X-4.05000 Y-3.70800
X-4.05000 Y-3.70900
X-4.05200 Y-3.70900
X-4.05200 Y-3.71000
X-4.05400 Y-3.71000
X-4.05400 Y-3.71100
X-4.05600 Y-3.71100
X-4.05600 Y-3.71200
X-4.05800 Y-3.71200
X-4.05800 Y-3.71300
X-4.06000 Y-3.71300
X-4.06000 Y-3.71400
X-4.06200 Y-3.71400
X-4.06200 Y-3.71500
X-4.06400 Y-3.71500
X-4.06400 Y-3.71600
X-4.06600 Y-3.71600
X-4.06600 Y-3.71700
X-4.06700 Y-3.71700
X-4.06700 Y-3.71800
X-4.06900 Y-3.71800
X-4.06900 Y-3.71900
X-4.07100 Y-3.71900
X-4.07100 Y-3.72000
X-4.07200 Y-3.72000
X-4.07200 Y-3.72100
X-4.07400 Y-3.72100
X-4.07400 Y-3.72200
X-4.07500 Y-3.72200
X-4.07500 Y-3.72300
X-4.07700 Y-3.72300
X-4.07700 Y-3.72400
X-4.07900 Y-3.72400
X-4.07900 Y-3.72500
X-4.08000 Y-3.72500
X-4.08000 Y-3.72600
X-4.08200 Y-3.72600
X-4.08200 Y-3.72700
X-4.08300 Y-3.72700
X-4.08300 Y-3.72800
X-4.08500 Y-3.72800
X-4.08500 Y-3.72900
X-4.08600 Y-3.72900
X-4.08600 Y-3.73000
X-4.08700 Y-3.73000
X-4.08700 Y-3.73100
X-4.08900 Y-3.73100
X-4.08900 Y-3.73200
X-4.09000 Y-3.73200
X-4.09000 Y-3.73300
X-4.09100 Y-3.73300
X-4.09100 Y-3.73400
X-4.09300 Y-3.73400
X-4.09300 Y-3.73500
X-4.09400 Y-3.73500
X-4.09400 Y-3.73600
X-4.09500 Y-3.73600
X-4.09500 Y-3.73700
X-4.09700 Y-3.73700
X-4.09700 Y-3.73800
X-4.09800 Y-3.73800
X-4.09800 Y-3.73900
X-4.09900 Y-3.73900
X-4.09900 Y-3.74000
X-4.10000 Y-3.74000
X-4.10000 Y-3.74100
X-4.10100 Y-3.74100
X-4.10100 Y-3.74200
X-4.10300 Y-3.74200
X-4.10300 Y-3.74300
X-4.10400 Y-3.74300
X-4.10400 Y-3.74400
X-4.10500 Y-3.74400
X-4.10500 Y-3.74500
X-4.10600 Y-3.74500
X-4.10600 Y-3.74600
X-4.10700 Y-3.74600
X-4.10700 Y-3.74700
X-4.10800 Y-3.74700
X-4.10800 Y-3.74800
X-4.10900 Y-3.74800
X-4.10900 Y-3.74900
X-4.11000 Y-3.74900
X-4.11000 Y-3.75000
X-4.11100 Y-3.75000
X-4.11100 Y-3.75100
X-4.11200 Y-3.75100
X-4.11200 Y-3.75200
X-4.11400 Y-3.75200
X-4.11400 Y-3.75300
X-4.11500 Y-3.75300
X-4.11500 Y-3.75400
X-4.11600 Y-3.75400
X-4.11600 Y-3.75600
X-4.11700 Y-3.75600
X-4.11700 Y-3.75700
X-4.11800 Y-3.75700
X-4.11800 Y-3.75800
X-4.11900 Y-3.75800
X-4.11900 Y-3.75900
X-4.12000 Y-3.75900
X-4.12000 Y-3.76000
X-4.12100 Y-3.76000
X-4.12100 Y-3.76100
X-4.12200 Y-3.76100
X-4.12200 Y-3.76200
X-4.12300 Y-3.76200
X-4.12300 Y-3.76300
X-4.12400 Y-3.76300
X-4.12400 Y-3.76400
