( pcb2gcode 1.1.4 )

G94     ( Inches per minute feed rate. )
G20     ( Units == INCHES.             )
G90     ( Absolute coordinates.        )
S30000  ( RPM spindle speed.           )
M3      ( Spindle on clockwise.        )

G64 P0.00417 ( set maximum deviation from commanded toolpath )

G04 P0 ( dwell for no time -- G64 should not smooth over this point )
G00 Z0.19685 ( retract )

G00 X-5.90583 Y-5.11537 ( rapid move to begin. )
G01 Z-0.01181 F39.37008 ( plunge. )
G04 P0 ( dwell for no time -- G64 should not smooth over this point )
X-5.90583 Y-5.11537
X-5.90667 Y-5.11537
X-5.90667 Y-5.11620
X-5.90750 Y-5.11620
X-5.90750 Y-5.11787
X-5.90667 Y-5.11787
X-5.90667 Y-5.11870
X-5.90583 Y-5.11870
X-5.90583 Y-5.11953
X0.00083 Y-5.11953
X0.00083 Y-5.11870
X0.00167 Y-5.11870
X0.00167 Y-5.11787
X0.00250 Y-5.11787
X0.00250 Y-5.11620
X0.00167 Y-5.11620
X0.00167 Y-5.11537
X0.00083 Y-5.11537
X0.00083 Y-5.11453
X-5.90583 Y-5.11453
X-5.90583 Y-5.11537
G01 Z-0.03150 F39.37008 ( plunge. )
G04 P0 ( dwell for no time -- G64 should not smooth over this point )
X-5.90583 Y-5.11537
X-5.90667 Y-5.11537
X-5.90667 Y-5.11620
X-5.90750 Y-5.11620
X-5.90750 Y-5.11787
X-5.90667 Y-5.11787
X-5.90667 Y-5.11870
X-5.90583 Y-5.11870
X-5.90583 Y-5.11953
X0.00083 Y-5.11953
X0.00083 Y-5.11870
X0.00167 Y-5.11870
X0.00167 Y-5.11787
X0.00250 Y-5.11787
X0.00250 Y-5.11620
X0.00167 Y-5.11620
X0.00167 Y-5.11537
X0.00083 Y-5.11537
X0.00083 Y-5.11453
X-5.90583 Y-5.11453
X-5.90583 Y-5.11537
G01 Z-0.05118 F39.37008 ( plunge. )
G04 P0 ( dwell for no time -- G64 should not smooth over this point )
X-5.90583 Y-5.11537
X-5.90667 Y-5.11537
X-5.90667 Y-5.11620
X-5.90750 Y-5.11620
X-5.90750 Y-5.11787
X-5.90667 Y-5.11787
X-5.90667 Y-5.11870
X-5.90583 Y-5.11870
X-5.90583 Y-5.11953
X0.00083 Y-5.11953
X0.00083 Y-5.11870
X0.00167 Y-5.11870
X0.00167 Y-5.11787
X0.00250 Y-5.11787
X0.00250 Y-5.11620
X0.00167 Y-5.11620
X0.00167 Y-5.11537
X0.00083 Y-5.11537
X0.00083 Y-5.11453
X-5.90583 Y-5.11453
X-5.90583 Y-5.11537
G01 Z-0.07087 F39.37008 ( plunge. )
G04 P0 ( dwell for no time -- G64 should not smooth over this point )
X-5.90583 Y-5.11537
X-5.90667 Y-5.11537
X-5.90667 Y-5.11620
X-5.90750 Y-5.11620
X-5.90750 Y-5.11787
X-5.90667 Y-5.11787
X-5.90667 Y-5.11870
X-5.90583 Y-5.11870
X-5.90583 Y-5.11953
X0.00083 Y-5.11953
X0.00083 Y-5.11870
X0.00167 Y-5.11870
X0.00167 Y-5.11787
X0.00250 Y-5.11787
X0.00250 Y-5.11620
X0.00167 Y-5.11620
X0.00167 Y-5.11537
X0.00083 Y-5.11537
X0.00083 Y-5.11453
X-5.90583 Y-5.11453
X-5.90583 Y-5.11537
G01 Z-0.09055 F39.37008 ( plunge. )
G04 P0 ( dwell for no time -- G64 should not smooth over this point )
X-5.90583 Y-5.11537
X-5.90667 Y-5.11537
X-5.90667 Y-5.11620
X-5.90750 Y-5.11620
X-5.90750 Y-5.11787
X-5.90667 Y-5.11787
X-5.90667 Y-5.11870
X-5.90583 Y-5.11870
X-5.90583 Y-5.11953
X0.00083 Y-5.11953
X0.00083 Y-5.11870
X0.00167 Y-5.11870
X0.00167 Y-5.11787
X0.00250 Y-5.11787
X0.00250 Y-5.11620
X0.00167 Y-5.11620
X0.00167 Y-5.11537
X0.00083 Y-5.11537
X0.00083 Y-5.11453
X-5.90583 Y-5.11453
X-5.90583 Y-5.11537

G04 P0 ( dwell for no time -- G64 should not smooth over this point )
G00 Z0.98425 ( retract )

M9 ( Coolant off. )
M2 ( Program end. )

