( pcb2gcode 1.1.4 )

G94     ( Inches per minute feed rate. )
G20     ( Units == INCHES.             )
G90     ( Absolute coordinates.        )
S10000  ( RPM spindle speed.           )
M3      ( Spindle on clockwise.        )

G64 P0.00500 ( set maximum deviation from commanded toolpath )

G04 P0 ( dwell for no time -- G64 should not smooth over this point )
G00 Z0.19685 ( retract )

G00 X-4.73900 Y-3.93500 ( rapid move to begin. )
G01 Z0.00000 F39.37008 ( plunge. )
G04 P0 ( dwell for no time -- G64 should not smooth over this point )
X-4.73900 Y-3.93500
X-4.73900 Y-4.57200
X-4.73800 Y-4.57200
X-4.73800 Y-4.57300
X-3.92000 Y-4.57300
X-3.92000 Y-4.57200
X-3.91900 Y-4.57200
X-3.91900 Y-3.92200
X-3.92000 Y-3.92200
X-3.92000 Y-3.92100
X-3.92100 Y-3.92100
X-3.92100 Y-3.92000
X-4.73800 Y-3.92000
X-4.73800 Y-3.92100
X-4.73900 Y-3.92100
X-4.73900 Y-3.93500
G01 Z-0.00394 F39.37008 ( plunge. )
G04 P0 ( dwell for no time -- G64 should not smooth over this point )
X-4.73900 Y-3.93500
X-4.73900 Y-4.57200
X-4.73800 Y-4.57200
X-4.73800 Y-4.57300
X-3.92000 Y-4.57300
X-3.92000 Y-4.57200
X-3.91900 Y-4.57200
X-3.91900 Y-3.92200
X-3.92000 Y-3.92200
X-3.92000 Y-3.92100
X-3.92100 Y-3.92100
X-3.92100 Y-3.92000
X-4.73800 Y-3.92000
X-4.73800 Y-3.92100
X-4.73900 Y-3.92100
X-4.73900 Y-3.93500
G01 Z-0.00787 F39.37008 ( plunge. )
G04 P0 ( dwell for no time -- G64 should not smooth over this point )
X-4.73900 Y-3.93500
X-4.73900 Y-4.57200
X-4.73800 Y-4.57200
X-4.73800 Y-4.57300
X-3.92000 Y-4.57300
X-3.92000 Y-4.57200
X-3.91900 Y-4.57200
X-3.91900 Y-3.92200
X-3.92000 Y-3.92200
X-3.92000 Y-3.92100
X-3.92100 Y-3.92100
X-3.92100 Y-3.92000
X-4.73800 Y-3.92000
X-4.73800 Y-3.92100
X-4.73900 Y-3.92100
X-4.73900 Y-3.93500
G01 Z-0.01181 F39.37008 ( plunge. )
G04 P0 ( dwell for no time -- G64 should not smooth over this point )
X-4.73900 Y-3.93500
X-4.73900 Y-4.57200
X-4.73800 Y-4.57200
X-4.73800 Y-4.57300
X-3.92000 Y-4.57300
X-3.92000 Y-4.57200
X-3.91900 Y-4.57200
X-3.91900 Y-3.92200
X-3.92000 Y-3.92200
X-3.92000 Y-3.92100
X-3.92100 Y-3.92100
X-3.92100 Y-3.92000
X-4.73800 Y-3.92000
X-4.73800 Y-3.92100
X-4.73900 Y-3.92100
X-4.73900 Y-3.93500
G01 Z-0.01575 F39.37008 ( plunge. )
G04 P0 ( dwell for no time -- G64 should not smooth over this point )
X-4.73900 Y-3.93500
X-4.73900 Y-4.57200
X-4.73800 Y-4.57200
X-4.73800 Y-4.57300
X-3.92000 Y-4.57300
X-3.92000 Y-4.57200
X-3.91900 Y-4.57200
X-3.91900 Y-3.92200
X-3.92000 Y-3.92200
X-3.92000 Y-3.92100
X-3.92100 Y-3.92100
X-3.92100 Y-3.92000
X-4.73800 Y-3.92000
X-4.73800 Y-3.92100
X-4.73900 Y-3.92100
X-4.73900 Y-3.93500
G01 Z-0.01969 F39.37008 ( plunge. )
G04 P0 ( dwell for no time -- G64 should not smooth over this point )
X-4.73900 Y-3.93500
X-4.73900 Y-4.57200
X-4.73800 Y-4.57200
X-4.73800 Y-4.57300
X-3.92000 Y-4.57300
X-3.92000 Y-4.57200
X-3.91900 Y-4.57200
X-3.91900 Y-3.92200
X-3.92000 Y-3.92200
X-3.92000 Y-3.92100
X-3.92100 Y-3.92100
X-3.92100 Y-3.92000
X-4.73800 Y-3.92000
X-4.73800 Y-3.92100
X-4.73900 Y-3.92100
X-4.73900 Y-3.93500
G01 Z-0.02362 F39.37008 ( plunge. )
G04 P0 ( dwell for no time -- G64 should not smooth over this point )
X-4.73900 Y-3.93500
X-4.73900 Y-4.57200
X-4.73800 Y-4.57200
X-4.73800 Y-4.57300
X-3.92000 Y-4.57300
X-3.92000 Y-4.57200
X-3.91900 Y-4.57200
X-3.91900 Y-3.92200
X-3.92000 Y-3.92200
X-3.92000 Y-3.92100
X-3.92100 Y-3.92100
X-3.92100 Y-3.92000
X-4.73800 Y-3.92000
X-4.73800 Y-3.92100
X-4.73900 Y-3.92100
X-4.73900 Y-3.93500
G01 Z-0.02756 F39.37008 ( plunge. )
G04 P0 ( dwell for no time -- G64 should not smooth over this point )
X-4.73900 Y-3.93500
X-4.73900 Y-4.57200
X-4.73800 Y-4.57200
X-4.73800 Y-4.57300
X-3.92000 Y-4.57300
X-3.92000 Y-4.57200
X-3.91900 Y-4.57200
X-3.91900 Y-3.92200
X-3.92000 Y-3.92200
X-3.92000 Y-3.92100
X-3.92100 Y-3.92100
X-3.92100 Y-3.92000
X-4.73800 Y-3.92000
X-4.73800 Y-3.92100
X-4.73900 Y-3.92100
X-4.73900 Y-3.93500
G01 Z-0.03150 F39.37008 ( plunge. )
G04 P0 ( dwell for no time -- G64 should not smooth over this point )
X-4.73900 Y-3.93500
X-4.73900 Y-4.57200
X-4.73800 Y-4.57200
X-4.73800 Y-4.57300
X-3.92000 Y-4.57300
X-3.92000 Y-4.57200
X-3.91900 Y-4.57200
X-3.91900 Y-3.92200
X-3.92000 Y-3.92200
X-3.92000 Y-3.92100
X-3.92100 Y-3.92100
X-3.92100 Y-3.92000
X-4.73800 Y-3.92000
X-4.73800 Y-3.92100
X-4.73900 Y-3.92100
X-4.73900 Y-3.93500
G01 Z-0.03543 F39.37008 ( plunge. )
G04 P0 ( dwell for no time -- G64 should not smooth over this point )
X-4.73900 Y-3.93500
X-4.73900 Y-4.57200
X-4.73800 Y-4.57200
X-4.73800 Y-4.57300
X-3.92000 Y-4.57300
X-3.92000 Y-4.57200
X-3.91900 Y-4.57200
X-3.91900 Y-3.92200
X-3.92000 Y-3.92200
X-3.92000 Y-3.92100
X-3.92100 Y-3.92100
X-3.92100 Y-3.92000
X-4.73800 Y-3.92000
X-4.73800 Y-3.92100
X-4.73900 Y-3.92100
X-4.73900 Y-3.93500
G01 Z-0.03937 F39.37008 ( plunge. )
G04 P0 ( dwell for no time -- G64 should not smooth over this point )
X-4.73900 Y-3.93500
X-4.73900 Y-4.57200
X-4.73800 Y-4.57200
X-4.73800 Y-4.57300
X-3.92000 Y-4.57300
X-3.92000 Y-4.57200
X-3.91900 Y-4.57200
X-3.91900 Y-3.92200
X-3.92000 Y-3.92200
X-3.92000 Y-3.92100
X-3.92100 Y-3.92100
X-3.92100 Y-3.92000
X-4.73800 Y-3.92000
X-4.73800 Y-3.92100
X-4.73900 Y-3.92100
X-4.73900 Y-3.93500
G01 Z-0.04331 F39.37008 ( plunge. )
G04 P0 ( dwell for no time -- G64 should not smooth over this point )
X-4.73900 Y-3.93500
X-4.73900 Y-4.57200
X-4.73800 Y-4.57200
X-4.73800 Y-4.57300
X-3.92000 Y-4.57300
X-3.92000 Y-4.57200
X-3.91900 Y-4.57200
X-3.91900 Y-3.92200
X-3.92000 Y-3.92200
X-3.92000 Y-3.92100
X-3.92100 Y-3.92100
X-3.92100 Y-3.92000
X-4.73800 Y-3.92000
X-4.73800 Y-3.92100
X-4.73900 Y-3.92100
X-4.73900 Y-3.93500
G01 Z-0.04724 F39.37008 ( plunge. )
G04 P0 ( dwell for no time -- G64 should not smooth over this point )
X-4.73900 Y-3.93500
X-4.73900 Y-4.57200
X-4.73800 Y-4.57200
X-4.73800 Y-4.57300
X-3.92000 Y-4.57300
X-3.92000 Y-4.57200
X-3.91900 Y-4.57200
X-3.91900 Y-3.92200
X-3.92000 Y-3.92200
X-3.92000 Y-3.92100
X-3.92100 Y-3.92100
X-3.92100 Y-3.92000
X-4.73800 Y-3.92000
X-4.73800 Y-3.92100
X-4.73900 Y-3.92100
X-4.73900 Y-3.93500
G01 Z-0.05118 F39.37008 ( plunge. )
G04 P0 ( dwell for no time -- G64 should not smooth over this point )
X-4.73900 Y-3.93500
X-4.73900 Y-4.57200
X-4.73800 Y-4.57200
X-4.73800 Y-4.57300
X-3.92000 Y-4.57300
X-3.92000 Y-4.57200
X-3.91900 Y-4.57200
X-3.91900 Y-3.92200
X-3.92000 Y-3.92200
X-3.92000 Y-3.92100
X-3.92100 Y-3.92100
X-3.92100 Y-3.92000
X-4.73800 Y-3.92000
X-4.73800 Y-3.92100
X-4.73900 Y-3.92100
X-4.73900 Y-3.93500
G01 Z-0.05512 F39.37008 ( plunge. )
G04 P0 ( dwell for no time -- G64 should not smooth over this point )
X-4.73900 Y-3.93500
X-4.73900 Y-4.57200
X-4.73800 Y-4.57200
X-4.73800 Y-4.57300
X-3.92000 Y-4.57300
X-3.92000 Y-4.57200
X-3.91900 Y-4.57200
X-3.91900 Y-3.92200
X-3.92000 Y-3.92200
X-3.92000 Y-3.92100
X-3.92100 Y-3.92100
X-3.92100 Y-3.92000
X-4.73800 Y-3.92000
X-4.73800 Y-3.92100
X-4.73900 Y-3.92100
X-4.73900 Y-3.93500
G01 Z-0.05906 F39.37008 ( plunge. )
G04 P0 ( dwell for no time -- G64 should not smooth over this point )
X-4.73900 Y-3.93500
X-4.73900 Y-4.57200
X-4.73800 Y-4.57200
X-4.73800 Y-4.57300
X-3.92000 Y-4.57300
X-3.92000 Y-4.57200
X-3.91900 Y-4.57200
X-3.91900 Y-3.92200
X-3.92000 Y-3.92200
X-3.92000 Y-3.92100
X-3.92100 Y-3.92100
X-3.92100 Y-3.92000
X-4.73800 Y-3.92000
X-4.73800 Y-3.92100
X-4.73900 Y-3.92100
X-4.73900 Y-3.93500
G01 Z-0.06299 F39.37008 ( plunge. )
G04 P0 ( dwell for no time -- G64 should not smooth over this point )
X-4.73900 Y-3.93500
X-4.73900 Y-4.57200
X-4.73800 Y-4.57200
X-4.73800 Y-4.57300
X-3.92000 Y-4.57300
X-3.92000 Y-4.57200
X-3.91900 Y-4.57200
X-3.91900 Y-3.92200
X-3.92000 Y-3.92200
X-3.92000 Y-3.92100
X-3.92100 Y-3.92100
X-3.92100 Y-3.92000
X-4.73800 Y-3.92000
X-4.73800 Y-3.92100
X-4.73900 Y-3.92100
X-4.73900 Y-3.93500
G04 P0 ( dwell for no time -- G64 should not smooth over this point )
G00 Z0.19685 ( retract )

G00 X-3.85800 Y-4.02900 ( rapid move to begin. )
G01 Z0.00000 F39.37008 ( plunge. )
G04 P0 ( dwell for no time -- G64 should not smooth over this point )
X-3.85800 Y-4.02900
X-3.85800 Y-4.47800
X-3.85700 Y-4.47800
X-3.85700 Y-4.47900
X-3.85600 Y-4.47900
X-3.85600 Y-4.48000
X-3.68800 Y-4.48000
X-3.68800 Y-4.47900
X-3.68700 Y-4.47900
X-3.68700 Y-4.01500
X-3.68800 Y-4.01500
X-3.68800 Y-4.01400
X-3.85600 Y-4.01400
X-3.85600 Y-4.01500
X-3.85700 Y-4.01500
X-3.85700 Y-4.01600
X-3.85800 Y-4.01600
X-3.85800 Y-4.02900
G01 Z-0.00394 F39.37008 ( plunge. )
G04 P0 ( dwell for no time -- G64 should not smooth over this point )
X-3.85800 Y-4.02900
X-3.85800 Y-4.47800
X-3.85700 Y-4.47800
X-3.85700 Y-4.47900
X-3.85600 Y-4.47900
X-3.85600 Y-4.48000
X-3.68800 Y-4.48000
X-3.68800 Y-4.47900
X-3.68700 Y-4.47900
X-3.68700 Y-4.01500
X-3.68800 Y-4.01500
X-3.68800 Y-4.01400
X-3.85600 Y-4.01400
X-3.85600 Y-4.01500
X-3.85700 Y-4.01500
X-3.85700 Y-4.01600
X-3.85800 Y-4.01600
X-3.85800 Y-4.02900
G01 Z-0.00787 F39.37008 ( plunge. )
G04 P0 ( dwell for no time -- G64 should not smooth over this point )
X-3.85800 Y-4.02900
X-3.85800 Y-4.47800
X-3.85700 Y-4.47800
X-3.85700 Y-4.47900
X-3.85600 Y-4.47900
X-3.85600 Y-4.48000
X-3.68800 Y-4.48000
X-3.68800 Y-4.47900
X-3.68700 Y-4.47900
X-3.68700 Y-4.01500
X-3.68800 Y-4.01500
X-3.68800 Y-4.01400
X-3.85600 Y-4.01400
X-3.85600 Y-4.01500
X-3.85700 Y-4.01500
X-3.85700 Y-4.01600
X-3.85800 Y-4.01600
X-3.85800 Y-4.02900
G01 Z-0.01181 F39.37008 ( plunge. )
G04 P0 ( dwell for no time -- G64 should not smooth over this point )
X-3.85800 Y-4.02900
X-3.85800 Y-4.47800
X-3.85700 Y-4.47800
X-3.85700 Y-4.47900
X-3.85600 Y-4.47900
X-3.85600 Y-4.48000
X-3.68800 Y-4.48000
X-3.68800 Y-4.47900
X-3.68700 Y-4.47900
X-3.68700 Y-4.01500
X-3.68800 Y-4.01500
X-3.68800 Y-4.01400
X-3.85600 Y-4.01400
X-3.85600 Y-4.01500
X-3.85700 Y-4.01500
X-3.85700 Y-4.01600
X-3.85800 Y-4.01600
X-3.85800 Y-4.02900
G01 Z-0.01575 F39.37008 ( plunge. )
G04 P0 ( dwell for no time -- G64 should not smooth over this point )
X-3.85800 Y-4.02900
X-3.85800 Y-4.47800
X-3.85700 Y-4.47800
X-3.85700 Y-4.47900
X-3.85600 Y-4.47900
X-3.85600 Y-4.48000
X-3.68800 Y-4.48000
X-3.68800 Y-4.47900
X-3.68700 Y-4.47900
X-3.68700 Y-4.01500
X-3.68800 Y-4.01500
X-3.68800 Y-4.01400
X-3.85600 Y-4.01400
X-3.85600 Y-4.01500
X-3.85700 Y-4.01500
X-3.85700 Y-4.01600
X-3.85800 Y-4.01600
X-3.85800 Y-4.02900
G01 Z-0.01969 F39.37008 ( plunge. )
G04 P0 ( dwell for no time -- G64 should not smooth over this point )
X-3.85800 Y-4.02900
X-3.85800 Y-4.47800
X-3.85700 Y-4.47800
X-3.85700 Y-4.47900
X-3.85600 Y-4.47900
X-3.85600 Y-4.48000
X-3.68800 Y-4.48000
X-3.68800 Y-4.47900
X-3.68700 Y-4.47900
X-3.68700 Y-4.01500
X-3.68800 Y-4.01500
X-3.68800 Y-4.01400
X-3.85600 Y-4.01400
X-3.85600 Y-4.01500
X-3.85700 Y-4.01500
X-3.85700 Y-4.01600
X-3.85800 Y-4.01600
X-3.85800 Y-4.02900
G01 Z-0.02362 F39.37008 ( plunge. )
G04 P0 ( dwell for no time -- G64 should not smooth over this point )
X-3.85800 Y-4.02900
X-3.85800 Y-4.47800
X-3.85700 Y-4.47800
X-3.85700 Y-4.47900
X-3.85600 Y-4.47900
X-3.85600 Y-4.48000
X-3.68800 Y-4.48000
X-3.68800 Y-4.47900
X-3.68700 Y-4.47900
X-3.68700 Y-4.01500
X-3.68800 Y-4.01500
X-3.68800 Y-4.01400
X-3.85600 Y-4.01400
X-3.85600 Y-4.01500
X-3.85700 Y-4.01500
X-3.85700 Y-4.01600
X-3.85800 Y-4.01600
X-3.85800 Y-4.02900
G01 Z-0.02756 F39.37008 ( plunge. )
G04 P0 ( dwell for no time -- G64 should not smooth over this point )
X-3.85800 Y-4.02900
X-3.85800 Y-4.47800
X-3.85700 Y-4.47800
X-3.85700 Y-4.47900
X-3.85600 Y-4.47900
X-3.85600 Y-4.48000
X-3.68800 Y-4.48000
X-3.68800 Y-4.47900
X-3.68700 Y-4.47900
X-3.68700 Y-4.01500
X-3.68800 Y-4.01500
X-3.68800 Y-4.01400
X-3.85600 Y-4.01400
X-3.85600 Y-4.01500
X-3.85700 Y-4.01500
X-3.85700 Y-4.01600
X-3.85800 Y-4.01600
X-3.85800 Y-4.02900
G01 Z-0.03150 F39.37008 ( plunge. )
G04 P0 ( dwell for no time -- G64 should not smooth over this point )
X-3.85800 Y-4.02900
X-3.85800 Y-4.47800
X-3.85700 Y-4.47800
X-3.85700 Y-4.47900
X-3.85600 Y-4.47900
X-3.85600 Y-4.48000
X-3.68800 Y-4.48000
X-3.68800 Y-4.47900
X-3.68700 Y-4.47900
X-3.68700 Y-4.01500
X-3.68800 Y-4.01500
X-3.68800 Y-4.01400
X-3.85600 Y-4.01400
X-3.85600 Y-4.01500
X-3.85700 Y-4.01500
X-3.85700 Y-4.01600
X-3.85800 Y-4.01600
X-3.85800 Y-4.02900
G01 Z-0.03543 F39.37008 ( plunge. )
G04 P0 ( dwell for no time -- G64 should not smooth over this point )
X-3.85800 Y-4.02900
X-3.85800 Y-4.47800
X-3.85700 Y-4.47800
X-3.85700 Y-4.47900
X-3.85600 Y-4.47900
X-3.85600 Y-4.48000
X-3.68800 Y-4.48000
X-3.68800 Y-4.47900
X-3.68700 Y-4.47900
X-3.68700 Y-4.01500
X-3.68800 Y-4.01500
X-3.68800 Y-4.01400
X-3.85600 Y-4.01400
X-3.85600 Y-4.01500
X-3.85700 Y-4.01500
X-3.85700 Y-4.01600
X-3.85800 Y-4.01600
X-3.85800 Y-4.02900
G01 Z-0.03937 F39.37008 ( plunge. )
G04 P0 ( dwell for no time -- G64 should not smooth over this point )
X-3.85800 Y-4.02900
X-3.85800 Y-4.47800
X-3.85700 Y-4.47800
X-3.85700 Y-4.47900
X-3.85600 Y-4.47900
X-3.85600 Y-4.48000
X-3.68800 Y-4.48000
X-3.68800 Y-4.47900
X-3.68700 Y-4.47900
X-3.68700 Y-4.01500
X-3.68800 Y-4.01500
X-3.68800 Y-4.01400
X-3.85600 Y-4.01400
X-3.85600 Y-4.01500
X-3.85700 Y-4.01500
X-3.85700 Y-4.01600
X-3.85800 Y-4.01600
X-3.85800 Y-4.02900
G01 Z-0.04331 F39.37008 ( plunge. )
G04 P0 ( dwell for no time -- G64 should not smooth over this point )
X-3.85800 Y-4.02900
X-3.85800 Y-4.47800
X-3.85700 Y-4.47800
X-3.85700 Y-4.47900
X-3.85600 Y-4.47900
X-3.85600 Y-4.48000
X-3.68800 Y-4.48000
X-3.68800 Y-4.47900
X-3.68700 Y-4.47900
X-3.68700 Y-4.01500
X-3.68800 Y-4.01500
X-3.68800 Y-4.01400
X-3.85600 Y-4.01400
X-3.85600 Y-4.01500
X-3.85700 Y-4.01500
X-3.85700 Y-4.01600
X-3.85800 Y-4.01600
X-3.85800 Y-4.02900
G01 Z-0.04724 F39.37008 ( plunge. )
G04 P0 ( dwell for no time -- G64 should not smooth over this point )
X-3.85800 Y-4.02900
X-3.85800 Y-4.47800
X-3.85700 Y-4.47800
X-3.85700 Y-4.47900
X-3.85600 Y-4.47900
X-3.85600 Y-4.48000
X-3.68800 Y-4.48000
X-3.68800 Y-4.47900
X-3.68700 Y-4.47900
X-3.68700 Y-4.01500
X-3.68800 Y-4.01500
X-3.68800 Y-4.01400
X-3.85600 Y-4.01400
X-3.85600 Y-4.01500
X-3.85700 Y-4.01500
X-3.85700 Y-4.01600
X-3.85800 Y-4.01600
X-3.85800 Y-4.02900
G01 Z-0.05118 F39.37008 ( plunge. )
G04 P0 ( dwell for no time -- G64 should not smooth over this point )
X-3.85800 Y-4.02900
X-3.85800 Y-4.47800
X-3.85700 Y-4.47800
X-3.85700 Y-4.47900
X-3.85600 Y-4.47900
X-3.85600 Y-4.48000
X-3.68800 Y-4.48000
X-3.68800 Y-4.47900
X-3.68700 Y-4.47900
X-3.68700 Y-4.01500
X-3.68800 Y-4.01500
X-3.68800 Y-4.01400
X-3.85600 Y-4.01400
X-3.85600 Y-4.01500
X-3.85700 Y-4.01500
X-3.85700 Y-4.01600
X-3.85800 Y-4.01600
X-3.85800 Y-4.02900
G01 Z-0.05512 F39.37008 ( plunge. )
G04 P0 ( dwell for no time -- G64 should not smooth over this point )
X-3.85800 Y-4.02900
X-3.85800 Y-4.47800
X-3.85700 Y-4.47800
X-3.85700 Y-4.47900
X-3.85600 Y-4.47900
X-3.85600 Y-4.48000
X-3.68800 Y-4.48000
X-3.68800 Y-4.47900
X-3.68700 Y-4.47900
X-3.68700 Y-4.01500
X-3.68800 Y-4.01500
X-3.68800 Y-4.01400
X-3.85600 Y-4.01400
X-3.85600 Y-4.01500
X-3.85700 Y-4.01500
X-3.85700 Y-4.01600
X-3.85800 Y-4.01600
X-3.85800 Y-4.02900
G01 Z-0.05906 F39.37008 ( plunge. )
G04 P0 ( dwell for no time -- G64 should not smooth over this point )
X-3.85800 Y-4.02900
X-3.85800 Y-4.47800
X-3.85700 Y-4.47800
X-3.85700 Y-4.47900
X-3.85600 Y-4.47900
X-3.85600 Y-4.48000
X-3.68800 Y-4.48000
X-3.68800 Y-4.47900
X-3.68700 Y-4.47900
X-3.68700 Y-4.01500
X-3.68800 Y-4.01500
X-3.68800 Y-4.01400
X-3.85600 Y-4.01400
X-3.85600 Y-4.01500
X-3.85700 Y-4.01500
X-3.85700 Y-4.01600
X-3.85800 Y-4.01600
X-3.85800 Y-4.02900
G01 Z-0.06299 F39.37008 ( plunge. )
G04 P0 ( dwell for no time -- G64 should not smooth over this point )
X-3.85800 Y-4.02900
X-3.85800 Y-4.47800
X-3.85700 Y-4.47800
X-3.85700 Y-4.47900
X-3.85600 Y-4.47900
X-3.85600 Y-4.48000
X-3.68800 Y-4.48000
X-3.68800 Y-4.47900
X-3.68700 Y-4.47900
X-3.68700 Y-4.01500
X-3.68800 Y-4.01500
X-3.68800 Y-4.01400
X-3.85600 Y-4.01400
X-3.85600 Y-4.01500
X-3.85700 Y-4.01500
X-3.85700 Y-4.01600
X-3.85800 Y-4.01600
X-3.85800 Y-4.02900
G04 P0 ( dwell for no time -- G64 should not smooth over this point )
G00 Z0.19685 ( retract )

G00 X-4.97200 Y-4.02900 ( rapid move to begin. )
G01 Z0.00000 F39.37008 ( plunge. )
G04 P0 ( dwell for no time -- G64 should not smooth over this point )
X-4.97200 Y-4.02900
X-4.97200 Y-4.47800
X-4.97100 Y-4.47800
X-4.97100 Y-4.47900
X-4.97000 Y-4.47900
X-4.97000 Y-4.48000
X-4.80200 Y-4.48000
X-4.80200 Y-4.47900
X-4.80100 Y-4.47900
X-4.80100 Y-4.01500
X-4.80200 Y-4.01500
X-4.80200 Y-4.01400
X-4.97100 Y-4.01400
X-4.97100 Y-4.01500
X-4.97200 Y-4.01500
X-4.97200 Y-4.02900
G01 Z-0.00394 F39.37008 ( plunge. )
G04 P0 ( dwell for no time -- G64 should not smooth over this point )
X-4.97200 Y-4.02900
X-4.97200 Y-4.47800
X-4.97100 Y-4.47800
X-4.97100 Y-4.47900
X-4.97000 Y-4.47900
X-4.97000 Y-4.48000
X-4.80200 Y-4.48000
X-4.80200 Y-4.47900
X-4.80100 Y-4.47900
X-4.80100 Y-4.01500
X-4.80200 Y-4.01500
X-4.80200 Y-4.01400
X-4.97100 Y-4.01400
X-4.97100 Y-4.01500
X-4.97200 Y-4.01500
X-4.97200 Y-4.02900
G01 Z-0.00787 F39.37008 ( plunge. )
G04 P0 ( dwell for no time -- G64 should not smooth over this point )
X-4.97200 Y-4.02900
X-4.97200 Y-4.47800
X-4.97100 Y-4.47800
X-4.97100 Y-4.47900
X-4.97000 Y-4.47900
X-4.97000 Y-4.48000
X-4.80200 Y-4.48000
X-4.80200 Y-4.47900
X-4.80100 Y-4.47900
X-4.80100 Y-4.01500
X-4.80200 Y-4.01500
X-4.80200 Y-4.01400
X-4.97100 Y-4.01400
X-4.97100 Y-4.01500
X-4.97200 Y-4.01500
X-4.97200 Y-4.02900
G01 Z-0.01181 F39.37008 ( plunge. )
G04 P0 ( dwell for no time -- G64 should not smooth over this point )
X-4.97200 Y-4.02900
X-4.97200 Y-4.47800
X-4.97100 Y-4.47800
X-4.97100 Y-4.47900
X-4.97000 Y-4.47900
X-4.97000 Y-4.48000
X-4.80200 Y-4.48000
X-4.80200 Y-4.47900
X-4.80100 Y-4.47900
X-4.80100 Y-4.01500
X-4.80200 Y-4.01500
X-4.80200 Y-4.01400
X-4.97100 Y-4.01400
X-4.97100 Y-4.01500
X-4.97200 Y-4.01500
X-4.97200 Y-4.02900
G01 Z-0.01575 F39.37008 ( plunge. )
G04 P0 ( dwell for no time -- G64 should not smooth over this point )
X-4.97200 Y-4.02900
X-4.97200 Y-4.47800
X-4.97100 Y-4.47800
X-4.97100 Y-4.47900
X-4.97000 Y-4.47900
X-4.97000 Y-4.48000
X-4.80200 Y-4.48000
X-4.80200 Y-4.47900
X-4.80100 Y-4.47900
X-4.80100 Y-4.01500
X-4.80200 Y-4.01500
X-4.80200 Y-4.01400
X-4.97100 Y-4.01400
X-4.97100 Y-4.01500
X-4.97200 Y-4.01500
X-4.97200 Y-4.02900
G01 Z-0.01969 F39.37008 ( plunge. )
G04 P0 ( dwell for no time -- G64 should not smooth over this point )
X-4.97200 Y-4.02900
X-4.97200 Y-4.47800
X-4.97100 Y-4.47800
X-4.97100 Y-4.47900
X-4.97000 Y-4.47900
X-4.97000 Y-4.48000
X-4.80200 Y-4.48000
X-4.80200 Y-4.47900
X-4.80100 Y-4.47900
X-4.80100 Y-4.01500
X-4.80200 Y-4.01500
X-4.80200 Y-4.01400
X-4.97100 Y-4.01400
X-4.97100 Y-4.01500
X-4.97200 Y-4.01500
X-4.97200 Y-4.02900
G01 Z-0.02362 F39.37008 ( plunge. )
G04 P0 ( dwell for no time -- G64 should not smooth over this point )
X-4.97200 Y-4.02900
X-4.97200 Y-4.47800
X-4.97100 Y-4.47800
X-4.97100 Y-4.47900
X-4.97000 Y-4.47900
X-4.97000 Y-4.48000
X-4.80200 Y-4.48000
X-4.80200 Y-4.47900
X-4.80100 Y-4.47900
X-4.80100 Y-4.01500
X-4.80200 Y-4.01500
X-4.80200 Y-4.01400
X-4.97100 Y-4.01400
X-4.97100 Y-4.01500
X-4.97200 Y-4.01500
X-4.97200 Y-4.02900
G01 Z-0.02756 F39.37008 ( plunge. )
G04 P0 ( dwell for no time -- G64 should not smooth over this point )
X-4.97200 Y-4.02900
X-4.97200 Y-4.47800
X-4.97100 Y-4.47800
X-4.97100 Y-4.47900
X-4.97000 Y-4.47900
X-4.97000 Y-4.48000
X-4.80200 Y-4.48000
X-4.80200 Y-4.47900
X-4.80100 Y-4.47900
X-4.80100 Y-4.01500
X-4.80200 Y-4.01500
X-4.80200 Y-4.01400
X-4.97100 Y-4.01400
X-4.97100 Y-4.01500
X-4.97200 Y-4.01500
X-4.97200 Y-4.02900
G01 Z-0.03150 F39.37008 ( plunge. )
G04 P0 ( dwell for no time -- G64 should not smooth over this point )
X-4.97200 Y-4.02900
X-4.97200 Y-4.47800
X-4.97100 Y-4.47800
X-4.97100 Y-4.47900
X-4.97000 Y-4.47900
X-4.97000 Y-4.48000
X-4.80200 Y-4.48000
X-4.80200 Y-4.47900
X-4.80100 Y-4.47900
X-4.80100 Y-4.01500
X-4.80200 Y-4.01500
X-4.80200 Y-4.01400
X-4.97100 Y-4.01400
X-4.97100 Y-4.01500
X-4.97200 Y-4.01500
X-4.97200 Y-4.02900
G01 Z-0.03543 F39.37008 ( plunge. )
G04 P0 ( dwell for no time -- G64 should not smooth over this point )
X-4.97200 Y-4.02900
X-4.97200 Y-4.47800
X-4.97100 Y-4.47800
X-4.97100 Y-4.47900
X-4.97000 Y-4.47900
X-4.97000 Y-4.48000
X-4.80200 Y-4.48000
X-4.80200 Y-4.47900
X-4.80100 Y-4.47900
X-4.80100 Y-4.01500
X-4.80200 Y-4.01500
X-4.80200 Y-4.01400
X-4.97100 Y-4.01400
X-4.97100 Y-4.01500
X-4.97200 Y-4.01500
X-4.97200 Y-4.02900
G01 Z-0.03937 F39.37008 ( plunge. )
G04 P0 ( dwell for no time -- G64 should not smooth over this point )
X-4.97200 Y-4.02900
X-4.97200 Y-4.47800
X-4.97100 Y-4.47800
X-4.97100 Y-4.47900
X-4.97000 Y-4.47900
X-4.97000 Y-4.48000
X-4.80200 Y-4.48000
X-4.80200 Y-4.47900
X-4.80100 Y-4.47900
X-4.80100 Y-4.01500
X-4.80200 Y-4.01500
X-4.80200 Y-4.01400
X-4.97100 Y-4.01400
X-4.97100 Y-4.01500
X-4.97200 Y-4.01500
X-4.97200 Y-4.02900
G01 Z-0.04331 F39.37008 ( plunge. )
G04 P0 ( dwell for no time -- G64 should not smooth over this point )
X-4.97200 Y-4.02900
X-4.97200 Y-4.47800
X-4.97100 Y-4.47800
X-4.97100 Y-4.47900
X-4.97000 Y-4.47900
X-4.97000 Y-4.48000
X-4.80200 Y-4.48000
X-4.80200 Y-4.47900
X-4.80100 Y-4.47900
X-4.80100 Y-4.01500
X-4.80200 Y-4.01500
X-4.80200 Y-4.01400
X-4.97100 Y-4.01400
X-4.97100 Y-4.01500
X-4.97200 Y-4.01500
X-4.97200 Y-4.02900
G01 Z-0.04724 F39.37008 ( plunge. )
G04 P0 ( dwell for no time -- G64 should not smooth over this point )
X-4.97200 Y-4.02900
X-4.97200 Y-4.47800
X-4.97100 Y-4.47800
X-4.97100 Y-4.47900
X-4.97000 Y-4.47900
X-4.97000 Y-4.48000
X-4.80200 Y-4.48000
X-4.80200 Y-4.47900
X-4.80100 Y-4.47900
X-4.80100 Y-4.01500
X-4.80200 Y-4.01500
X-4.80200 Y-4.01400
X-4.97100 Y-4.01400
X-4.97100 Y-4.01500
X-4.97200 Y-4.01500
X-4.97200 Y-4.02900
G01 Z-0.05118 F39.37008 ( plunge. )
G04 P0 ( dwell for no time -- G64 should not smooth over this point )
X-4.97200 Y-4.02900
X-4.97200 Y-4.47800
X-4.97100 Y-4.47800
X-4.97100 Y-4.47900
X-4.97000 Y-4.47900
X-4.97000 Y-4.48000
X-4.80200 Y-4.48000
X-4.80200 Y-4.47900
X-4.80100 Y-4.47900
X-4.80100 Y-4.01500
X-4.80200 Y-4.01500
X-4.80200 Y-4.01400
X-4.97100 Y-4.01400
X-4.97100 Y-4.01500
X-4.97200 Y-4.01500
X-4.97200 Y-4.02900
G01 Z-0.05512 F39.37008 ( plunge. )
G04 P0 ( dwell for no time -- G64 should not smooth over this point )
X-4.97200 Y-4.02900
X-4.97200 Y-4.47800
X-4.97100 Y-4.47800
X-4.97100 Y-4.47900
X-4.97000 Y-4.47900
X-4.97000 Y-4.48000
X-4.80200 Y-4.48000
X-4.80200 Y-4.47900
X-4.80100 Y-4.47900
X-4.80100 Y-4.01500
X-4.80200 Y-4.01500
X-4.80200 Y-4.01400
X-4.97100 Y-4.01400
X-4.97100 Y-4.01500
X-4.97200 Y-4.01500
X-4.97200 Y-4.02900
G01 Z-0.05906 F39.37008 ( plunge. )
G04 P0 ( dwell for no time -- G64 should not smooth over this point )
X-4.97200 Y-4.02900
X-4.97200 Y-4.47800
X-4.97100 Y-4.47800
X-4.97100 Y-4.47900
X-4.97000 Y-4.47900
X-4.97000 Y-4.48000
X-4.80200 Y-4.48000
X-4.80200 Y-4.47900
X-4.80100 Y-4.47900
X-4.80100 Y-4.01500
X-4.80200 Y-4.01500
X-4.80200 Y-4.01400
X-4.97100 Y-4.01400
X-4.97100 Y-4.01500
X-4.97200 Y-4.01500
X-4.97200 Y-4.02900
G01 Z-0.06299 F39.37008 ( plunge. )
G04 P0 ( dwell for no time -- G64 should not smooth over this point )
X-4.97200 Y-4.02900
X-4.97200 Y-4.47800
X-4.97100 Y-4.47800
X-4.97100 Y-4.47900
X-4.97000 Y-4.47900
X-4.97000 Y-4.48000
X-4.80200 Y-4.48000
X-4.80200 Y-4.47900
X-4.80100 Y-4.47900
X-4.80100 Y-4.01500
X-4.80200 Y-4.01500
X-4.80200 Y-4.01400
X-4.97100 Y-4.01400
X-4.97100 Y-4.01500
X-4.97200 Y-4.01500
X-4.97200 Y-4.02900

G04 P0 ( dwell for no time -- G64 should not smooth over this point )
G00 Z0.78740 ( retract )

M9 ( Coolant off. )
M2 ( Program end. )

