( pcb2gcode 1.1.4 )

G94     ( Inches per minute feed rate. )
G20     ( Units == INCHES.             )
G90     ( Absolute coordinates.        )
S10000  ( RPM spindle speed.           )
M3      ( Spindle on clockwise.        )

G64 P0.00500 ( set maximum deviation from commanded toolpath )

G04 P0 ( dwell for no time -- G64 should not smooth over this point )
G00 Z0.19685 ( retract )

G00 X-3.96200 Y-2.92400 ( rapid move to begin. )
G01 Z-0.00394 F39.37008 ( plunge. )
G04 P0 ( dwell for no time -- G64 should not smooth over this point )
X-3.96200 Y-2.92400
X-3.99300 Y-2.92400
X-3.99300 Y-2.92500
X-4.00600 Y-2.92500
X-4.00600 Y-2.92600
X-4.01900 Y-2.92600
X-4.01900 Y-2.92700
X-4.03200 Y-2.92700
X-4.03200 Y-2.92800
X-4.04300 Y-2.92800
X-4.04300 Y-2.92900
X-4.05100 Y-2.92900
X-4.05100 Y-2.93000
X-4.05900 Y-2.93000
X-4.05900 Y-2.93100
X-4.06700 Y-2.93100
X-4.06700 Y-2.93200
X-4.07500 Y-2.93200
X-4.07500 Y-2.93300
X-4.08300 Y-2.93300
X-4.08300 Y-2.93400
X-4.09100 Y-2.93400
X-4.09100 Y-2.93500
X-4.09600 Y-2.93500
X-4.09600 Y-2.93600
X-4.10200 Y-2.93600
X-4.10200 Y-2.93700
X-4.10700 Y-2.93700
X-4.10700 Y-2.93800
X-4.11300 Y-2.93800
X-4.11300 Y-2.93900
X-4.11900 Y-2.93900
X-4.11900 Y-2.94000
X-4.12400 Y-2.94000
X-4.12400 Y-2.94100
X-4.13000 Y-2.94100
X-4.13000 Y-2.94200
X-4.13500 Y-2.94200
X-4.13500 Y-2.94300
X-4.14100 Y-2.94300
X-4.14100 Y-2.94400
X-4.14500 Y-2.94400
X-4.14500 Y-2.94500
X-4.14900 Y-2.94500
X-4.14900 Y-2.94600
X-4.15400 Y-2.94600
X-4.15400 Y-2.94700
X-4.15800 Y-2.94700
X-4.15800 Y-2.94800
X-4.16200 Y-2.94800
X-4.16200 Y-2.94900
X-4.16700 Y-2.94900
X-4.16700 Y-2.95000
X-4.17100 Y-2.95000
X-4.17100 Y-2.95100
X-4.17500 Y-2.95100
X-4.17500 Y-2.95200
X-4.18000 Y-2.95200
X-4.18000 Y-2.95300
X-4.18400 Y-2.95300
X-4.18400 Y-2.95400
X-4.18800 Y-2.95400
X-4.18800 Y-2.95500
X-4.19200 Y-2.95500
X-4.19200 Y-2.95600
X-4.19600 Y-2.95600
X-4.19600 Y-2.95700
X-4.19900 Y-2.95700
X-4.19900 Y-2.95800
X-4.20300 Y-2.95800
X-4.20300 Y-2.95900
X-4.20600 Y-2.95900
X-4.20600 Y-2.96000
X-4.21000 Y-2.96000
X-4.21000 Y-2.96100
X-4.21300 Y-2.96100
X-4.21300 Y-2.96200
X-4.21700 Y-2.96200
X-4.21700 Y-2.96300
X-4.22000 Y-2.96300
X-4.22000 Y-2.96400
X-4.22400 Y-2.96400
X-4.22400 Y-2.96500
X-4.22700 Y-2.96500
X-4.22700 Y-2.96600
X-4.23100 Y-2.96600
X-4.23100 Y-2.96700
X-4.23400 Y-2.96700
X-4.23400 Y-2.96800
X-4.23800 Y-2.96800
X-4.23800 Y-2.96900
X-4.24100 Y-2.96900
X-4.24100 Y-2.97000
X-4.24400 Y-2.97000
X-4.24400 Y-2.97100
X-4.24700 Y-2.97100
X-4.24700 Y-2.97200
X-4.25000 Y-2.97200
X-4.25000 Y-2.97300
X-4.25300 Y-2.97300
X-4.25300 Y-2.97400
X-4.25600 Y-2.97400
X-4.25600 Y-2.97500
X-4.25900 Y-2.97500
X-4.25900 Y-2.97600
X-4.26200 Y-2.97600
X-4.26200 Y-2.97700
X-4.26400 Y-2.97700
X-4.26400 Y-2.97800
X-4.26700 Y-2.97800
X-4.26700 Y-2.97900
X-4.27000 Y-2.97900
X-4.27000 Y-2.98000
X-4.27300 Y-2.98000
X-4.27300 Y-2.98100
X-4.27600 Y-2.98100
X-4.27600 Y-2.98200
X-4.27900 Y-2.98200
X-4.27900 Y-2.98300
X-4.28200 Y-2.98300
X-4.28200 Y-2.98400
X-4.28500 Y-2.98400
X-4.28500 Y-2.98500
X-4.28800 Y-2.98500
X-4.28800 Y-2.98600
X-4.29000 Y-2.98600
X-4.29000 Y-2.98700
X-4.29300 Y-2.98700
X-4.29300 Y-2.98800
X-4.29500 Y-2.98800
X-4.29500 Y-2.98900
X-4.29800 Y-2.98900
X-4.29800 Y-2.99000
X-4.30000 Y-2.99000
X-4.30000 Y-2.99100
X-4.30300 Y-2.99100
X-4.30300 Y-2.99200
X-4.30500 Y-2.99200
X-4.30500 Y-2.99300
X-4.30800 Y-2.99300
X-4.30800 Y-2.99400
X-4.31000 Y-2.99400
X-4.31000 Y-2.99500
X-4.31300 Y-2.99500
X-4.31300 Y-2.99600
X-4.31500 Y-2.99600
X-4.31500 Y-2.99700
X-4.31800 Y-2.99700
X-4.31800 Y-2.99800
X-4.32100 Y-2.99800
X-4.32100 Y-2.99900
X-4.32300 Y-2.99900
X-4.32300 Y-3.00000
X-4.32600 Y-3.00000
X-4.32600 Y-3.00100
X-4.32800 Y-3.00100
X-4.32800 Y-3.00200
X-4.33100 Y-3.00200
X-4.33100 Y-3.00300
X-4.33300 Y-3.00300
X-4.33300 Y-3.00400
X-4.33500 Y-3.00400
X-4.33500 Y-3.00500
X-4.33700 Y-3.00500
X-4.33700 Y-3.00600
X-4.33900 Y-3.00600
X-4.33900 Y-3.00700
X-4.34200 Y-3.00700
X-4.34200 Y-3.00800
X-4.34400 Y-3.00800
X-4.34400 Y-3.00900
X-4.34600 Y-3.00900
X-4.34600 Y-3.01000
X-4.34800 Y-3.01000
X-4.34800 Y-3.01100
X-4.35100 Y-3.01100
X-4.35100 Y-3.01200
X-4.35300 Y-3.01200
X-4.35300 Y-3.01300
X-4.35500 Y-3.01300
X-4.35500 Y-3.01400
X-4.35700 Y-3.01400
X-4.35700 Y-3.01500
X-4.35900 Y-3.01500
X-4.35900 Y-3.01600
X-4.36200 Y-3.01600
X-4.36200 Y-3.01700
X-4.36400 Y-3.01700
X-4.36400 Y-3.01800
X-4.36600 Y-3.01800
X-4.36600 Y-3.01900
X-4.36800 Y-3.01900
X-4.36800 Y-3.02000
X-4.37000 Y-3.02000
X-4.37000 Y-3.02100
X-4.37300 Y-3.02100
X-4.37300 Y-3.02200
X-4.37500 Y-3.02200
X-4.37500 Y-3.02300
X-4.37700 Y-3.02300
X-4.37700 Y-3.02400
X-4.37900 Y-3.02400
X-4.37900 Y-3.02500
X-4.38100 Y-3.02500
X-4.38100 Y-3.02600
X-4.38300 Y-3.02600
X-4.38300 Y-3.02700
X-4.38500 Y-3.02700
X-4.38500 Y-3.02800
X-4.38700 Y-3.02800
X-4.38700 Y-3.02900
X-4.38900 Y-3.02900
X-4.38900 Y-3.03000
X-4.39100 Y-3.03000
X-4.39100 Y-3.03100
X-4.39200 Y-3.03100
X-4.39200 Y-3.03200
X-4.39400 Y-3.03200
X-4.39400 Y-3.03300
X-4.39600 Y-3.03300
X-4.39600 Y-3.03400
X-4.39800 Y-3.03400
X-4.39800 Y-3.03500
X-4.40000 Y-3.03500
X-4.40000 Y-3.03600
X-4.40200 Y-3.03600
X-4.40200 Y-3.03700
X-4.40400 Y-3.03700
X-4.40400 Y-3.03800
X-4.40600 Y-3.03800
X-4.40600 Y-3.03900
X-4.40800 Y-3.03900
X-4.40800 Y-3.04000
X-4.41000 Y-3.04000
X-4.41000 Y-3.04100
X-4.41200 Y-3.04100
X-4.41200 Y-3.04200
X-4.41400 Y-3.04200
X-4.41400 Y-3.04300
X-4.41600 Y-3.04300
X-4.41600 Y-3.04400
X-4.41800 Y-3.04400
X-4.41800 Y-3.04500
X-4.42000 Y-3.04500
X-4.42000 Y-3.04600
X-4.42100 Y-3.04600
X-4.42100 Y-3.04700
X-4.42300 Y-3.04700
X-4.42300 Y-3.04800
X-4.42500 Y-3.04800
X-4.42500 Y-3.04900
X-4.42700 Y-3.04900
X-4.42700 Y-3.05000
X-4.42800 Y-3.05000
X-4.42800 Y-3.05100
X-4.43000 Y-3.05100
X-4.43000 Y-3.05200
X-4.43200 Y-3.05200
X-4.43200 Y-3.05300
X-4.43400 Y-3.05300
X-4.43400 Y-3.05400
X-4.43500 Y-3.05400
X-4.43500 Y-3.05500
X-4.43700 Y-3.05500
X-4.43700 Y-3.05600
X-4.43900 Y-3.05600
X-4.43900 Y-3.05700
X-4.44100 Y-3.05700
X-4.44100 Y-3.05800
X-4.44200 Y-3.05800
X-4.44200 Y-3.05900
X-4.44400 Y-3.05900
X-4.44400 Y-3.06000
X-4.44600 Y-3.06000
X-4.44600 Y-3.06100
X-4.44800 Y-3.06100
X-4.44800 Y-3.06200
X-4.44900 Y-3.06200
X-4.44900 Y-3.06300
X-4.45100 Y-3.06300
X-4.45100 Y-3.06400
X-4.45300 Y-3.06400
X-4.45300 Y-3.06500
X-4.45400 Y-3.06500
X-4.45400 Y-3.06600
X-4.45600 Y-3.06600
X-4.45600 Y-3.06700
X-4.45800 Y-3.06700
X-4.45800 Y-3.06800
X-4.46000 Y-3.06800
X-4.46000 Y-3.06900
X-4.46100 Y-3.06900
X-4.46100 Y-3.07000
X-4.46300 Y-3.07000
X-4.46300 Y-3.07100
X-4.46500 Y-3.07100
X-4.46500 Y-3.07200
X-4.46600 Y-3.07200
X-4.46600 Y-3.07300
X-4.46800 Y-3.07300
X-4.46800 Y-3.07400
X-4.46900 Y-3.07400
X-4.46900 Y-3.07500
X-4.47100 Y-3.07500
X-4.47100 Y-3.07600
X-4.47200 Y-3.07600
X-4.47200 Y-3.07700
X-4.47400 Y-3.07700
X-4.47400 Y-3.07800
X-4.47500 Y-3.07800
X-4.47500 Y-3.07900
X-4.47700 Y-3.07900
X-4.47700 Y-3.08000
X-4.47900 Y-3.08000
X-4.47900 Y-3.08100
X-4.48000 Y-3.08100
X-4.48000 Y-3.08200
X-4.48200 Y-3.08200
X-4.48200 Y-3.08300
X-4.48300 Y-3.08300
X-4.48300 Y-3.08400
X-4.48500 Y-3.08400
X-4.48500 Y-3.08500
X-4.48600 Y-3.08500
X-4.48600 Y-3.08600
X-4.48800 Y-3.08600
X-4.48800 Y-3.08700
X-4.48900 Y-3.08700
X-4.48900 Y-3.08800
X-4.49100 Y-3.08800
X-4.49100 Y-3.08900
X-4.49300 Y-3.08900
X-4.49300 Y-3.09000
X-4.49400 Y-3.09000
X-4.49400 Y-3.09100
X-4.49600 Y-3.09100
X-4.49600 Y-3.09200
X-4.49700 Y-3.09200
X-4.49700 Y-3.09300
X-4.49900 Y-3.09300
X-4.49900 Y-3.09400
X-4.50000 Y-3.09400
X-4.50000 Y-3.09500
X-4.50200 Y-3.09500
X-4.50200 Y-3.09600
X-4.50300 Y-3.09600
X-4.50300 Y-3.09700
X-4.50500 Y-3.09700
X-4.50500 Y-3.09800
X-4.50600 Y-3.09800
X-4.50600 Y-3.09900
X-4.50800 Y-3.09900
X-4.50800 Y-3.10000
X-4.50900 Y-3.10000
X-4.50900 Y-3.10100
X-4.51000 Y-3.10100
X-4.51000 Y-3.10200
X-4.51200 Y-3.10200
X-4.51200 Y-3.10300
X-4.51300 Y-3.10300
X-4.51300 Y-3.10400
X-4.51500 Y-3.10400
X-4.51500 Y-3.10500
X-4.51600 Y-3.10500
X-4.51600 Y-3.10600
X-4.51700 Y-3.10600
X-4.51700 Y-3.10700
X-4.51900 Y-3.10700
X-4.51900 Y-3.10800
X-4.52000 Y-3.10800
X-4.52000 Y-3.10900
X-4.52200 Y-3.10900
X-4.52200 Y-3.11000
X-4.52300 Y-3.11000
X-4.52300 Y-3.11100
X-4.52400 Y-3.11100
X-4.52400 Y-3.11200
X-4.52600 Y-3.11200
X-4.52600 Y-3.11300
X-4.52700 Y-3.11300
X-4.52700 Y-3.11400
X-4.52900 Y-3.11400
X-4.52900 Y-3.11500
X-4.53000 Y-3.11500
X-4.53000 Y-3.11600
X-4.53200 Y-3.11600
X-4.53200 Y-3.11700
X-4.53300 Y-3.11700
X-4.53300 Y-3.11800
X-4.53400 Y-3.11800
X-4.53400 Y-3.11900
X-4.53600 Y-3.11900
X-4.53600 Y-3.12000
X-4.53700 Y-3.12000
X-4.53700 Y-3.12100
X-4.53900 Y-3.12100
X-4.53900 Y-3.12200
X-4.54000 Y-3.12200
X-4.54000 Y-3.12300
X-4.54100 Y-3.12300
X-4.54100 Y-3.12400
X-4.54300 Y-3.12400
X-4.54300 Y-3.12500
X-4.54400 Y-3.12500
X-4.54400 Y-3.12600
X-4.54500 Y-3.12600
X-4.54500 Y-3.12700
X-4.54600 Y-3.12700
X-4.54600 Y-3.12800
X-4.54800 Y-3.12800
X-4.54800 Y-3.12900
X-4.54900 Y-3.12900
X-4.54900 Y-3.13000
X-4.55000 Y-3.13000
X-4.55000 Y-3.13100
X-4.55200 Y-3.13100
X-4.55200 Y-3.13200
X-4.55300 Y-3.13200
X-4.55300 Y-3.13300
X-4.55400 Y-3.13300
X-4.55400 Y-3.13400
X-4.55500 Y-3.13400
X-4.55500 Y-3.13500
X-4.55700 Y-3.13500
X-4.55700 Y-3.13600
X-4.55800 Y-3.13600
X-4.55800 Y-3.13700
X-4.55900 Y-3.13700
X-4.55900 Y-3.13800
X-4.56000 Y-3.13800
X-4.56000 Y-3.13900
X-4.56200 Y-3.13900
X-4.56200 Y-3.14000
X-4.56300 Y-3.14000
X-4.56300 Y-3.14100
X-4.56400 Y-3.14100
X-4.56400 Y-3.14200
X-4.56600 Y-3.14200
X-4.56600 Y-3.14300
X-4.56700 Y-3.14300
X-4.56700 Y-3.14400
X-4.56800 Y-3.14400
X-4.56800 Y-3.14500
X-4.56900 Y-3.14500
X-4.56900 Y-3.14600
X-4.57100 Y-3.14600
X-4.57100 Y-3.14700
X-4.57200 Y-3.14700
X-4.57200 Y-3.14800
X-4.57300 Y-3.14800
X-4.57300 Y-3.14900
X-4.57400 Y-3.14900
X-4.57400 Y-3.15000
X-4.57600 Y-3.15000
X-4.57600 Y-3.15100
X-4.57700 Y-3.15100
X-4.57700 Y-3.15200
X-4.57800 Y-3.15200
X-4.57800 Y-3.15300
X-4.58000 Y-3.15300
X-4.58000 Y-3.15400
X-4.58100 Y-3.15400
X-4.58100 Y-3.15500
X-4.58200 Y-3.15500
X-4.58200 Y-3.15600
X-4.58300 Y-3.15600
X-4.58300 Y-3.15700
X-4.58400 Y-3.15700
X-4.58400 Y-3.15800
X-4.58500 Y-3.15800
X-4.58500 Y-3.15900
X-4.58700 Y-3.15900
X-4.58700 Y-3.16000
X-4.58800 Y-3.16000
X-4.58800 Y-3.16100
X-4.58900 Y-3.16100
X-4.58900 Y-3.16200
X-4.59000 Y-3.16200
X-4.59000 Y-3.16300
X-4.59100 Y-3.16300
X-4.59100 Y-3.16400
X-4.59200 Y-3.16400
X-4.59200 Y-3.16500
X-4.59300 Y-3.16500
X-4.59300 Y-3.16600
X-4.59500 Y-3.16600
X-4.59500 Y-3.16700
X-4.59600 Y-3.16700
X-4.59600 Y-3.16800
X-4.59700 Y-3.16800
X-4.59700 Y-3.16900
X-4.59800 Y-3.16900
X-4.59800 Y-3.17000
X-4.59900 Y-3.17000
X-4.59900 Y-3.17100
X-4.60000 Y-3.17100
X-4.60000 Y-3.17200
X-4.60200 Y-3.17200
X-4.60200 Y-3.17300
X-4.60300 Y-3.17300
X-4.60300 Y-3.17400
X-4.60400 Y-3.17400
X-4.60400 Y-3.17500
X-4.60500 Y-3.17500
X-4.60500 Y-3.17600
X-4.60600 Y-3.17600
X-4.60600 Y-3.17700
X-4.60700 Y-3.17700
X-4.60700 Y-3.17800
X-4.60800 Y-3.17800
X-4.60800 Y-3.17900
X-4.61000 Y-3.17900
X-4.61000 Y-3.18000
X-4.61100 Y-3.18000
X-4.61100 Y-3.18100
X-4.61200 Y-3.18100
X-4.61200 Y-3.18200
X-4.61300 Y-3.18200
X-4.61300 Y-3.18300
X-4.61400 Y-3.18300
X-4.61400 Y-3.18400
X-4.61500 Y-3.18400
X-4.61500 Y-3.18500
X-4.61700 Y-3.18500
X-4.61700 Y-3.18600
X-4.61800 Y-3.18600
X-4.61800 Y-3.18700
X-4.61900 Y-3.18700
X-4.61900 Y-3.18800
X-4.62000 Y-3.18800
X-4.62000 Y-3.18900
X-4.62100 Y-3.18900
X-4.62100 Y-3.19000
X-4.62200 Y-3.19000
X-4.62200 Y-3.19100
X-4.62300 Y-3.19100
X-4.62300 Y-3.19200
X-4.62400 Y-3.19200
X-4.62400 Y-3.19300
X-4.62500 Y-3.19300
X-4.62500 Y-3.19400
X-4.62600 Y-3.19400
X-4.62600 Y-3.19500
X-4.62700 Y-3.19500
X-4.62700 Y-3.19600
X-4.62800 Y-3.19600
X-4.62800 Y-3.19700
X-4.62900 Y-3.19700
X-4.62900 Y-3.19800
X-4.63000 Y-3.19800
X-4.63000 Y-3.19900
X-4.63100 Y-3.19900
X-4.63100 Y-3.20000
X-4.63200 Y-3.20000
X-4.63200 Y-3.20100
X-4.63300 Y-3.20100
X-4.63300 Y-3.20200
X-4.63400 Y-3.20200
X-4.63400 Y-3.20300
X-4.63500 Y-3.20300
X-4.63500 Y-3.20400
X-4.63700 Y-3.20400
X-4.63700 Y-3.20500
X-4.63800 Y-3.20500
X-4.63800 Y-3.20600
X-4.63900 Y-3.20600
X-4.63900 Y-3.20700
X-4.64000 Y-3.20700
X-4.64000 Y-3.20800
X-4.64100 Y-3.20800
X-4.64100 Y-3.20900
X-4.64200 Y-3.20900
X-4.64200 Y-3.21000
X-4.64300 Y-3.21000
X-4.64300 Y-3.21100
X-4.64400 Y-3.21100
X-4.64400 Y-3.21200
X-4.64500 Y-3.21200
X-4.64500 Y-3.21300
X-4.64600 Y-3.21300
X-4.64600 Y-3.21400
X-4.64700 Y-3.21400
X-4.64700 Y-3.21500
X-4.64800 Y-3.21500
X-4.64800 Y-3.21600
X-4.64900 Y-3.21600
X-4.64900 Y-3.21700
X-4.65000 Y-3.21700
X-4.65000 Y-3.21800
X-4.65100 Y-3.21800
X-4.65100 Y-3.21900
X-4.65200 Y-3.21900
X-4.65200 Y-3.22000
X-4.65300 Y-3.22000
X-4.65300 Y-3.22100
X-4.65400 Y-3.22100
X-4.65400 Y-3.22200
X-4.65500 Y-3.22200
X-4.65500 Y-3.22300
X-4.65600 Y-3.22300
X-4.65600 Y-3.22400
X-4.65700 Y-3.22400
X-4.65700 Y-3.22500
X-4.65800 Y-3.22500
X-4.65800 Y-3.22600
X-4.65900 Y-3.22600
X-4.65900 Y-3.22700
X-4.66000 Y-3.22700
X-4.66000 Y-3.22800
X-4.66100 Y-3.22800
X-4.66100 Y-3.22900
X-4.66200 Y-3.22900
X-4.66200 Y-3.23000
X-4.66300 Y-3.23000
X-4.66300 Y-3.23100
X-4.66400 Y-3.23100
X-4.66400 Y-3.23200
X-4.66500 Y-3.23200
X-4.66500 Y-3.23300
X-4.66600 Y-3.23300
X-4.66600 Y-3.23400
X-4.66700 Y-3.23400
X-4.66700 Y-3.23500
X-4.66800 Y-3.23500
X-4.66800 Y-3.23600
X-4.66900 Y-3.23600
X-4.66900 Y-3.23800
X-4.67000 Y-3.23800
X-4.67000 Y-3.23900
X-4.67100 Y-3.23900
X-4.67100 Y-3.24000
X-4.67200 Y-3.24000
X-4.67200 Y-3.24100
X-4.67300 Y-3.24100
X-4.67300 Y-3.24200
X-4.67400 Y-3.24200
X-4.67400 Y-3.24300
X-4.67500 Y-3.24300
X-4.67500 Y-3.24400
X-4.67600 Y-3.24400
X-4.67600 Y-3.24500
X-4.67700 Y-3.24500
X-4.67700 Y-3.24600
X-4.67800 Y-3.24600
X-4.67800 Y-3.24700
X-4.67900 Y-3.24700
X-4.67900 Y-3.24800
X-4.68000 Y-3.24800
X-4.68000 Y-3.24900
X-4.68100 Y-3.24900
X-4.68100 Y-3.25000
X-4.68200 Y-3.25000
X-4.68200 Y-3.25100
X-4.68300 Y-3.25100
X-4.68300 Y-3.25200
X-4.68400 Y-3.25200
X-4.68400 Y-3.25300
X-4.68500 Y-3.25300
X-4.68500 Y-3.25400
X-4.68600 Y-3.25400
X-4.68600 Y-3.25500
X-4.68700 Y-3.25500
X-4.68700 Y-3.25600
X-4.68800 Y-3.25600
X-4.68800 Y-3.25800
X-4.68900 Y-3.25800
X-4.68900 Y-3.25900
X-4.69000 Y-3.25900
X-4.69000 Y-3.26000
X-4.69100 Y-3.26000
X-4.69100 Y-3.26100
X-4.69200 Y-3.26100
X-4.69200 Y-3.26200
X-4.69300 Y-3.26200
X-4.69300 Y-3.26300
X-4.69400 Y-3.26300
X-4.69400 Y-3.26500
X-4.69500 Y-3.26500
X-4.69500 Y-3.26600
X-4.69600 Y-3.26600
X-4.69600 Y-3.26700
X-4.69700 Y-3.26700
X-4.69700 Y-3.26800
X-4.69800 Y-3.26800
X-4.69800 Y-3.26900
X-4.69900 Y-3.26900
X-4.69900 Y-3.27000
X-4.70000 Y-3.27000
X-4.70000 Y-3.27100
X-4.70100 Y-3.27100
X-4.70100 Y-3.27300
X-4.70200 Y-3.27300
X-4.70200 Y-3.27400
X-4.70300 Y-3.27400
X-4.70300 Y-3.27500
X-4.70400 Y-3.27500
X-4.70400 Y-3.27600
X-4.70500 Y-3.27600
X-4.70500 Y-3.27700
X-4.70600 Y-3.27700
X-4.70600 Y-3.27800
X-4.70700 Y-3.27800
X-4.70700 Y-3.28000
X-4.70800 Y-3.28000
X-4.70800 Y-3.28100
X-4.70900 Y-3.28100
X-4.70900 Y-3.28200
X-4.71000 Y-3.28200
X-4.71000 Y-3.28300
X-4.71100 Y-3.28300
X-4.71100 Y-3.28400
X-4.71200 Y-3.28400
X-4.71200 Y-3.28500
X-4.71300 Y-3.28500
X-4.71300 Y-3.28600
X-4.71400 Y-3.28600
X-4.71400 Y-3.28800
X-4.71500 Y-3.28800
X-4.71500 Y-3.28900
X-4.71600 Y-3.28900
X-4.71600 Y-3.29000
X-4.71700 Y-3.29000
X-4.71700 Y-3.29100
X-4.71800 Y-3.29100
X-4.71800 Y-3.29200
X-4.71900 Y-3.29200
X-4.71900 Y-3.29300
X-4.72000 Y-3.29300
X-4.72000 Y-3.29500
X-4.72100 Y-3.29500
X-4.72100 Y-3.29600
X-4.72200 Y-3.29600
X-4.72200 Y-3.29700
X-4.72300 Y-3.29700
X-4.72300 Y-3.29900
X-4.72400 Y-3.29900
X-4.72400 Y-3.30000
X-4.72500 Y-3.30000
X-4.72500 Y-3.30100
X-4.72600 Y-3.30100
X-4.72600 Y-3.30200
X-4.72700 Y-3.30200
X-4.72700 Y-3.30400
X-4.72800 Y-3.30400
X-4.72800 Y-3.30500
X-4.72900 Y-3.30500
X-4.72900 Y-3.30600
X-4.73000 Y-3.30600
X-4.73000 Y-3.30700
X-4.73100 Y-3.30700
X-4.73100 Y-3.30900
X-4.73200 Y-3.30900
X-4.73200 Y-3.31000
X-4.73300 Y-3.31000
X-4.73300 Y-3.31100
X-4.73400 Y-3.31100
X-4.73400 Y-3.31300
X-4.73500 Y-3.31300
X-4.73500 Y-3.31400
X-4.73600 Y-3.31400
X-4.73600 Y-3.31500
X-4.73700 Y-3.31500
X-4.73700 Y-3.31600
X-4.73800 Y-3.31600
X-4.73800 Y-3.31800
X-4.73900 Y-3.31800
X-4.73900 Y-3.31900
X-4.74000 Y-3.31900
X-4.74000 Y-3.32000
X-4.74100 Y-3.32000
X-4.74100 Y-3.32100
X-4.74200 Y-3.32100
X-4.74200 Y-3.32300
X-4.74300 Y-3.32300
X-4.74300 Y-3.32400
X-4.74400 Y-3.32400
X-4.74400 Y-3.32500
X-4.74500 Y-3.32500
X-4.74500 Y-3.32700
X-4.74600 Y-3.32700
X-4.74600 Y-3.32800
X-4.74700 Y-3.32800
X-4.74700 Y-3.32900
X-4.74800 Y-3.32900
X-4.74800 Y-3.33000
X-4.74900 Y-3.33000
X-4.74900 Y-3.33200
X-4.75000 Y-3.33200
X-4.75000 Y-3.33300
X-4.75100 Y-3.33300
X-4.75100 Y-3.33400
X-4.75200 Y-3.33400
X-4.75200 Y-3.33600
X-4.75300 Y-3.33600
X-4.75300 Y-3.33700
X-4.75400 Y-3.33700
X-4.75400 Y-3.33900
X-4.75500 Y-3.33900
X-4.75500 Y-3.34000
X-4.75600 Y-3.34000
X-4.75600 Y-3.34100
X-4.75700 Y-3.34100
X-4.75700 Y-3.34300
X-4.75800 Y-3.34300
X-4.75800 Y-3.34400
X-4.75900 Y-3.34400
X-4.75900 Y-3.34600
X-4.76000 Y-3.34600
X-4.76000 Y-3.34700
X-4.76100 Y-3.34700
X-4.76100 Y-3.34900
X-4.76200 Y-3.34900
X-4.76200 Y-3.35000
X-4.76300 Y-3.35000
X-4.76300 Y-3.35100
X-4.76400 Y-3.35100
X-4.76400 Y-3.35300
X-4.76500 Y-3.35300
X-4.76500 Y-3.35400
X-4.76600 Y-3.35400
X-4.76600 Y-3.35600
X-4.76700 Y-3.35600
X-4.76700 Y-3.35700
X-4.76800 Y-3.35700
X-4.76800 Y-3.35800
X-4.76900 Y-3.35800
X-4.76900 Y-3.36000
X-4.77000 Y-3.36000
X-4.77000 Y-3.36100
X-4.77100 Y-3.36100
X-4.77100 Y-3.36300
X-4.77200 Y-3.36300
X-4.77200 Y-3.36400
X-4.77300 Y-3.36400
X-4.77300 Y-3.36500
X-4.77400 Y-3.36500
X-4.77400 Y-3.36700
X-4.77500 Y-3.36700
X-4.77500 Y-3.36800
X-4.77600 Y-3.36800
X-4.77600 Y-3.37000
X-4.77700 Y-3.37000
X-4.77700 Y-3.37100
X-4.77800 Y-3.37100
X-4.77800 Y-3.37300
X-4.77900 Y-3.37300
X-4.77900 Y-3.37400
X-4.78000 Y-3.37400
X-4.78000 Y-3.37600
X-4.78100 Y-3.37600
X-4.78100 Y-3.37700
X-4.78200 Y-3.37700
X-4.78200 Y-3.37900
X-4.78300 Y-3.37900
X-4.78300 Y-3.38000
X-4.78400 Y-3.38000
X-4.78400 Y-3.38200
X-4.78500 Y-3.38200
X-4.78500 Y-3.38400
X-4.78600 Y-3.38400
X-4.78600 Y-3.38500
X-4.78700 Y-3.38500
X-4.78700 Y-3.38700
X-4.78800 Y-3.38700
X-4.78800 Y-3.38800
X-4.78900 Y-3.38800
X-4.78900 Y-3.39000
X-4.79000 Y-3.39000
X-4.79000 Y-3.39100
X-4.79100 Y-3.39100
X-4.79100 Y-3.39300
X-4.79200 Y-3.39300
X-4.79200 Y-3.39400
X-4.79300 Y-3.39400
X-4.79300 Y-3.39600
X-4.79400 Y-3.39600
X-4.79400 Y-3.39800
X-4.79500 Y-3.39800
X-4.79500 Y-3.39900
X-4.79600 Y-3.39900
X-4.79600 Y-3.40100
X-4.79700 Y-3.40100
X-4.79700 Y-3.40200
X-4.79800 Y-3.40200
X-4.79800 Y-3.40400
X-4.79900 Y-3.40400
X-4.79900 Y-3.40500
X-4.80000 Y-3.40500
X-4.80000 Y-3.40700
X-4.80100 Y-3.40700
X-4.80100 Y-3.40800
X-4.80200 Y-3.40800
X-4.80200 Y-3.41000
X-4.80300 Y-3.41000
X-4.80300 Y-3.41200
X-4.80400 Y-3.41200
X-4.80400 Y-3.41300
X-4.80500 Y-3.41300
X-4.80500 Y-3.41500
X-4.80600 Y-3.41500
X-4.80600 Y-3.41700
X-4.80700 Y-3.41700
X-4.80700 Y-3.41900
X-4.80800 Y-3.41900
X-4.80800 Y-3.42000
X-4.80900 Y-3.42000
X-4.80900 Y-3.42200
X-4.81000 Y-3.42200
X-4.81000 Y-3.42400
X-4.81100 Y-3.42400
X-4.81100 Y-3.42500
X-4.81200 Y-3.42500
X-4.81200 Y-3.42700
X-4.81300 Y-3.42700
X-4.81300 Y-3.42900
X-4.81400 Y-3.42900
X-4.81400 Y-3.43100
X-4.81500 Y-3.43100
X-4.81500 Y-3.43200
X-4.81600 Y-3.43200
X-4.81600 Y-3.43400
X-4.81700 Y-3.43400
X-4.81700 Y-3.43600
X-4.81800 Y-3.43600
X-4.81800 Y-3.43800
X-4.81900 Y-3.43800
X-4.81900 Y-3.43900
X-4.82000 Y-3.43900
X-4.82000 Y-3.44100
X-4.82100 Y-3.44100
X-4.82100 Y-3.44300
X-4.82200 Y-3.44300
X-4.82200 Y-3.44500
X-4.82300 Y-3.44500
X-4.82300 Y-3.44600
X-4.82400 Y-3.44600
X-4.82400 Y-3.44800
X-4.82500 Y-3.44800
X-4.82500 Y-3.45000
X-4.82600 Y-3.45000
X-4.82600 Y-3.45200
X-4.82700 Y-3.45200
X-4.82700 Y-3.45300
X-4.82800 Y-3.45300
X-4.82800 Y-3.45500
X-4.82900 Y-3.45500
X-4.82900 Y-3.45700
X-4.83000 Y-3.45700
X-4.83000 Y-3.45900
X-4.83100 Y-3.45900
X-4.83100 Y-3.46100
X-4.83200 Y-3.46100
X-4.83200 Y-3.46300
X-4.83300 Y-3.46300
X-4.83300 Y-3.46500
X-4.83400 Y-3.46500
X-4.83400 Y-3.46700
X-4.83500 Y-3.46700
X-4.83500 Y-3.46900
X-4.83600 Y-3.46900
X-4.83600 Y-3.47100
X-4.83700 Y-3.47100
X-4.83700 Y-3.47300
X-4.83800 Y-3.47300
X-4.83800 Y-3.47500
X-4.83900 Y-3.47500
X-4.83900 Y-3.47700
X-4.84000 Y-3.47700
X-4.84000 Y-3.47900
X-4.84100 Y-3.47900
X-4.84100 Y-3.48100
X-4.84200 Y-3.48100
X-4.84200 Y-3.48200
X-4.84300 Y-3.48200
X-4.84300 Y-3.48400
X-4.84400 Y-3.48400
X-4.84400 Y-3.48600
X-4.84500 Y-3.48600
X-4.84500 Y-3.48800
X-4.84600 Y-3.48800
X-4.84600 Y-3.49000
X-4.84700 Y-3.49000
X-4.84700 Y-3.49200
X-4.84800 Y-3.49200
X-4.84800 Y-3.49400
X-4.84900 Y-3.49400
X-4.84900 Y-3.49600
X-4.85000 Y-3.49600
X-4.85000 Y-3.49800
X-4.85100 Y-3.49800
X-4.85100 Y-3.50000
X-4.85200 Y-3.50000
X-4.85200 Y-3.50300
X-4.85300 Y-3.50300
X-4.85300 Y-3.50500
X-4.85400 Y-3.50500
X-4.85400 Y-3.50700
X-4.85500 Y-3.50700
X-4.85500 Y-3.50900
X-4.85600 Y-3.50900
X-4.85600 Y-3.51100
X-4.85700 Y-3.51100
X-4.85700 Y-3.51400
X-4.85800 Y-3.51400
X-4.85800 Y-3.51600
X-4.85900 Y-3.51600
X-4.85900 Y-3.51800
X-4.86000 Y-3.51800
X-4.86000 Y-3.52000
X-4.86100 Y-3.52000
X-4.86100 Y-3.52200
X-4.86200 Y-3.52200
X-4.86200 Y-3.52500
X-4.86300 Y-3.52500
X-4.86300 Y-3.52700
X-4.86400 Y-3.52700
X-4.86400 Y-3.52900
X-4.86500 Y-3.52900
X-4.86500 Y-3.53100
X-4.86600 Y-3.53100
X-4.86600 Y-3.53400
X-4.86700 Y-3.53400
X-4.86700 Y-3.53600
X-4.86800 Y-3.53600
X-4.86800 Y-3.53800
X-4.86900 Y-3.53800
X-4.86900 Y-3.54000
X-4.87000 Y-3.54000
X-4.87000 Y-3.54200
X-4.87100 Y-3.54200
X-4.87100 Y-3.54500
X-4.87200 Y-3.54500
X-4.87200 Y-3.54700
X-4.87300 Y-3.54700
X-4.87300 Y-3.55000
X-4.87400 Y-3.55000
X-4.87400 Y-3.55200
X-4.87500 Y-3.55200
X-4.87500 Y-3.55500
X-4.87600 Y-3.55500
X-4.87600 Y-3.55800
X-4.87700 Y-3.55800
X-4.87700 Y-3.56000
X-4.87800 Y-3.56000
X-4.87800 Y-3.56300
X-4.87900 Y-3.56300
X-4.87900 Y-3.56500
X-4.88000 Y-3.56500
X-4.88000 Y-3.56800
X-4.88100 Y-3.56800
X-4.88100 Y-3.57000
X-4.88200 Y-3.57000
X-4.88200 Y-3.57300
X-4.88300 Y-3.57300
X-4.88300 Y-3.57500
X-4.88400 Y-3.57500
X-4.88400 Y-3.57800
X-4.88500 Y-3.57800
X-4.88500 Y-3.58000
X-4.88600 Y-3.58000
X-4.88600 Y-3.58300
X-4.88700 Y-3.58300
X-4.88700 Y-3.58500
X-4.88800 Y-3.58500
X-4.88800 Y-3.58800
X-4.88900 Y-3.58800
X-4.88900 Y-3.59100
X-4.89000 Y-3.59100
X-4.89000 Y-3.59400
X-4.89100 Y-3.59400
X-4.89100 Y-3.59700
X-4.89200 Y-3.59700
X-4.89200 Y-3.60000
X-4.89300 Y-3.60000
X-4.89300 Y-3.60300
X-4.89400 Y-3.60300
X-4.89400 Y-3.60600
X-4.89500 Y-3.60600
X-4.89500 Y-3.60900
X-4.89600 Y-3.60900
X-4.89600 Y-3.61200
X-4.89700 Y-3.61200
X-4.89700 Y-3.61400
X-4.89800 Y-3.61400
X-4.89800 Y-3.61700
X-4.89900 Y-3.61700
X-4.89900 Y-3.62000
X-4.90000 Y-3.62000
X-4.90000 Y-3.62300
X-4.90100 Y-3.62300
X-4.90100 Y-3.62600
X-4.90200 Y-3.62600
X-4.90200 Y-3.62900
X-4.90300 Y-3.62900
X-4.90300 Y-3.63200
X-4.90400 Y-3.63200
X-4.90400 Y-3.63500
X-4.90500 Y-3.63500
X-4.90500 Y-3.63900
X-4.90600 Y-3.63900
X-4.90600 Y-3.64200
X-4.90700 Y-3.64200
X-4.90700 Y-3.64600
X-4.90800 Y-3.64600
X-4.90800 Y-3.64900
X-4.90900 Y-3.64900
X-4.90900 Y-3.65300
X-4.91000 Y-3.65300
X-4.91000 Y-3.65600
X-4.91100 Y-3.65600
X-4.91100 Y-3.66000
X-4.91200 Y-3.66000
X-4.91200 Y-3.66300
X-4.91300 Y-3.66300
X-4.91300 Y-3.66700
X-4.91400 Y-3.66700
X-4.91400 Y-3.67000
X-4.91500 Y-3.67000
X-4.91500 Y-3.67400
X-4.91600 Y-3.67400
X-4.91600 Y-3.67700
X-4.91700 Y-3.67700
X-4.91700 Y-3.68100
X-4.91800 Y-3.68100
X-4.91800 Y-3.68500
X-4.91900 Y-3.68500
X-4.91900 Y-3.68900
X-4.92000 Y-3.68900
X-4.92000 Y-3.69300
X-4.92100 Y-3.69300
X-4.92100 Y-3.69800
X-4.92200 Y-3.69800
X-4.92200 Y-3.70200
X-4.92300 Y-3.70200
X-4.92300 Y-3.70600
X-4.92400 Y-3.70600
X-4.92400 Y-3.71100
X-4.92500 Y-3.71100
X-4.92500 Y-3.71500
X-4.92600 Y-3.71500
X-4.92600 Y-3.71900
X-4.92700 Y-3.71900
X-4.92700 Y-3.72400
X-4.92800 Y-3.72400
X-4.92800 Y-3.72800
X-4.92900 Y-3.72800
X-4.92900 Y-3.73200
X-4.93000 Y-3.73200
X-4.93000 Y-3.73800
X-4.93100 Y-3.73800
X-4.93100 Y-3.74300
X-4.93200 Y-3.74300
X-4.93200 Y-3.74900
X-4.93300 Y-3.74900
X-4.93300 Y-3.75400
X-4.93400 Y-3.75400
X-4.93400 Y-3.76000
X-4.93500 Y-3.76000
X-4.93500 Y-3.76600
X-4.93600 Y-3.76600
X-4.93600 Y-3.77100
X-4.93700 Y-3.77100
X-4.93700 Y-3.77700
X-4.93800 Y-3.77700
X-4.93800 Y-3.78300
X-4.93900 Y-3.78300
X-4.93900 Y-3.79000
X-4.94000 Y-3.79000
X-4.94000 Y-3.79800
X-4.94100 Y-3.79800
X-4.94100 Y-3.80600
X-4.94200 Y-3.80600
X-4.94200 Y-3.81400
X-4.94300 Y-3.81400
X-4.94300 Y-3.82200
X-4.94400 Y-3.82200
X-4.94400 Y-3.83000
X-4.94500 Y-3.83000
X-4.94500 Y-3.84100
X-4.94600 Y-3.84100
X-4.94600 Y-3.85400
X-4.94700 Y-3.85400
X-4.94700 Y-3.86700
X-4.94800 Y-3.86700
X-4.94800 Y-3.88000
X-4.94900 Y-3.88000
X-4.94900 Y-3.91100
X-4.95000 Y-3.91100
X-4.95000 Y-3.96300
X-4.94900 Y-3.96300
X-4.94900 Y-3.99400
X-4.94800 Y-3.99400
X-4.94800 Y-4.00700
X-4.94700 Y-4.00700
X-4.94700 Y-4.02000
X-4.94600 Y-4.02000
X-4.94600 Y-4.03300
X-4.94500 Y-4.03300
X-4.94500 Y-4.04400
X-4.94400 Y-4.04400
X-4.94400 Y-4.05200
X-4.94300 Y-4.05200
X-4.94300 Y-4.06000
X-4.94200 Y-4.06000
X-4.94200 Y-4.06800
X-4.94100 Y-4.06800
X-4.94100 Y-4.07600
X-4.94000 Y-4.07600
X-4.94000 Y-4.08300
X-4.93900 Y-4.08300
X-4.93900 Y-4.09100
X-4.93800 Y-4.09100
X-4.93800 Y-4.09700
X-4.93700 Y-4.09700
X-4.93700 Y-4.10300
X-4.93600 Y-4.10300
X-4.93600 Y-4.10800
X-4.93500 Y-4.10800
X-4.93500 Y-4.11400
X-4.93400 Y-4.11400
X-4.93400 Y-4.11900
X-4.93300 Y-4.11900
X-4.93300 Y-4.12500
X-4.93200 Y-4.12500
X-4.93200 Y-4.13100
X-4.93100 Y-4.13100
X-4.93100 Y-4.13600
X-4.93000 Y-4.13600
X-4.93000 Y-4.14200
X-4.92900 Y-4.14200
X-4.92900 Y-4.14600
X-4.92800 Y-4.14600
X-4.92800 Y-4.15000
X-4.92700 Y-4.15000
X-4.92700 Y-4.15500
X-4.92600 Y-4.15500
X-4.92600 Y-4.15900
X-4.92500 Y-4.15900
X-4.92500 Y-4.16300
X-4.92400 Y-4.16300
X-4.92400 Y-4.16800
X-4.92300 Y-4.16800
X-4.92300 Y-4.17200
X-4.92200 Y-4.17200
X-4.92200 Y-4.17600
X-4.92100 Y-4.17600
X-4.92100 Y-4.18100
X-4.92000 Y-4.18100
X-4.92000 Y-4.18500
X-4.91900 Y-4.18500
X-4.91900 Y-4.18900
X-4.91800 Y-4.18900
X-4.91800 Y-4.19300
X-4.91700 Y-4.19300
X-4.91700 Y-4.19700
X-4.91600 Y-4.19700
X-4.91600 Y-4.20000
X-4.91500 Y-4.20000
X-4.91500 Y-4.20400
X-4.91400 Y-4.20400
X-4.91400 Y-4.20700
X-4.91300 Y-4.20700
X-4.91300 Y-4.21100
X-4.91200 Y-4.21100
X-4.91200 Y-4.21400
X-4.91100 Y-4.21400
X-4.91100 Y-4.21800
X-4.91000 Y-4.21800
X-4.91000 Y-4.22100
X-4.90900 Y-4.22100
X-4.90900 Y-4.22500
X-4.90800 Y-4.22500
X-4.90800 Y-4.22800
X-4.90700 Y-4.22800
X-4.90700 Y-4.23200
X-4.90600 Y-4.23200
X-4.90600 Y-4.23500
X-4.90500 Y-4.23500
X-4.90500 Y-4.23900
X-4.90400 Y-4.23900
X-4.90400 Y-4.24200
X-4.90300 Y-4.24200
X-4.90300 Y-4.24500
X-4.90200 Y-4.24500
X-4.90200 Y-4.24800
X-4.90100 Y-4.24800
X-4.90100 Y-4.25100
X-4.90000 Y-4.25100
X-4.90000 Y-4.25300
X-4.89900 Y-4.25300
X-4.89900 Y-4.25600
X-4.89800 Y-4.25600
X-4.89800 Y-4.25900
X-4.89700 Y-4.25900
X-4.89700 Y-4.26200
X-4.89600 Y-4.26200
X-4.89600 Y-4.26500
X-4.89500 Y-4.26500
X-4.89500 Y-4.26800
X-4.89400 Y-4.26800
X-4.89400 Y-4.27100
X-4.89300 Y-4.27100
X-4.89300 Y-4.27400
X-4.89200 Y-4.27400
X-4.89200 Y-4.27700
X-4.89100 Y-4.27700
X-4.89100 Y-4.28000
X-4.89000 Y-4.28000
X-4.89000 Y-4.28300
X-4.88900 Y-4.28300
X-4.88900 Y-4.28600
X-4.88800 Y-4.28600
X-4.88800 Y-4.28800
X-4.88700 Y-4.28800
X-4.88700 Y-4.29100
X-4.88600 Y-4.29100
X-4.88600 Y-4.29300
X-4.88500 Y-4.29300
X-4.88500 Y-4.29600
X-4.88400 Y-4.29600
X-4.88400 Y-4.29900
X-4.88300 Y-4.29900
X-4.88300 Y-4.30100
X-4.88200 Y-4.30100
X-4.88200 Y-4.30400
X-4.88100 Y-4.30400
X-4.88100 Y-4.30600
X-4.88000 Y-4.30600
X-4.88000 Y-4.30900
X-4.87900 Y-4.30900
X-4.87900 Y-4.31100
X-4.87800 Y-4.31100
X-4.87800 Y-4.31400
X-4.87700 Y-4.31400
X-4.87700 Y-4.31600
X-4.87600 Y-4.31600
X-4.87600 Y-4.31900
X-4.87500 Y-4.31900
X-4.87500 Y-4.32100
X-4.87400 Y-4.32100
X-4.87400 Y-4.32400
X-4.87300 Y-4.32400
X-4.87300 Y-4.32600
X-4.87200 Y-4.32600
X-4.87200 Y-4.32900
X-4.87100 Y-4.32900
X-4.87100 Y-4.33100
X-4.87000 Y-4.33100
X-4.87000 Y-4.33400
X-4.86900 Y-4.33400
X-4.86900 Y-4.33600
X-4.86800 Y-4.33600
X-4.86800 Y-4.33800
X-4.86700 Y-4.33800
X-4.86700 Y-4.34000
X-4.86600 Y-4.34000
X-4.86600 Y-4.34300
X-4.86500 Y-4.34300
X-4.86500 Y-4.34500
X-4.86400 Y-4.34500
X-4.86400 Y-4.34700
X-4.86300 Y-4.34700
X-4.86300 Y-4.34900
X-4.86200 Y-4.34900
X-4.86200 Y-4.35100
X-4.86100 Y-4.35100
X-4.86100 Y-4.35400
X-4.86000 Y-4.35400
X-4.86000 Y-4.35600
X-4.85900 Y-4.35600
X-4.85900 Y-4.35800
X-4.85800 Y-4.35800
X-4.85800 Y-4.36000
X-4.85700 Y-4.36000
X-4.85700 Y-4.36200
X-4.85600 Y-4.36200
X-4.85600 Y-4.36500
X-4.85500 Y-4.36500
X-4.85500 Y-4.36700
X-4.85400 Y-4.36700
X-4.85400 Y-4.36900
X-4.85300 Y-4.36900
X-4.85300 Y-4.37100
X-4.85200 Y-4.37100
X-4.85200 Y-4.37400
X-4.85100 Y-4.37400
X-4.85100 Y-4.37600
X-4.85000 Y-4.37600
X-4.85000 Y-4.37800
X-4.84900 Y-4.37800
X-4.84900 Y-4.38000
X-4.84800 Y-4.38000
X-4.84800 Y-4.38200
X-4.84700 Y-4.38200
X-4.84700 Y-4.38400
X-4.84600 Y-4.38400
X-4.84600 Y-4.38600
X-4.84500 Y-4.38600
X-4.84500 Y-4.38700
X-4.84400 Y-4.38700
X-4.84400 Y-4.38900
X-4.84300 Y-4.38900
X-4.84300 Y-4.39100
X-4.84200 Y-4.39100
X-4.84200 Y-4.39300
X-4.84100 Y-4.39300
X-4.84100 Y-4.39500
X-4.84000 Y-4.39500
X-4.84000 Y-4.39700
X-4.83900 Y-4.39700
X-4.83900 Y-4.39900
X-4.83800 Y-4.39900
X-4.83800 Y-4.40100
X-4.83700 Y-4.40100
X-4.83700 Y-4.40300
X-4.83600 Y-4.40300
X-4.83600 Y-4.40500
X-4.83500 Y-4.40500
X-4.83500 Y-4.40700
X-4.83400 Y-4.40700
X-4.83400 Y-4.40900
X-4.83300 Y-4.40900
X-4.83300 Y-4.41100
X-4.83200 Y-4.41100
X-4.83200 Y-4.41300
X-4.83100 Y-4.41300
X-4.83100 Y-4.41500
X-4.83000 Y-4.41500
X-4.83000 Y-4.41700
X-4.82900 Y-4.41700
X-4.82900 Y-4.41900
X-4.82800 Y-4.41900
X-4.82800 Y-4.42100
X-4.82700 Y-4.42100
X-4.82700 Y-4.42200
X-4.82600 Y-4.42200
X-4.82600 Y-4.42400
X-4.82500 Y-4.42400
X-4.82500 Y-4.42600
X-4.82400 Y-4.42600
X-4.82400 Y-4.42700
X-4.82300 Y-4.42700
X-4.82300 Y-4.42900
X-4.82200 Y-4.42900
X-4.82200 Y-4.43100
X-4.82100 Y-4.43100
X-4.82100 Y-4.43300
X-4.82000 Y-4.43300
X-4.82000 Y-4.43400
X-4.81900 Y-4.43400
X-4.81900 Y-4.43600
X-4.81800 Y-4.43600
X-4.81800 Y-4.43800
X-4.81700 Y-4.43800
X-4.81700 Y-4.44000
X-4.81600 Y-4.44000
X-4.81600 Y-4.44100
X-4.81500 Y-4.44100
X-4.81500 Y-4.44300
X-4.81400 Y-4.44300
X-4.81400 Y-4.44500
X-4.81300 Y-4.44500
X-4.81300 Y-4.44700
X-4.81200 Y-4.44700
X-4.81200 Y-4.44800
X-4.81100 Y-4.44800
X-4.81100 Y-4.45000
X-4.81000 Y-4.45000
X-4.81000 Y-4.45200
X-4.80900 Y-4.45200
X-4.80900 Y-4.45400
X-4.80800 Y-4.45400
X-4.80800 Y-4.45500
X-4.80700 Y-4.45500
X-4.80700 Y-4.45700
X-4.80600 Y-4.45700
X-4.80600 Y-4.45900
X-4.80500 Y-4.45900
X-4.80500 Y-4.46100
X-4.80400 Y-4.46100
X-4.80400 Y-4.46200
X-4.80300 Y-4.46200
X-4.80300 Y-4.46400
X-4.80200 Y-4.46400
X-4.80200 Y-4.46500
X-4.80100 Y-4.46500
X-4.80100 Y-4.46700
X-4.80000 Y-4.46700
X-4.80000 Y-4.46800
X-4.79900 Y-4.46800
X-4.79900 Y-4.47000
X-4.79800 Y-4.47000
X-4.79800 Y-4.47200
X-4.79700 Y-4.47200
X-4.79700 Y-4.47300
X-4.79600 Y-4.47300
X-4.79600 Y-4.47500
X-4.79500 Y-4.47500
X-4.79500 Y-4.47600
X-4.79400 Y-4.47600
X-4.79400 Y-4.47800
X-4.79300 Y-4.47800
X-4.79300 Y-4.47900
X-4.79200 Y-4.47900
X-4.79200 Y-4.48100
X-4.79100 Y-4.48100
X-4.79100 Y-4.48300
X-4.79000 Y-4.48300
X-4.79000 Y-4.48400
X-4.78900 Y-4.48400
X-4.78900 Y-4.48600
X-4.78800 Y-4.48600
X-4.78800 Y-4.48700
X-4.78700 Y-4.48700
X-4.78700 Y-4.48900
X-4.78600 Y-4.48900
X-4.78600 Y-4.49000
X-4.78500 Y-4.49000
X-4.78500 Y-4.49200
X-4.78400 Y-4.49200
X-4.78400 Y-4.49300
X-4.78300 Y-4.49300
X-4.78300 Y-4.49500
X-4.78200 Y-4.49500
X-4.78200 Y-4.49700
X-4.78100 Y-4.49700
X-4.78100 Y-4.49800
X-4.78000 Y-4.49800
X-4.78000 Y-4.50000
X-4.77900 Y-4.50000
X-4.77900 Y-4.50100
X-4.77800 Y-4.50100
X-4.77800 Y-4.50300
X-4.77700 Y-4.50300
X-4.77700 Y-4.50400
X-4.77600 Y-4.50400
X-4.77600 Y-4.50600
X-4.77500 Y-4.50600
X-4.77500 Y-4.50700
X-4.77400 Y-4.50700
X-4.77400 Y-4.50800
X-4.77300 Y-4.50800
X-4.77300 Y-4.51000
X-4.77200 Y-4.51000
X-4.77200 Y-4.51100
X-4.77100 Y-4.51100
X-4.77100 Y-4.51300
X-4.77000 Y-4.51300
X-4.77000 Y-4.51400
X-4.76900 Y-4.51400
X-4.76900 Y-4.51500
X-4.76800 Y-4.51500
X-4.76800 Y-4.51700
X-4.76700 Y-4.51700
X-4.76700 Y-4.51800
X-4.76600 Y-4.51800
X-4.76600 Y-4.52000
X-4.76500 Y-4.52000
X-4.76500 Y-4.52100
X-4.76400 Y-4.52100
X-4.76400 Y-4.52300
X-4.76300 Y-4.52300
X-4.76300 Y-4.52400
X-4.76200 Y-4.52400
X-4.76200 Y-4.52500
X-4.76100 Y-4.52500
X-4.76100 Y-4.52700
X-4.76000 Y-4.52700
X-4.76000 Y-4.52800
X-4.75900 Y-4.52800
X-4.75900 Y-4.53000
X-4.75800 Y-4.53000
X-4.75800 Y-4.53100
X-4.75700 Y-4.53100
X-4.75700 Y-4.53200
X-4.75600 Y-4.53200
X-4.75600 Y-4.53400
X-4.75500 Y-4.53400
X-4.75500 Y-4.53500
X-4.75400 Y-4.53500
X-4.75400 Y-4.53700
X-4.75300 Y-4.53700
X-4.75300 Y-4.53800
X-4.75200 Y-4.53800
X-4.75200 Y-4.53900
X-4.75100 Y-4.53900
X-4.75100 Y-4.54100
X-4.75000 Y-4.54100
X-4.75000 Y-4.54200
X-4.74900 Y-4.54200
X-4.74900 Y-4.54400
X-4.74800 Y-4.54400
X-4.74800 Y-4.54500
X-4.74700 Y-4.54500
X-4.74700 Y-4.54600
X-4.74600 Y-4.54600
X-4.74600 Y-4.54700
X-4.74500 Y-4.54700
X-4.74500 Y-4.54900
X-4.74400 Y-4.54900
X-4.74400 Y-4.55000
X-4.74300 Y-4.55000
X-4.74300 Y-4.55100
X-4.74200 Y-4.55100
X-4.74200 Y-4.55200
X-4.74100 Y-4.55200
X-4.74100 Y-4.55400
X-4.74000 Y-4.55400
X-4.74000 Y-4.55500
X-4.73900 Y-4.55500
X-4.73900 Y-4.55600
X-4.73800 Y-4.55600
X-4.73800 Y-4.55800
X-4.73700 Y-4.55800
X-4.73700 Y-4.55900
X-4.73600 Y-4.55900
X-4.73600 Y-4.56000
X-4.73500 Y-4.56000
X-4.73500 Y-4.56100
X-4.73400 Y-4.56100
X-4.73400 Y-4.56300
X-4.73300 Y-4.56300
X-4.73300 Y-4.56400
X-4.73200 Y-4.56400
X-4.73200 Y-4.56500
X-4.73100 Y-4.56500
X-4.73100 Y-4.56600
X-4.73000 Y-4.56600
X-4.73000 Y-4.56800
X-4.72900 Y-4.56800
X-4.72900 Y-4.56900
X-4.72800 Y-4.56900
X-4.72800 Y-4.57000
X-4.72700 Y-4.57000
X-4.72700 Y-4.57200
X-4.72600 Y-4.57200
X-4.72600 Y-4.57300
X-4.72500 Y-4.57300
X-4.72500 Y-4.57400
X-4.72400 Y-4.57400
X-4.72400 Y-4.57500
X-4.72300 Y-4.57500
X-4.72300 Y-4.57700
X-4.72200 Y-4.57700
X-4.72200 Y-4.57800
X-4.72100 Y-4.57800
X-4.72100 Y-4.57900
X-4.72000 Y-4.57900
X-4.72000 Y-4.58000
X-4.71900 Y-4.58000
X-4.71900 Y-4.58200
X-4.71800 Y-4.58200
X-4.71800 Y-4.58300
X-4.71700 Y-4.58300
X-4.71700 Y-4.58400
X-4.71600 Y-4.58400
X-4.71600 Y-4.58500
X-4.71500 Y-4.58500
X-4.71500 Y-4.58600
X-4.71400 Y-4.58600
X-4.71400 Y-4.58700
X-4.71300 Y-4.58700
X-4.71300 Y-4.58900
X-4.71200 Y-4.58900
X-4.71200 Y-4.59000
X-4.71100 Y-4.59000
X-4.71100 Y-4.59100
X-4.71000 Y-4.59100
X-4.71000 Y-4.59200
X-4.70900 Y-4.59200
X-4.70900 Y-4.59300
X-4.70800 Y-4.59300
X-4.70800 Y-4.59400
X-4.70700 Y-4.59400
X-4.70700 Y-4.59500
X-4.70600 Y-4.59500
X-4.70600 Y-4.59700
X-4.70500 Y-4.59700
X-4.70500 Y-4.59800
X-4.70400 Y-4.59800
X-4.70400 Y-4.59900
X-4.70300 Y-4.59900
X-4.70300 Y-4.60000
X-4.70200 Y-4.60000
X-4.70200 Y-4.60100
X-4.70100 Y-4.60100
X-4.70100 Y-4.60200
X-4.70000 Y-4.60200
X-4.70000 Y-4.60400
X-4.69900 Y-4.60400
X-4.69900 Y-4.60500
X-4.69800 Y-4.60500
X-4.69800 Y-4.60600
X-4.69700 Y-4.60600
X-4.69700 Y-4.60700
X-4.69600 Y-4.60700
X-4.69600 Y-4.60800
X-4.69500 Y-4.60800
X-4.69500 Y-4.60900
X-4.69400 Y-4.60900
X-4.69400 Y-4.61000
X-4.69300 Y-4.61000
X-4.69300 Y-4.61200
X-4.69200 Y-4.61200
X-4.69200 Y-4.61300
X-4.69100 Y-4.61300
X-4.69100 Y-4.61400
X-4.69000 Y-4.61400
X-4.69000 Y-4.61500
X-4.68900 Y-4.61500
X-4.68900 Y-4.61600
X-4.68800 Y-4.61600
X-4.68800 Y-4.61700
X-4.68700 Y-4.61700
X-4.68700 Y-4.61800
X-4.68600 Y-4.61800
X-4.68600 Y-4.62000
X-4.68500 Y-4.62000
X-4.68500 Y-4.62100
X-4.68400 Y-4.62100
X-4.68400 Y-4.62200
X-4.68300 Y-4.62200
X-4.68300 Y-4.62300
X-4.68200 Y-4.62300
X-4.68200 Y-4.62400
X-4.68100 Y-4.62400
X-4.68100 Y-4.62500
X-4.68000 Y-4.62500
X-4.68000 Y-4.62600
X-4.67900 Y-4.62600
X-4.67900 Y-4.62700
X-4.67800 Y-4.62700
X-4.67800 Y-4.62800
X-4.67700 Y-4.62800
X-4.67700 Y-4.62900
X-4.67600 Y-4.62900
X-4.67600 Y-4.63000
X-4.67500 Y-4.63000
X-4.67500 Y-4.63100
X-4.67400 Y-4.63100
X-4.67400 Y-4.63200
X-4.67300 Y-4.63200
X-4.67300 Y-4.63300
X-4.67200 Y-4.63300
X-4.67200 Y-4.63400
X-4.67100 Y-4.63400
X-4.67100 Y-4.63500
X-4.67000 Y-4.63500
X-4.67000 Y-4.63600
X-4.66900 Y-4.63600
X-4.66900 Y-4.63700
X-4.66800 Y-4.63700
X-4.66800 Y-4.63800
X-4.66700 Y-4.63800
X-4.66700 Y-4.63900
X-4.66600 Y-4.63900
X-4.66600 Y-4.64100
X-4.66500 Y-4.64100
X-4.66500 Y-4.64200
X-4.66400 Y-4.64200
X-4.66400 Y-4.64300
X-4.66300 Y-4.64300
X-4.66300 Y-4.64400
X-4.66200 Y-4.64400
X-4.66200 Y-4.64500
X-4.66100 Y-4.64500
X-4.66100 Y-4.64600
X-4.66000 Y-4.64600
X-4.66000 Y-4.64700
X-4.65900 Y-4.64700
X-4.65900 Y-4.64800
X-4.65800 Y-4.64800
X-4.65800 Y-4.64900
X-4.65700 Y-4.64900
X-4.65700 Y-4.65000
X-4.65600 Y-4.65000
X-4.65600 Y-4.65100
X-4.65500 Y-4.65100
X-4.65500 Y-4.65200
X-4.65400 Y-4.65200
X-4.65400 Y-4.65300
X-4.65300 Y-4.65300
X-4.65300 Y-4.65400
X-4.65200 Y-4.65400
X-4.65200 Y-4.65500
X-4.65100 Y-4.65500
X-4.65100 Y-4.65600
X-4.65000 Y-4.65600
X-4.65000 Y-4.65700
X-4.64900 Y-4.65700
X-4.64900 Y-4.65800
X-4.64800 Y-4.65800
X-4.64800 Y-4.65900
X-4.64700 Y-4.65900
X-4.64700 Y-4.66000
X-4.64600 Y-4.66000
X-4.64600 Y-4.66100
X-4.64500 Y-4.66100
X-4.64500 Y-4.66200
X-4.64400 Y-4.66200
X-4.64400 Y-4.66300
X-4.64300 Y-4.66300
X-4.64300 Y-4.66400
X-4.64200 Y-4.66400
X-4.64200 Y-4.66500
X-4.64100 Y-4.66500
X-4.64100 Y-4.66600
X-4.63900 Y-4.66600
X-4.63900 Y-4.66700
X-4.63800 Y-4.66700
X-4.63800 Y-4.66800
X-4.63700 Y-4.66800
X-4.63700 Y-4.66900
X-4.63600 Y-4.66900
X-4.63600 Y-4.67000
X-4.63500 Y-4.67000
X-4.63500 Y-4.67100
X-4.63400 Y-4.67100
X-4.63400 Y-4.67200
X-4.63300 Y-4.67200
X-4.63300 Y-4.67300
X-4.63200 Y-4.67300
X-4.63200 Y-4.67400
X-4.63100 Y-4.67400
X-4.63100 Y-4.67500
X-4.63000 Y-4.67500
X-4.63000 Y-4.67600
X-4.62900 Y-4.67600
X-4.62900 Y-4.67700
X-4.62800 Y-4.67700
X-4.62800 Y-4.67800
X-4.62700 Y-4.67800
X-4.62700 Y-4.67900
X-4.62600 Y-4.67900
X-4.62600 Y-4.68000
X-4.62500 Y-4.68000
X-4.62500 Y-4.68100
X-4.62400 Y-4.68100
X-4.62400 Y-4.68200
X-4.62300 Y-4.68200
X-4.62300 Y-4.68300
X-4.62200 Y-4.68300
X-4.62200 Y-4.68400
X-4.62100 Y-4.68400
X-4.62100 Y-4.68500
X-4.62000 Y-4.68500
X-4.62000 Y-4.68600
X-4.61900 Y-4.68600
X-4.61900 Y-4.68700
X-4.61700 Y-4.68700
X-4.61700 Y-4.68800
X-4.61600 Y-4.68800
X-4.61600 Y-4.68900
X-4.61500 Y-4.68900
X-4.61500 Y-4.69000
X-4.61400 Y-4.69000
X-4.61400 Y-4.69100
X-4.61300 Y-4.69100
X-4.61300 Y-4.69200
X-4.61200 Y-4.69200
X-4.61200 Y-4.69300
X-4.61100 Y-4.69300
X-4.61100 Y-4.69400
X-4.60900 Y-4.69400
X-4.60900 Y-4.69500
X-4.60800 Y-4.69500
X-4.60800 Y-4.69600
X-4.60700 Y-4.69600
X-4.60700 Y-4.69700
X-4.60600 Y-4.69700
X-4.60600 Y-4.69800
X-4.60500 Y-4.69800
X-4.60500 Y-4.69900
X-4.60400 Y-4.69900
X-4.60400 Y-4.70000
X-4.60300 Y-4.70000
X-4.60300 Y-4.70100
X-4.60100 Y-4.70100
X-4.60100 Y-4.70200
X-4.60000 Y-4.70200
X-4.60000 Y-4.70300
X-4.59900 Y-4.70300
X-4.59900 Y-4.70400
X-4.59800 Y-4.70400
X-4.59800 Y-4.70500
X-4.59700 Y-4.70500
X-4.59700 Y-4.70600
X-4.59600 Y-4.70600
X-4.59600 Y-4.70700
X-4.59400 Y-4.70700
X-4.59400 Y-4.70800
X-4.59300 Y-4.70800
X-4.59300 Y-4.70900
X-4.59200 Y-4.70900
X-4.59200 Y-4.71000
X-4.59100 Y-4.71000
X-4.59100 Y-4.71100
X-4.59000 Y-4.71100
X-4.59000 Y-4.71200
X-4.58900 Y-4.71200
X-4.58900 Y-4.71300
X-4.58800 Y-4.71300
X-4.58800 Y-4.71400
X-4.58600 Y-4.71400
X-4.58600 Y-4.71500
X-4.58500 Y-4.71500
X-4.58500 Y-4.71600
X-4.58400 Y-4.71600
X-4.58400 Y-4.71700
X-4.58300 Y-4.71700
X-4.58300 Y-4.71800
X-4.58200 Y-4.71800
X-4.58200 Y-4.71900
X-4.58100 Y-4.71900
X-4.58100 Y-4.72000
X-4.57900 Y-4.72000
X-4.57900 Y-4.72100
X-4.57800 Y-4.72100
X-4.57800 Y-4.72200
X-4.57700 Y-4.72200
X-4.57700 Y-4.72300
X-4.57600 Y-4.72300
X-4.57600 Y-4.72400
X-4.57400 Y-4.72400
X-4.57400 Y-4.72500
X-4.57300 Y-4.72500
X-4.57300 Y-4.72600
X-4.57200 Y-4.72600
X-4.57200 Y-4.72700
X-4.57000 Y-4.72700
X-4.57000 Y-4.72800
X-4.56900 Y-4.72800
X-4.56900 Y-4.72900
X-4.56800 Y-4.72900
X-4.56800 Y-4.73000
X-4.56700 Y-4.73000
X-4.56700 Y-4.73100
X-4.56500 Y-4.73100
X-4.56500 Y-4.73200
X-4.56400 Y-4.73200
X-4.56400 Y-4.73300
X-4.56300 Y-4.73300
X-4.56300 Y-4.73400
X-4.56200 Y-4.73400
X-4.56200 Y-4.73500
X-4.56000 Y-4.73500
X-4.56000 Y-4.73600
X-4.55900 Y-4.73600
X-4.55900 Y-4.73700
X-4.55800 Y-4.73700
X-4.55800 Y-4.73800
X-4.55600 Y-4.73800
X-4.55600 Y-4.73900
X-4.55500 Y-4.73900
X-4.55500 Y-4.74000
X-4.55400 Y-4.74000
X-4.55400 Y-4.74100
X-4.55300 Y-4.74100
X-4.55300 Y-4.74200
X-4.55100 Y-4.74200
X-4.55100 Y-4.74300
X-4.55000 Y-4.74300
X-4.55000 Y-4.74400
X-4.54900 Y-4.74400
X-4.54900 Y-4.74500
X-4.54800 Y-4.74500
X-4.54800 Y-4.74600
X-4.54600 Y-4.74600
X-4.54600 Y-4.74700
X-4.54500 Y-4.74700
X-4.54500 Y-4.74800
X-4.54400 Y-4.74800
X-4.54400 Y-4.74900
X-4.54200 Y-4.74900
X-4.54200 Y-4.75000
X-4.54100 Y-4.75000
X-4.54100 Y-4.75100
X-4.54000 Y-4.75100
X-4.54000 Y-4.75200
X-4.53800 Y-4.75200
X-4.53800 Y-4.75300
X-4.53700 Y-4.75300
X-4.53700 Y-4.75400
X-4.53600 Y-4.75400
X-4.53600 Y-4.75500
X-4.53400 Y-4.75500
X-4.53400 Y-4.75600
X-4.53300 Y-4.75600
X-4.53300 Y-4.75700
X-4.53100 Y-4.75700
X-4.53100 Y-4.75800
X-4.53000 Y-4.75800
X-4.53000 Y-4.75900
X-4.52800 Y-4.75900
X-4.52800 Y-4.76000
X-4.52700 Y-4.76000
X-4.52700 Y-4.76100
X-4.52600 Y-4.76100
X-4.52600 Y-4.76200
X-4.52400 Y-4.76200
X-4.52400 Y-4.76300
X-4.52300 Y-4.76300
X-4.52300 Y-4.76400
X-4.52100 Y-4.76400
X-4.52100 Y-4.76500
X-4.52000 Y-4.76500
X-4.52000 Y-4.76600
X-4.51900 Y-4.76600
X-4.51900 Y-4.76700
X-4.51700 Y-4.76700
X-4.51700 Y-4.76800
X-4.51600 Y-4.76800
X-4.51600 Y-4.76900
X-4.51400 Y-4.76900
X-4.51400 Y-4.77000
X-4.51300 Y-4.77000
X-4.51300 Y-4.77100
X-4.51200 Y-4.77100
X-4.51200 Y-4.77200
X-4.51000 Y-4.77200
X-4.51000 Y-4.77300
X-4.50900 Y-4.77300
X-4.50900 Y-4.77400
X-4.50700 Y-4.77400
X-4.50700 Y-4.77500
X-4.50600 Y-4.77500
X-4.50600 Y-4.77600
X-4.50500 Y-4.77600
X-4.50500 Y-4.77700
X-4.50300 Y-4.77700
X-4.50300 Y-4.77800
X-4.50200 Y-4.77800
X-4.50200 Y-4.77900
X-4.50000 Y-4.77900
X-4.50000 Y-4.78000
X-4.49900 Y-4.78000
X-4.49900 Y-4.78100
X-4.49700 Y-4.78100
X-4.49700 Y-4.78200
X-4.49500 Y-4.78200
X-4.49500 Y-4.78300
X-4.49400 Y-4.78300
X-4.49400 Y-4.78400
X-4.49200 Y-4.78400
X-4.49200 Y-4.78500
X-4.49100 Y-4.78500
X-4.49100 Y-4.78600
X-4.48900 Y-4.78600
X-4.48900 Y-4.78700
X-4.48800 Y-4.78700
X-4.48800 Y-4.78800
X-4.48600 Y-4.78800
X-4.48600 Y-4.78900
X-4.48500 Y-4.78900
X-4.48500 Y-4.79000
X-4.48300 Y-4.79000
X-4.48300 Y-4.79100
X-4.48100 Y-4.79100
X-4.48100 Y-4.79200
X-4.48000 Y-4.79200
X-4.48000 Y-4.79300
X-4.47800 Y-4.79300
X-4.47800 Y-4.79400
X-4.47700 Y-4.79400
X-4.47700 Y-4.79500
X-4.47500 Y-4.79500
X-4.47500 Y-4.79600
X-4.47400 Y-4.79600
X-4.47400 Y-4.79700
X-4.47200 Y-4.79700
X-4.47200 Y-4.79800
X-4.47100 Y-4.79800
X-4.47100 Y-4.79900
X-4.46900 Y-4.79900
X-4.46900 Y-4.80000
X-4.46700 Y-4.80000
X-4.46700 Y-4.80100
X-4.46600 Y-4.80100
X-4.46600 Y-4.80200
X-4.46400 Y-4.80200
X-4.46400 Y-4.80300
X-4.46300 Y-4.80300
X-4.46300 Y-4.80400
X-4.46100 Y-4.80400
X-4.46100 Y-4.80500
X-4.45900 Y-4.80500
X-4.45900 Y-4.80600
X-4.45800 Y-4.80600
X-4.45800 Y-4.80700
X-4.45600 Y-4.80700
X-4.45600 Y-4.80800
X-4.45400 Y-4.80800
X-4.45400 Y-4.80900
X-4.45200 Y-4.80900
X-4.45200 Y-4.81000
X-4.45100 Y-4.81000
X-4.45100 Y-4.81100
X-4.44900 Y-4.81100
X-4.44900 Y-4.81200
X-4.44700 Y-4.81200
X-4.44700 Y-4.81300
X-4.44600 Y-4.81300
X-4.44600 Y-4.81400
X-4.44400 Y-4.81400
X-4.44400 Y-4.81500
X-4.44200 Y-4.81500
X-4.44200 Y-4.81600
X-4.44000 Y-4.81600
X-4.44000 Y-4.81700
X-4.43900 Y-4.81700
X-4.43900 Y-4.81800
X-4.43700 Y-4.81800
X-4.43700 Y-4.81900
X-4.43500 Y-4.81900
X-4.43500 Y-4.82000
X-4.43300 Y-4.82000
X-4.43300 Y-4.82100
X-4.43200 Y-4.82100
X-4.43200 Y-4.82200
X-4.43000 Y-4.82200
X-4.43000 Y-4.82300
X-4.42800 Y-4.82300
X-4.42800 Y-4.82400
X-4.42600 Y-4.82400
X-4.42600 Y-4.82500
X-4.42500 Y-4.82500
X-4.42500 Y-4.82600
X-4.42300 Y-4.82600
X-4.42300 Y-4.82700
X-4.42100 Y-4.82700
X-4.42100 Y-4.82800
X-4.41900 Y-4.82800
X-4.41900 Y-4.82900
X-4.41800 Y-4.82900
X-4.41800 Y-4.83000
X-4.41600 Y-4.83000
X-4.41600 Y-4.83100
X-4.41400 Y-4.83100
X-4.41400 Y-4.83200
X-4.41200 Y-4.83200
X-4.41200 Y-4.83300
X-4.41000 Y-4.83300
X-4.41000 Y-4.83400
X-4.40800 Y-4.83400
X-4.40800 Y-4.83500
X-4.40600 Y-4.83500
X-4.40600 Y-4.83600
X-4.40400 Y-4.83600
X-4.40400 Y-4.83700
X-4.40200 Y-4.83700
X-4.40200 Y-4.83800
X-4.40000 Y-4.83800
X-4.40000 Y-4.83900
X-4.39800 Y-4.83900
X-4.39800 Y-4.84000
X-4.39600 Y-4.84000
X-4.39600 Y-4.84100
X-4.39400 Y-4.84100
X-4.39400 Y-4.84200
X-4.39200 Y-4.84200
X-4.39200 Y-4.84300
X-4.39000 Y-4.84300
X-4.39000 Y-4.84400
X-4.38800 Y-4.84400
X-4.38800 Y-4.84500
X-4.38600 Y-4.84500
X-4.38600 Y-4.84600
X-4.38400 Y-4.84600
X-4.38400 Y-4.84700
X-4.38200 Y-4.84700
X-4.38200 Y-4.84800
X-4.38000 Y-4.84800
X-4.38000 Y-4.84900
X-4.37900 Y-4.84900
X-4.37900 Y-4.85000
X-4.37700 Y-4.85000
X-4.37700 Y-4.85100
X-4.37500 Y-4.85100
X-4.37500 Y-4.85200
X-4.37200 Y-4.85200
X-4.37200 Y-4.85300
X-4.37000 Y-4.85300
X-4.37000 Y-4.85400
X-4.36800 Y-4.85400
X-4.36800 Y-4.85500
X-4.36600 Y-4.85500
X-4.36600 Y-4.85600
X-4.36300 Y-4.85600
X-4.36300 Y-4.85700
X-4.36100 Y-4.85700
X-4.36100 Y-4.85800
X-4.35900 Y-4.85800
X-4.35900 Y-4.85900
X-4.35700 Y-4.85900
X-4.35700 Y-4.86000
X-4.35500 Y-4.86000
X-4.35500 Y-4.86100
X-4.35200 Y-4.86100
X-4.35200 Y-4.86200
X-4.35000 Y-4.86200
X-4.35000 Y-4.86300
X-4.34800 Y-4.86300
X-4.34800 Y-4.86400
X-4.34600 Y-4.86400
X-4.34600 Y-4.86500
X-4.34400 Y-4.86500
X-4.34400 Y-4.86600
X-4.34100 Y-4.86600
X-4.34100 Y-4.86700
X-4.33900 Y-4.86700
X-4.33900 Y-4.86800
X-4.33700 Y-4.86800
X-4.33700 Y-4.86900
X-4.33500 Y-4.86900
X-4.33500 Y-4.87000
X-4.33300 Y-4.87000
X-4.33300 Y-4.87100
X-4.33000 Y-4.87100
X-4.33000 Y-4.87200
X-4.32800 Y-4.87200
X-4.32800 Y-4.87300
X-4.32500 Y-4.87300
X-4.32500 Y-4.87400
X-4.32300 Y-4.87400
X-4.32300 Y-4.87500
X-4.32000 Y-4.87500
X-4.32000 Y-4.87600
X-4.31800 Y-4.87600
X-4.31800 Y-4.87700
X-4.31500 Y-4.87700
X-4.31500 Y-4.87800
X-4.31300 Y-4.87800
X-4.31300 Y-4.87900
X-4.31000 Y-4.87900
X-4.31000 Y-4.88000
X-4.30700 Y-4.88000
X-4.30700 Y-4.88100
X-4.30500 Y-4.88100
X-4.30500 Y-4.88200
X-4.30200 Y-4.88200
X-4.30200 Y-4.88300
X-4.30000 Y-4.88300
X-4.30000 Y-4.88400
X-4.29700 Y-4.88400
X-4.29700 Y-4.88500
X-4.29500 Y-4.88500
X-4.29500 Y-4.88600
X-4.29200 Y-4.88600
X-4.29200 Y-4.88700
X-4.29000 Y-4.88700
X-4.29000 Y-4.88800
X-4.28700 Y-4.88800
X-4.28700 Y-4.88900
X-4.28500 Y-4.88900
X-4.28500 Y-4.89000
X-4.28200 Y-4.89000
X-4.28200 Y-4.89100
X-4.27900 Y-4.89100
X-4.27900 Y-4.89200
X-4.27600 Y-4.89200
X-4.27600 Y-4.89300
X-4.27300 Y-4.89300
X-4.27300 Y-4.89400
X-4.27000 Y-4.89400
X-4.27000 Y-4.89500
X-4.26700 Y-4.89500
X-4.26700 Y-4.89600
X-4.26400 Y-4.89600
X-4.26400 Y-4.89700
X-4.26100 Y-4.89700
X-4.26100 Y-4.89800
X-4.25800 Y-4.89800
X-4.25800 Y-4.89900
X-4.25500 Y-4.89900
X-4.25500 Y-4.90000
X-4.25200 Y-4.90000
X-4.25200 Y-4.90100
X-4.24900 Y-4.90100
X-4.24900 Y-4.90200
X-4.24600 Y-4.90200
X-4.24600 Y-4.90300
X-4.24300 Y-4.90300
X-4.24300 Y-4.90400
X-4.24000 Y-4.90400
X-4.24000 Y-4.90500
X-4.23700 Y-4.90500
X-4.23700 Y-4.90600
X-4.23400 Y-4.90600
X-4.23400 Y-4.90700
X-4.23000 Y-4.90700
X-4.23000 Y-4.90800
X-4.22700 Y-4.90800
X-4.22700 Y-4.90900
X-4.22300 Y-4.90900
X-4.22300 Y-4.91000
X-4.22000 Y-4.91000
X-4.22000 Y-4.91100
X-4.21600 Y-4.91100
X-4.21600 Y-4.91200
X-4.21300 Y-4.91200
X-4.21300 Y-4.91300
X-4.20900 Y-4.91300
X-4.20900 Y-4.91400
X-4.20600 Y-4.91400
X-4.20600 Y-4.91500
X-4.20200 Y-4.91500
X-4.20200 Y-4.91600
X-4.19900 Y-4.91600
X-4.19900 Y-4.91700
X-4.19500 Y-4.91700
X-4.19500 Y-4.91800
X-4.19200 Y-4.91800
X-4.19200 Y-4.91900
X-4.18800 Y-4.91900
X-4.18800 Y-4.92000
X-4.18400 Y-4.92000
X-4.18400 Y-4.92100
X-4.17900 Y-4.92100
X-4.17900 Y-4.92200
X-4.17500 Y-4.92200
X-4.17500 Y-4.92300
X-4.17100 Y-4.92300
X-4.17100 Y-4.92400
X-4.16600 Y-4.92400
X-4.16600 Y-4.92500
X-4.16200 Y-4.92500
X-4.16200 Y-4.92600
X-4.15800 Y-4.92600
X-4.15800 Y-4.92700
X-4.15300 Y-4.92700
X-4.15300 Y-4.92800
X-4.14900 Y-4.92800
X-4.14900 Y-4.92900
X-4.14500 Y-4.92900
X-4.14500 Y-4.93000
X-4.14000 Y-4.93000
X-4.14000 Y-4.93100
X-4.13500 Y-4.93100
X-4.13500 Y-4.93200
X-4.12900 Y-4.93200
X-4.12900 Y-4.93300
X-4.12300 Y-4.93300
X-4.12300 Y-4.93400
X-4.11800 Y-4.93400
X-4.11800 Y-4.93500
X-4.11200 Y-4.93500
X-4.11200 Y-4.93600
X-4.10700 Y-4.93600
X-4.10700 Y-4.93700
X-4.10100 Y-4.93700
X-4.10100 Y-4.93800
X-4.09500 Y-4.93800
X-4.09500 Y-4.93900
X-4.08900 Y-4.93900
X-4.08900 Y-4.94000
X-4.08100 Y-4.94000
X-4.08100 Y-4.94100
X-4.07400 Y-4.94100
X-4.07400 Y-4.94200
X-4.06600 Y-4.94200
X-4.06600 Y-4.94300
X-4.05800 Y-4.94300
X-4.05800 Y-4.94400
X-4.05000 Y-4.94400
X-4.05000 Y-4.94500
X-4.04200 Y-4.94500
X-4.04200 Y-4.94600
X-4.03000 Y-4.94600
X-4.03000 Y-4.94700
X-4.01700 Y-4.94700
X-4.01700 Y-4.94800
X-4.00400 Y-4.94800
X-4.00400 Y-4.94900
X-3.99100 Y-4.94900
X-3.99100 Y-4.95000
X-3.95600 Y-4.95000
X-3.95600 Y-4.95100
X-3.91600 Y-4.95100
X-3.91600 Y-4.95000
X-3.88100 Y-4.95000
X-3.88100 Y-4.94900
X-3.86800 Y-4.94900
X-3.86800 Y-4.94800
X-3.85500 Y-4.94800
X-3.85500 Y-4.94700
X-3.84200 Y-4.94700
X-3.84200 Y-4.94600
X-3.83000 Y-4.94600
X-3.83000 Y-4.94500
X-3.82200 Y-4.94500
X-3.82200 Y-4.94400
X-3.81400 Y-4.94400
X-3.81400 Y-4.94300
X-3.80600 Y-4.94300
X-3.80600 Y-4.94200
X-3.79900 Y-4.94200
X-3.79900 Y-4.94100
X-3.79100 Y-4.94100
X-3.79100 Y-4.94000
X-3.78300 Y-4.94000
X-3.78300 Y-4.93900
X-3.77700 Y-4.93900
X-3.77700 Y-4.93800
X-3.77100 Y-4.93800
X-3.77100 Y-4.93700
X-3.76600 Y-4.93700
X-3.76600 Y-4.93600
X-3.76000 Y-4.93600
X-3.76000 Y-4.93500
X-3.75400 Y-4.93500
X-3.75400 Y-4.93400
X-3.74900 Y-4.93400
X-3.74900 Y-4.93300
X-3.74300 Y-4.93300
X-3.74300 Y-4.93200
X-3.73800 Y-4.93200
X-3.73800 Y-4.93100
X-3.73200 Y-4.93100
X-3.73200 Y-4.93000
X-3.72800 Y-4.93000
X-3.72800 Y-4.92900
X-3.72300 Y-4.92900
X-3.72300 Y-4.92800
X-3.71900 Y-4.92800
X-3.71900 Y-4.92700
X-3.71500 Y-4.92700
X-3.71500 Y-4.92600
X-3.71000 Y-4.92600
X-3.71000 Y-4.92500
X-3.70600 Y-4.92500
X-3.70600 Y-4.92400
X-3.70200 Y-4.92400
X-3.70200 Y-4.92300
X-3.69700 Y-4.92300
X-3.69700 Y-4.92200
X-3.69300 Y-4.92200
X-3.69300 Y-4.92100
X-3.68900 Y-4.92100
X-3.68900 Y-4.92000
X-3.68400 Y-4.92000
X-3.68400 Y-4.91900
X-3.68000 Y-4.91900
X-3.68000 Y-4.91800
X-3.67700 Y-4.91800
X-3.67700 Y-4.91700
X-3.67300 Y-4.91700
X-3.67300 Y-4.91600
X-3.67000 Y-4.91600
X-3.67000 Y-4.91500
X-3.66600 Y-4.91500
X-3.66600 Y-4.91400
X-3.66300 Y-4.91400
X-3.66300 Y-4.91300
X-3.65900 Y-4.91300
X-3.65900 Y-4.91200
X-3.65600 Y-4.91200
X-3.65600 Y-4.91100
X-3.65200 Y-4.91100
X-3.65200 Y-4.91000
X-3.64900 Y-4.91000
X-3.64900 Y-4.90900
X-3.64500 Y-4.90900
X-3.64500 Y-4.90800
X-3.64200 Y-4.90800
X-3.64200 Y-4.90700
X-3.63800 Y-4.90700
X-3.63800 Y-4.90600
X-3.63500 Y-4.90600
X-3.63500 Y-4.90500
X-3.63200 Y-4.90500
X-3.63200 Y-4.90400
X-3.62900 Y-4.90400
X-3.62900 Y-4.90300
X-3.62600 Y-4.90300
X-3.62600 Y-4.90200
X-3.62300 Y-4.90200
X-3.62300 Y-4.90100
X-3.62000 Y-4.90100
X-3.62000 Y-4.90000
X-3.61700 Y-4.90000
X-3.61700 Y-4.89900
X-3.61400 Y-4.89900
X-3.61400 Y-4.89800
X-3.61100 Y-4.89800
X-3.61100 Y-4.89700
X-3.60800 Y-4.89700
X-3.60800 Y-4.89600
X-3.60500 Y-4.89600
X-3.60500 Y-4.89500
X-3.60200 Y-4.89500
X-3.60200 Y-4.89400
X-3.59900 Y-4.89400
X-3.59900 Y-4.89300
X-3.59600 Y-4.89300
X-3.59600 Y-4.89200
X-3.59300 Y-4.89200
X-3.59300 Y-4.89100
X-3.59000 Y-4.89100
X-3.59000 Y-4.89000
X-3.58700 Y-4.89000
X-3.58700 Y-4.88900
X-3.58500 Y-4.88900
X-3.58500 Y-4.88800
X-3.58200 Y-4.88800
X-3.58200 Y-4.88700
X-3.58000 Y-4.88700
X-3.58000 Y-4.88600
X-3.57700 Y-4.88600
X-3.57700 Y-4.88500
X-3.57500 Y-4.88500
X-3.57500 Y-4.88400
X-3.57200 Y-4.88400
X-3.57200 Y-4.88300
X-3.57000 Y-4.88300
X-3.57000 Y-4.88200
X-3.56700 Y-4.88200
X-3.56700 Y-4.88100
X-3.56500 Y-4.88100
X-3.56500 Y-4.88000
X-3.56200 Y-4.88000
X-3.56200 Y-4.87900
X-3.56000 Y-4.87900
X-3.56000 Y-4.87800
X-3.55700 Y-4.87800
X-3.55700 Y-4.87700
X-3.55400 Y-4.87700
X-3.55400 Y-4.87600
X-3.55200 Y-4.87600
X-3.55200 Y-4.87500
X-3.54900 Y-4.87500
X-3.54900 Y-4.87400
X-3.54700 Y-4.87400
X-3.54700 Y-4.87300
X-3.54400 Y-4.87300
X-3.54400 Y-4.87200
X-3.54200 Y-4.87200
X-3.54200 Y-4.87100
X-3.54000 Y-4.87100
X-3.54000 Y-4.87000
X-3.53700 Y-4.87000
X-3.53700 Y-4.86900
X-3.53500 Y-4.86900
X-3.53500 Y-4.86800
X-3.53300 Y-4.86800
X-3.53300 Y-4.86700
X-3.53100 Y-4.86700
X-3.53100 Y-4.86600
X-3.52900 Y-4.86600
X-3.52900 Y-4.86500
X-3.52600 Y-4.86500
X-3.52600 Y-4.86400
X-3.52400 Y-4.86400
X-3.52400 Y-4.86300
X-3.52200 Y-4.86300
X-3.52200 Y-4.86200
X-3.52000 Y-4.86200
X-3.52000 Y-4.86100
X-3.51700 Y-4.86100
X-3.51700 Y-4.86000
X-3.51500 Y-4.86000
X-3.51500 Y-4.85900
X-3.51300 Y-4.85900
X-3.51300 Y-4.85800
X-3.51100 Y-4.85800
X-3.51100 Y-4.85700
X-3.50900 Y-4.85700
X-3.50900 Y-4.85600
X-3.50600 Y-4.85600
X-3.50600 Y-4.85500
X-3.50400 Y-4.85500
X-3.50400 Y-4.85400
X-3.50200 Y-4.85400
X-3.50200 Y-4.85300
X-3.50000 Y-4.85300
X-3.50000 Y-4.85200
X-3.49800 Y-4.85200
X-3.49800 Y-4.85100
X-3.49600 Y-4.85100
X-3.49600 Y-4.85000
X-3.49400 Y-4.85000
X-3.49400 Y-4.84900
X-3.49200 Y-4.84900
X-3.49200 Y-4.84800
X-3.49000 Y-4.84800
X-3.49000 Y-4.84700
X-3.48800 Y-4.84700
X-3.48800 Y-4.84600
X-3.48600 Y-4.84600
X-3.48600 Y-4.84500
X-3.48400 Y-4.84500
X-3.48400 Y-4.84400
X-3.48200 Y-4.84400
X-3.48200 Y-4.84300
X-3.48000 Y-4.84300
X-3.48000 Y-4.84200
X-3.47800 Y-4.84200
X-3.47800 Y-4.84100
X-3.47600 Y-4.84100
X-3.47600 Y-4.84000
X-3.47400 Y-4.84000
X-3.47400 Y-4.83900
X-3.47200 Y-4.83900
X-3.47200 Y-4.83800
X-3.47000 Y-4.83800
X-3.47000 Y-4.83700
X-3.46800 Y-4.83700
X-3.46800 Y-4.83600
X-3.46600 Y-4.83600
X-3.46600 Y-4.83500
X-3.46400 Y-4.83500
X-3.46400 Y-4.83400
X-3.46200 Y-4.83400
X-3.46200 Y-4.83300
X-3.46000 Y-4.83300
X-3.46000 Y-4.83200
X-3.45800 Y-4.83200
X-3.45800 Y-4.83100
X-3.45700 Y-4.83100
X-3.45700 Y-4.83000
X-3.45500 Y-4.83000
X-3.45500 Y-4.82900
X-3.45300 Y-4.82900
X-3.45300 Y-4.82800
X-3.45100 Y-4.82800
X-3.45100 Y-4.82700
X-3.44900 Y-4.82700
X-3.44900 Y-4.82600
X-3.44700 Y-4.82600
X-3.44700 Y-4.82500
X-3.44600 Y-4.82500
X-3.44600 Y-4.82400
X-3.44400 Y-4.82400
X-3.44400 Y-4.82300
X-3.44200 Y-4.82300
X-3.44200 Y-4.82200
X-3.44100 Y-4.82200
X-3.44100 Y-4.82100
X-3.43900 Y-4.82100
X-3.43900 Y-4.82000
X-3.43700 Y-4.82000
X-3.43700 Y-4.81900
X-3.43500 Y-4.81900
X-3.43500 Y-4.81800
X-3.43400 Y-4.81800
X-3.43400 Y-4.81700
X-3.43200 Y-4.81700
X-3.43200 Y-4.81600
X-3.43000 Y-4.81600
X-3.43000 Y-4.81500
X-3.42800 Y-4.81500
X-3.42800 Y-4.81400
X-3.42700 Y-4.81400
X-3.42700 Y-4.81300
X-3.42500 Y-4.81300
X-3.42500 Y-4.81200
X-3.42300 Y-4.81200
X-3.42300 Y-4.81100
X-3.42100 Y-4.81100
X-3.42100 Y-4.81000
X-3.42000 Y-4.81000
X-3.42000 Y-4.80900
X-3.41800 Y-4.80900
X-3.41800 Y-4.80800
X-3.41600 Y-4.80800
X-3.41600 Y-4.80700
X-3.41400 Y-4.80700
X-3.41400 Y-4.80600
X-3.41300 Y-4.80600
X-3.41300 Y-4.80500
X-3.41100 Y-4.80500
X-3.41100 Y-4.80400
X-3.40900 Y-4.80400
X-3.40900 Y-4.80300
X-3.40800 Y-4.80300
X-3.40800 Y-4.80200
X-3.40600 Y-4.80200
X-3.40600 Y-4.80100
X-3.40500 Y-4.80100
X-3.40500 Y-4.80000
X-3.40300 Y-4.80000
X-3.40300 Y-4.79900
X-3.40200 Y-4.79900
X-3.40200 Y-4.79800
X-3.40000 Y-4.79800
X-3.40000 Y-4.79700
X-3.39800 Y-4.79700
X-3.39800 Y-4.79600
X-3.39700 Y-4.79600
X-3.39700 Y-4.79500
X-3.39500 Y-4.79500
X-3.39500 Y-4.79400
X-3.39400 Y-4.79400
X-3.39400 Y-4.79300
X-3.39200 Y-4.79300
X-3.39200 Y-4.79200
X-3.39100 Y-4.79200
X-3.39100 Y-4.79100
X-3.38900 Y-4.79100
X-3.38900 Y-4.79000
X-3.38800 Y-4.79000
X-3.38800 Y-4.78900
X-3.38600 Y-4.78900
X-3.38600 Y-4.78800
X-3.38400 Y-4.78800
X-3.38400 Y-4.78700
X-3.38300 Y-4.78700
X-3.38300 Y-4.78600
X-3.38100 Y-4.78600
X-3.38100 Y-4.78500
X-3.38000 Y-4.78500
X-3.38000 Y-4.78400
X-3.37800 Y-4.78400
X-3.37800 Y-4.78300
X-3.37700 Y-4.78300
X-3.37700 Y-4.78200
X-3.37500 Y-4.78200
X-3.37500 Y-4.78100
X-3.37400 Y-4.78100
X-3.37400 Y-4.78000
X-3.37200 Y-4.78000
X-3.37200 Y-4.77900
X-3.37000 Y-4.77900
X-3.37000 Y-4.77800
X-3.36900 Y-4.77800
X-3.36900 Y-4.77700
X-3.36800 Y-4.77700
X-3.36800 Y-4.77600
X-3.36600 Y-4.77600
X-3.36600 Y-4.77500
X-3.36500 Y-4.77500
X-3.36500 Y-4.77400
X-3.36300 Y-4.77400
X-3.36300 Y-4.77300
X-3.36200 Y-4.77300
X-3.36200 Y-4.77200
X-3.36100 Y-4.77200
X-3.36100 Y-4.77100
X-3.35900 Y-4.77100
X-3.35900 Y-4.77000
X-3.35800 Y-4.77000
X-3.35800 Y-4.76900
X-3.35600 Y-4.76900
X-3.35600 Y-4.76800
X-3.35500 Y-4.76800
X-3.35500 Y-4.76700
X-3.35300 Y-4.76700
X-3.35300 Y-4.76600
X-3.35200 Y-4.76600
X-3.35200 Y-4.76500
X-3.35100 Y-4.76500
X-3.35100 Y-4.76400
X-3.34900 Y-4.76400
X-3.34900 Y-4.76300
X-3.34800 Y-4.76300
X-3.34800 Y-4.76200
X-3.34600 Y-4.76200
X-3.34600 Y-4.76100
X-3.34500 Y-4.76100
X-3.34500 Y-4.76000
X-3.34400 Y-4.76000
X-3.34400 Y-4.75900
X-3.34200 Y-4.75900
X-3.34200 Y-4.75800
X-3.34100 Y-4.75800
X-3.34100 Y-4.75700
X-3.33900 Y-4.75700
X-3.33900 Y-4.75600
X-3.33800 Y-4.75600
X-3.33800 Y-4.75500
X-3.33700 Y-4.75500
X-3.33700 Y-4.75400
X-3.33500 Y-4.75400
X-3.33500 Y-4.75300
X-3.33400 Y-4.75300
X-3.33400 Y-4.75200
X-3.33200 Y-4.75200
X-3.33200 Y-4.75100
X-3.33100 Y-4.75100
X-3.33100 Y-4.75000
X-3.33000 Y-4.75000
X-3.33000 Y-4.74900
X-3.32800 Y-4.74900
X-3.32800 Y-4.74800
X-3.32700 Y-4.74800
X-3.32700 Y-4.74700
X-3.32600 Y-4.74700
X-3.32600 Y-4.74600
X-3.32500 Y-4.74600
X-3.32500 Y-4.74500
X-3.32300 Y-4.74500
X-3.32300 Y-4.74400
X-3.32200 Y-4.74400
X-3.32200 Y-4.74300
X-3.32100 Y-4.74300
X-3.32100 Y-4.74200
X-3.31900 Y-4.74200
X-3.31900 Y-4.74100
X-3.31800 Y-4.74100
X-3.31800 Y-4.74000
X-3.31700 Y-4.74000
X-3.31700 Y-4.73900
X-3.31600 Y-4.73900
X-3.31600 Y-4.73800
X-3.31400 Y-4.73800
X-3.31400 Y-4.73700
X-3.31300 Y-4.73700
X-3.31300 Y-4.73600
X-3.31200 Y-4.73600
X-3.31200 Y-4.73500
X-3.31100 Y-4.73500
X-3.31100 Y-4.73400
X-3.30900 Y-4.73400
X-3.30900 Y-4.73300
X-3.30800 Y-4.73300
X-3.30800 Y-4.73200
X-3.30700 Y-4.73200
X-3.30700 Y-4.73100
X-3.30500 Y-4.73100
X-3.30500 Y-4.73000
X-3.30400 Y-4.73000
X-3.30400 Y-4.72900
X-3.30300 Y-4.72900
X-3.30300 Y-4.72800
X-3.30200 Y-4.72800
X-3.30200 Y-4.72700
X-3.30000 Y-4.72700
X-3.30000 Y-4.72600
X-3.29900 Y-4.72600
X-3.29900 Y-4.72500
X-3.29800 Y-4.72500
X-3.29800 Y-4.72400
X-3.29700 Y-4.72400
X-3.29700 Y-4.72300
X-3.29500 Y-4.72300
X-3.29500 Y-4.72200
X-3.29400 Y-4.72200
X-3.29400 Y-4.72100
X-3.29300 Y-4.72100
X-3.29300 Y-4.72000
X-3.29200 Y-4.72000
X-3.29200 Y-4.71900
X-3.29000 Y-4.71900
X-3.29000 Y-4.71800
X-3.28900 Y-4.71800
X-3.28900 Y-4.71700
X-3.28800 Y-4.71700
X-3.28800 Y-4.71600
X-3.28700 Y-4.71600
X-3.28700 Y-4.71500
X-3.28600 Y-4.71500
X-3.28600 Y-4.71400
X-3.28500 Y-4.71400
X-3.28500 Y-4.71300
X-3.28300 Y-4.71300
X-3.28300 Y-4.71200
X-3.28200 Y-4.71200
X-3.28200 Y-4.71100
X-3.28100 Y-4.71100
X-3.28100 Y-4.71000
X-3.28000 Y-4.71000
X-3.28000 Y-4.70900
X-3.27900 Y-4.70900
X-3.27900 Y-4.70800
X-3.27800 Y-4.70800
X-3.27800 Y-4.70700
X-3.27700 Y-4.70700
X-3.27700 Y-4.70600
X-3.27500 Y-4.70600
X-3.27500 Y-4.70500
X-3.27400 Y-4.70500
X-3.27400 Y-4.70400
X-3.27300 Y-4.70400
X-3.27300 Y-4.70300
X-3.27200 Y-4.70300
X-3.27200 Y-4.70200
X-3.27100 Y-4.70200
X-3.27100 Y-4.70100
X-3.27000 Y-4.70100
X-3.27000 Y-4.70000
X-3.26800 Y-4.70000
X-3.26800 Y-4.69900
X-3.26700 Y-4.69900
X-3.26700 Y-4.69800
X-3.26600 Y-4.69800
X-3.26600 Y-4.69700
X-3.26500 Y-4.69700
X-3.26500 Y-4.69600
X-3.26400 Y-4.69600
X-3.26400 Y-4.69500
X-3.26300 Y-4.69500
X-3.26300 Y-4.69400
X-3.26200 Y-4.69400
X-3.26200 Y-4.69300
X-3.26000 Y-4.69300
X-3.26000 Y-4.69200
X-3.25900 Y-4.69200
X-3.25900 Y-4.69100
X-3.25800 Y-4.69100
X-3.25800 Y-4.69000
X-3.25700 Y-4.69000
X-3.25700 Y-4.68900
X-3.25600 Y-4.68900
X-3.25600 Y-4.68800
X-3.25500 Y-4.68800
X-3.25500 Y-4.68700
X-3.25400 Y-4.68700
X-3.25400 Y-4.68600
X-3.25300 Y-4.68600
X-3.25300 Y-4.68500
X-3.25200 Y-4.68500
X-3.25200 Y-4.68400
X-3.25000 Y-4.68400
X-3.25000 Y-4.68300
X-3.24900 Y-4.68300
X-3.24900 Y-4.68200
X-3.24800 Y-4.68200
X-3.24800 Y-4.68100
X-3.24700 Y-4.68100
X-3.24700 Y-4.68000
X-3.24600 Y-4.68000
X-3.24600 Y-4.67900
X-3.24500 Y-4.67900
X-3.24500 Y-4.67800
X-3.24400 Y-4.67800
X-3.24400 Y-4.67700
X-3.24300 Y-4.67700
X-3.24300 Y-4.67600
X-3.24200 Y-4.67600
X-3.24200 Y-4.67500
X-3.24100 Y-4.67500
X-3.24100 Y-4.67400
X-3.24000 Y-4.67400
X-3.24000 Y-4.67300
X-3.23900 Y-4.67300
X-3.23900 Y-4.67200
X-3.23800 Y-4.67200
X-3.23800 Y-4.67100
X-3.23700 Y-4.67100
X-3.23700 Y-4.67000
X-3.23600 Y-4.67000
X-3.23600 Y-4.66900
X-3.23500 Y-4.66900
X-3.23500 Y-4.66800
X-3.23400 Y-4.66800
X-3.23400 Y-4.66700
X-3.23300 Y-4.66700
X-3.23300 Y-4.66600
X-3.23200 Y-4.66600
X-3.23200 Y-4.66500
X-3.23100 Y-4.66500
X-3.23100 Y-4.66400
X-3.22900 Y-4.66400
X-3.22900 Y-4.66300
X-3.22800 Y-4.66300
X-3.22800 Y-4.66200
X-3.22700 Y-4.66200
X-3.22700 Y-4.66100
X-3.22600 Y-4.66100
X-3.22600 Y-4.66000
X-3.22500 Y-4.66000
X-3.22500 Y-4.65900
X-3.22400 Y-4.65900
X-3.22400 Y-4.65800
X-3.22300 Y-4.65800
X-3.22300 Y-4.65700
X-3.22200 Y-4.65700
X-3.22200 Y-4.65600
X-3.22100 Y-4.65600
X-3.22100 Y-4.65500
X-3.22000 Y-4.65500
X-3.22000 Y-4.65400
X-3.21900 Y-4.65400
X-3.21900 Y-4.65300
X-3.21800 Y-4.65300
X-3.21800 Y-4.65200
X-3.21700 Y-4.65200
X-3.21700 Y-4.65100
X-3.21600 Y-4.65100
X-3.21600 Y-4.65000
X-3.21500 Y-4.65000
X-3.21500 Y-4.64900
X-3.21400 Y-4.64900
X-3.21400 Y-4.64800
X-3.21300 Y-4.64800
X-3.21300 Y-4.64700
X-3.21200 Y-4.64700
X-3.21200 Y-4.64600
X-3.21100 Y-4.64600
X-3.21100 Y-4.64500
X-3.21000 Y-4.64500
X-3.21000 Y-4.64400
X-3.20900 Y-4.64400
X-3.20900 Y-4.64200
X-3.20800 Y-4.64200
X-3.20800 Y-4.64100
X-3.20700 Y-4.64100
X-3.20700 Y-4.64000
X-3.20600 Y-4.64000
X-3.20600 Y-4.63900
X-3.20500 Y-4.63900
X-3.20500 Y-4.63800
X-3.20400 Y-4.63800
X-3.20400 Y-4.63700
X-3.20300 Y-4.63700
X-3.20300 Y-4.63600
X-3.20200 Y-4.63600
X-3.20200 Y-4.63500
X-3.20100 Y-4.63500
X-3.20100 Y-4.63400
X-3.20000 Y-4.63400
X-3.20000 Y-4.63300
X-3.19900 Y-4.63300
X-3.19900 Y-4.63200
X-3.19800 Y-4.63200
X-3.19800 Y-4.63100
X-3.19700 Y-4.63100
X-3.19700 Y-4.63000
X-3.19600 Y-4.63000
X-3.19600 Y-4.62900
X-3.19500 Y-4.62900
X-3.19500 Y-4.62800
X-3.19400 Y-4.62800
X-3.19400 Y-4.62700
X-3.19300 Y-4.62700
X-3.19300 Y-4.62600
X-3.19200 Y-4.62600
X-3.19200 Y-4.62500
X-3.19100 Y-4.62500
X-3.19100 Y-4.62400
X-3.19000 Y-4.62400
X-3.19000 Y-4.62300
X-3.18900 Y-4.62300
X-3.18900 Y-4.62100
X-3.18800 Y-4.62100
X-3.18800 Y-4.62000
X-3.18700 Y-4.62000
X-3.18700 Y-4.61900
X-3.18600 Y-4.61900
X-3.18600 Y-4.61800
X-3.18500 Y-4.61800
X-3.18500 Y-4.61700
X-3.18400 Y-4.61700
X-3.18400 Y-4.61600
X-3.18300 Y-4.61600
X-3.18300 Y-4.61500
X-3.18200 Y-4.61500
X-3.18200 Y-4.61400
X-3.18100 Y-4.61400
X-3.18100 Y-4.61300
X-3.18000 Y-4.61300
X-3.18000 Y-4.61100
X-3.17900 Y-4.61100
X-3.17900 Y-4.61000
X-3.17800 Y-4.61000
X-3.17800 Y-4.60900
X-3.17700 Y-4.60900
X-3.17700 Y-4.60800
X-3.17600 Y-4.60800
X-3.17600 Y-4.60700
X-3.17500 Y-4.60700
X-3.17500 Y-4.60600
X-3.17400 Y-4.60600
X-3.17400 Y-4.60500
X-3.17300 Y-4.60500
X-3.17300 Y-4.60300
X-3.17200 Y-4.60300
X-3.17200 Y-4.60200
X-3.17100 Y-4.60200
X-3.17100 Y-4.60100
X-3.17000 Y-4.60100
X-3.17000 Y-4.60000
X-3.16900 Y-4.60000
X-3.16900 Y-4.59900
X-3.16800 Y-4.59900
X-3.16800 Y-4.59800
X-3.16700 Y-4.59800
X-3.16700 Y-4.59600
X-3.16600 Y-4.59600
X-3.16600 Y-4.59500
X-3.16500 Y-4.59500
X-3.16500 Y-4.59400
X-3.16400 Y-4.59400
X-3.16400 Y-4.59300
X-3.16300 Y-4.59300
X-3.16300 Y-4.59200
X-3.16200 Y-4.59200
X-3.16200 Y-4.59100
X-3.16100 Y-4.59100
X-3.16100 Y-4.59000
X-3.16000 Y-4.59000
X-3.16000 Y-4.58800
X-3.15900 Y-4.58800
X-3.15900 Y-4.58700
X-3.15800 Y-4.58700
X-3.15800 Y-4.58600
X-3.15700 Y-4.58600
X-3.15700 Y-4.58500
X-3.15600 Y-4.58500
X-3.15600 Y-4.58400
X-3.15500 Y-4.58400
X-3.15500 Y-4.58300
X-3.15400 Y-4.58300
X-3.15400 Y-4.58100
X-3.15300 Y-4.58100
X-3.15300 Y-4.58000
X-3.15200 Y-4.58000
X-3.15200 Y-4.57900
X-3.15100 Y-4.57900
X-3.15100 Y-4.57800
X-3.15000 Y-4.57800
X-3.15000 Y-4.57600
X-3.14900 Y-4.57600
X-3.14900 Y-4.57500
X-3.14800 Y-4.57500
X-3.14800 Y-4.57400
X-3.14700 Y-4.57400
X-3.14700 Y-4.57300
X-3.14600 Y-4.57300
X-3.14600 Y-4.57100
X-3.14500 Y-4.57100
X-3.14500 Y-4.57000
X-3.14400 Y-4.57000
X-3.14400 Y-4.56900
X-3.14300 Y-4.56900
X-3.14300 Y-4.56800
X-3.14200 Y-4.56800
X-3.14200 Y-4.56600
X-3.14100 Y-4.56600
X-3.14100 Y-4.56500
X-3.14000 Y-4.56500
X-3.14000 Y-4.56400
X-3.13900 Y-4.56400
X-3.13900 Y-4.56200
X-3.13800 Y-4.56200
X-3.13800 Y-4.56100
X-3.13700 Y-4.56100
X-3.13700 Y-4.56000
X-3.13600 Y-4.56000
X-3.13600 Y-4.55900
X-3.13500 Y-4.55900
X-3.13500 Y-4.55700
X-3.13400 Y-4.55700
X-3.13400 Y-4.55600
X-3.13300 Y-4.55600
X-3.13300 Y-4.55500
X-3.13200 Y-4.55500
X-3.13200 Y-4.55400
X-3.13100 Y-4.55400
X-3.13100 Y-4.55200
X-3.13000 Y-4.55200
X-3.13000 Y-4.55100
X-3.12900 Y-4.55100
X-3.12900 Y-4.55000
X-3.12800 Y-4.55000
X-3.12800 Y-4.54800
X-3.12700 Y-4.54800
X-3.12700 Y-4.54700
X-3.12600 Y-4.54700
X-3.12600 Y-4.54600
X-3.12500 Y-4.54600
X-3.12500 Y-4.54500
X-3.12400 Y-4.54500
X-3.12400 Y-4.54300
X-3.12300 Y-4.54300
X-3.12300 Y-4.54200
X-3.12200 Y-4.54200
X-3.12200 Y-4.54100
X-3.12100 Y-4.54100
X-3.12100 Y-4.53900
X-3.12000 Y-4.53900
X-3.12000 Y-4.53800
X-3.11900 Y-4.53800
X-3.11900 Y-4.53600
X-3.11800 Y-4.53600
X-3.11800 Y-4.53500
X-3.11700 Y-4.53500
X-3.11700 Y-4.53400
X-3.11600 Y-4.53400
X-3.11600 Y-4.53200
X-3.11500 Y-4.53200
X-3.11500 Y-4.53100
X-3.11400 Y-4.53100
X-3.11400 Y-4.52900
X-3.11300 Y-4.52900
X-3.11300 Y-4.52800
X-3.11200 Y-4.52800
X-3.11200 Y-4.52700
X-3.11100 Y-4.52700
X-3.11100 Y-4.52500
X-3.11000 Y-4.52500
X-3.11000 Y-4.52400
X-3.10900 Y-4.52400
X-3.10900 Y-4.52200
X-3.10800 Y-4.52200
X-3.10800 Y-4.52100
X-3.10700 Y-4.52100
X-3.10700 Y-4.52000
X-3.10600 Y-4.52000
X-3.10600 Y-4.51800
X-3.10500 Y-4.51800
X-3.10500 Y-4.51700
X-3.10400 Y-4.51700
X-3.10400 Y-4.51500
X-3.10300 Y-4.51500
X-3.10300 Y-4.51400
X-3.10200 Y-4.51400
X-3.10200 Y-4.51200
X-3.10100 Y-4.51200
X-3.10100 Y-4.51100
X-3.10000 Y-4.51100
X-3.10000 Y-4.51000
X-3.09900 Y-4.51000
X-3.09900 Y-4.50800
X-3.09800 Y-4.50800
X-3.09800 Y-4.50700
X-3.09700 Y-4.50700
X-3.09700 Y-4.50500
X-3.09600 Y-4.50500
X-3.09600 Y-4.50400
X-3.09500 Y-4.50400
X-3.09500 Y-4.50300
X-3.09400 Y-4.50300
X-3.09400 Y-4.50100
X-3.09300 Y-4.50100
X-3.09300 Y-4.49900
X-3.09200 Y-4.49900
X-3.09200 Y-4.49800
X-3.09100 Y-4.49800
X-3.09100 Y-4.49600
X-3.09000 Y-4.49600
X-3.09000 Y-4.49500
X-3.08900 Y-4.49500
X-3.08900 Y-4.49300
X-3.08800 Y-4.49300
X-3.08800 Y-4.49200
X-3.08700 Y-4.49200
X-3.08700 Y-4.49000
X-3.08600 Y-4.49000
X-3.08600 Y-4.48900
X-3.08500 Y-4.48900
X-3.08500 Y-4.48700
X-3.08400 Y-4.48700
X-3.08400 Y-4.48500
X-3.08300 Y-4.48500
X-3.08300 Y-4.48400
X-3.08200 Y-4.48400
X-3.08200 Y-4.48200
X-3.08100 Y-4.48200
X-3.08100 Y-4.48100
X-3.08000 Y-4.48100
X-3.08000 Y-4.47900
X-3.07900 Y-4.47900
X-3.07900 Y-4.47800
X-3.07800 Y-4.47800
X-3.07800 Y-4.47600
X-3.07700 Y-4.47600
X-3.07700 Y-4.47500
X-3.07600 Y-4.47500
X-3.07600 Y-4.47300
X-3.07500 Y-4.47300
X-3.07500 Y-4.47100
X-3.07400 Y-4.47100
X-3.07400 Y-4.47000
X-3.07300 Y-4.47000
X-3.07300 Y-4.46800
X-3.07200 Y-4.46800
X-3.07200 Y-4.46700
X-3.07100 Y-4.46700
X-3.07100 Y-4.46500
X-3.07000 Y-4.46500
X-3.07000 Y-4.46400
X-3.06900 Y-4.46400
X-3.06900 Y-4.46200
X-3.06800 Y-4.46200
X-3.06800 Y-4.46000
X-3.06700 Y-4.46000
X-3.06700 Y-4.45900
X-3.06600 Y-4.45900
X-3.06600 Y-4.45700
X-3.06500 Y-4.45700
X-3.06500 Y-4.45500
X-3.06400 Y-4.45500
X-3.06400 Y-4.45300
X-3.06300 Y-4.45300
X-3.06300 Y-4.45200
X-3.06200 Y-4.45200
X-3.06200 Y-4.45000
X-3.06100 Y-4.45000
X-3.06100 Y-4.44800
X-3.06000 Y-4.44800
X-3.06000 Y-4.44600
X-3.05900 Y-4.44600
X-3.05900 Y-4.44500
X-3.05800 Y-4.44500
X-3.05800 Y-4.44300
X-3.05700 Y-4.44300
X-3.05700 Y-4.44100
X-3.05600 Y-4.44100
X-3.05600 Y-4.43900
X-3.05500 Y-4.43900
X-3.05500 Y-4.43800
X-3.05400 Y-4.43800
X-3.05400 Y-4.43600
X-3.05300 Y-4.43600
X-3.05300 Y-4.43400
X-3.05200 Y-4.43400
X-3.05200 Y-4.43200
X-3.05100 Y-4.43200
X-3.05100 Y-4.43100
X-3.05000 Y-4.43100
X-3.05000 Y-4.42900
X-3.04900 Y-4.42900
X-3.04900 Y-4.42700
X-3.04800 Y-4.42700
X-3.04800 Y-4.42600
X-3.04700 Y-4.42600
X-3.04700 Y-4.42400
X-3.04600 Y-4.42400
X-3.04600 Y-4.42200
X-3.04500 Y-4.42200
X-3.04500 Y-4.42000
X-3.04400 Y-4.42000
X-3.04400 Y-4.41800
X-3.04300 Y-4.41800
X-3.04300 Y-4.41700
X-3.04200 Y-4.41700
X-3.04200 Y-4.41500
X-3.04100 Y-4.41500
X-3.04100 Y-4.41300
X-3.04000 Y-4.41300
X-3.04000 Y-4.41100
X-3.03900 Y-4.41100
X-3.03900 Y-4.40900
X-3.03800 Y-4.40900
X-3.03800 Y-4.40700
X-3.03700 Y-4.40700
X-3.03700 Y-4.40500
X-3.03600 Y-4.40500
X-3.03600 Y-4.40300
X-3.03500 Y-4.40300
X-3.03500 Y-4.40100
X-3.03400 Y-4.40100
X-3.03400 Y-4.39900
X-3.03300 Y-4.39900
X-3.03300 Y-4.39700
X-3.03200 Y-4.39700
X-3.03200 Y-4.39500
X-3.03100 Y-4.39500
X-3.03100 Y-4.39300
X-3.03000 Y-4.39300
X-3.03000 Y-4.39100
X-3.02900 Y-4.39100
X-3.02900 Y-4.38900
X-3.02800 Y-4.38900
X-3.02800 Y-4.38700
X-3.02700 Y-4.38700
X-3.02700 Y-4.38500
X-3.02600 Y-4.38500
X-3.02600 Y-4.38300
X-3.02500 Y-4.38300
X-3.02500 Y-4.38100
X-3.02400 Y-4.38100
X-3.02400 Y-4.37900
X-3.02300 Y-4.37900
X-3.02300 Y-4.37700
X-3.02200 Y-4.37700
X-3.02200 Y-4.37500
X-3.02100 Y-4.37500
X-3.02100 Y-4.37300
X-3.02000 Y-4.37300
X-3.02000 Y-4.37100
X-3.01900 Y-4.37100
X-3.01900 Y-4.36900
X-3.01800 Y-4.36900
X-3.01800 Y-4.36700
X-3.01700 Y-4.36700
X-3.01700 Y-4.36400
X-3.01600 Y-4.36400
X-3.01600 Y-4.36200
X-3.01500 Y-4.36200
X-3.01500 Y-4.36000
X-3.01400 Y-4.36000
X-3.01400 Y-4.35800
X-3.01300 Y-4.35800
X-3.01300 Y-4.35600
X-3.01200 Y-4.35600
X-3.01200 Y-4.35300
X-3.01100 Y-4.35300
X-3.01100 Y-4.35100
X-3.01000 Y-4.35100
X-3.01000 Y-4.34900
X-3.00900 Y-4.34900
X-3.00900 Y-4.34700
X-3.00800 Y-4.34700
X-3.00800 Y-4.34400
X-3.00700 Y-4.34400
X-3.00700 Y-4.34200
X-3.00600 Y-4.34200
X-3.00600 Y-4.34000
X-3.00500 Y-4.34000
X-3.00500 Y-4.33800
X-3.00400 Y-4.33800
X-3.00400 Y-4.33600
X-3.00300 Y-4.33600
X-3.00300 Y-4.33300
X-3.00200 Y-4.33300
X-3.00200 Y-4.33100
X-3.00100 Y-4.33100
X-3.00100 Y-4.32900
X-3.00000 Y-4.32900
X-3.00000 Y-4.32600
X-2.99900 Y-4.32600
X-2.99900 Y-4.32400
X-2.99800 Y-4.32400
X-2.99800 Y-4.32100
X-2.99700 Y-4.32100
X-2.99700 Y-4.31900
X-2.99600 Y-4.31900
X-2.99600 Y-4.31600
X-2.99500 Y-4.31600
X-2.99500 Y-4.31300
X-2.99400 Y-4.31300
X-2.99400 Y-4.31100
X-2.99300 Y-4.31100
X-2.99300 Y-4.30800
X-2.99200 Y-4.30800
X-2.99200 Y-4.30600
X-2.99100 Y-4.30600
X-2.99100 Y-4.30300
X-2.99000 Y-4.30300
X-2.99000 Y-4.30100
X-2.98900 Y-4.30100
X-2.98900 Y-4.29800
X-2.98800 Y-4.29800
X-2.98800 Y-4.29600
X-2.98700 Y-4.29600
X-2.98700 Y-4.29300
X-2.98600 Y-4.29300
X-2.98600 Y-4.29100
X-2.98500 Y-4.29100
X-2.98500 Y-4.28800
X-2.98400 Y-4.28800
X-2.98400 Y-4.28600
X-2.98300 Y-4.28600
X-2.98300 Y-4.28300
X-2.98200 Y-4.28300
X-2.98200 Y-4.28000
X-2.98100 Y-4.28000
X-2.98100 Y-4.27700
X-2.98000 Y-4.27700
X-2.98000 Y-4.27400
X-2.97900 Y-4.27400
X-2.97900 Y-4.27100
X-2.97800 Y-4.27100
X-2.97800 Y-4.26800
X-2.97700 Y-4.26800
X-2.97700 Y-4.26500
X-2.97600 Y-4.26500
X-2.97600 Y-4.26200
X-2.97500 Y-4.26200
X-2.97500 Y-4.25900
X-2.97400 Y-4.25900
X-2.97400 Y-4.25600
X-2.97300 Y-4.25600
X-2.97300 Y-4.25300
X-2.97200 Y-4.25300
X-2.97200 Y-4.25000
X-2.97100 Y-4.25000
X-2.97100 Y-4.24700
X-2.97000 Y-4.24700
X-2.97000 Y-4.24400
X-2.96900 Y-4.24400
X-2.96900 Y-4.24100
X-2.96800 Y-4.24100
X-2.96800 Y-4.23800
X-2.96700 Y-4.23800
X-2.96700 Y-4.23500
X-2.96600 Y-4.23500
X-2.96600 Y-4.23100
X-2.96500 Y-4.23100
X-2.96500 Y-4.22800
X-2.96400 Y-4.22800
X-2.96400 Y-4.22400
X-2.96300 Y-4.22400
X-2.96300 Y-4.22100
X-2.96200 Y-4.22100
X-2.96200 Y-4.21700
X-2.96100 Y-4.21700
X-2.96100 Y-4.21400
X-2.96000 Y-4.21400
X-2.96000 Y-4.21000
X-2.95900 Y-4.21000
X-2.95900 Y-4.20700
X-2.95800 Y-4.20700
X-2.95800 Y-4.20300
X-2.95700 Y-4.20300
X-2.95700 Y-4.20000
X-2.95600 Y-4.20000
X-2.95600 Y-4.19600
X-2.95500 Y-4.19600
X-2.95500 Y-4.19300
X-2.95400 Y-4.19300
X-2.95400 Y-4.18900
X-2.95300 Y-4.18900
X-2.95300 Y-4.18400
X-2.95200 Y-4.18400
X-2.95200 Y-4.18000
X-2.95100 Y-4.18000
X-2.95100 Y-4.17600
X-2.95000 Y-4.17600
X-2.95000 Y-4.17100
X-2.94900 Y-4.17100
X-2.94900 Y-4.16700
X-2.94800 Y-4.16700
X-2.94800 Y-4.16300
X-2.94700 Y-4.16300
X-2.94700 Y-4.15800
X-2.94600 Y-4.15800
X-2.94600 Y-4.15400
X-2.94500 Y-4.15400
X-2.94500 Y-4.15000
X-2.94400 Y-4.15000
X-2.94400 Y-4.14500
X-2.94300 Y-4.14500
X-2.94300 Y-4.14100
X-2.94200 Y-4.14100
X-2.94200 Y-4.13500
X-2.94100 Y-4.13500
X-2.94100 Y-4.13000
X-2.94000 Y-4.13000
X-2.94000 Y-4.12400
X-2.93900 Y-4.12400
X-2.93900 Y-4.11900
X-2.93800 Y-4.11900
X-2.93800 Y-4.11300
X-2.93700 Y-4.11300
X-2.93700 Y-4.10700
X-2.93600 Y-4.10700
X-2.93600 Y-4.10200
X-2.93500 Y-4.10200
X-2.93500 Y-4.09600
X-2.93400 Y-4.09600
X-2.93400 Y-4.09000
X-2.93300 Y-4.09000
X-2.93300 Y-4.08200
X-2.93200 Y-4.08200
X-2.93200 Y-4.07500
X-2.93100 Y-4.07500
X-2.93100 Y-4.06700
X-2.93000 Y-4.06700
X-2.93000 Y-4.05900
X-2.92900 Y-4.05900
X-2.92900 Y-4.05100
X-2.92800 Y-4.05100
X-2.92800 Y-4.04300
X-2.92700 Y-4.04300
X-2.92700 Y-4.03100
X-2.92600 Y-4.03100
X-2.92600 Y-4.01800
X-2.92500 Y-4.01800
X-2.92500 Y-4.00500
X-2.92400 Y-4.00500
X-2.92400 Y-3.99200
X-2.92300 Y-3.99200
X-2.92300 Y-3.95700
X-2.92200 Y-3.95700
X-2.92200 Y-3.91700
X-2.92300 Y-3.91700
X-2.92300 Y-3.88200
X-2.92400 Y-3.88200
X-2.92400 Y-3.86900
X-2.92500 Y-3.86900
X-2.92500 Y-3.85600
X-2.92600 Y-3.85600
X-2.92600 Y-3.84200
X-2.92700 Y-3.84200
X-2.92700 Y-3.83100
X-2.92800 Y-3.83100
X-2.92800 Y-3.82300
X-2.92900 Y-3.82300
X-2.92900 Y-3.81500
X-2.93000 Y-3.81500
X-2.93000 Y-3.80700
X-2.93100 Y-3.80700
X-2.93100 Y-3.79900
X-2.93200 Y-3.79900
X-2.93200 Y-3.79100
X-2.93300 Y-3.79100
X-2.93300 Y-3.78400
X-2.93400 Y-3.78400
X-2.93400 Y-3.77800
X-2.93500 Y-3.77800
X-2.93500 Y-3.77200
X-2.93600 Y-3.77200
X-2.93600 Y-3.76600
X-2.93700 Y-3.76600
X-2.93700 Y-3.76100
X-2.93800 Y-3.76100
X-2.93800 Y-3.75500
X-2.93900 Y-3.75500
X-2.93900 Y-3.75000
X-2.94000 Y-3.75000
X-2.94000 Y-3.74400
X-2.94100 Y-3.74400
X-2.94100 Y-3.73800
X-2.94200 Y-3.73800
X-2.94200 Y-3.73300
X-2.94300 Y-3.73300
X-2.94300 Y-3.72800
X-2.94400 Y-3.72800
X-2.94400 Y-3.72400
X-2.94500 Y-3.72400
X-2.94500 Y-3.72000
X-2.94600 Y-3.72000
X-2.94600 Y-3.71500
X-2.94700 Y-3.71500
X-2.94700 Y-3.71100
X-2.94800 Y-3.71100
X-2.94800 Y-3.70700
X-2.94900 Y-3.70700
X-2.94900 Y-3.70200
X-2.95000 Y-3.70200
X-2.95000 Y-3.69800
X-2.95100 Y-3.69800
X-2.95100 Y-3.69400
X-2.95200 Y-3.69400
X-2.95200 Y-3.68900
X-2.95300 Y-3.68900
X-2.95300 Y-3.68500
X-2.95400 Y-3.68500
X-2.95400 Y-3.68100
X-2.95500 Y-3.68100
X-2.95500 Y-3.67800
X-2.95600 Y-3.67800
X-2.95600 Y-3.67400
X-2.95700 Y-3.67400
X-2.95700 Y-3.67100
X-2.95800 Y-3.67100
X-2.95800 Y-3.66700
X-2.95900 Y-3.66700
X-2.95900 Y-3.66400
X-2.96000 Y-3.66400
X-2.96000 Y-3.66000
X-2.96100 Y-3.66000
X-2.96100 Y-3.65700
X-2.96200 Y-3.65700
X-2.96200 Y-3.65300
X-2.96300 Y-3.65300
X-2.96300 Y-3.65000
X-2.96400 Y-3.65000
X-2.96400 Y-3.64600
X-2.96500 Y-3.64600
X-2.96500 Y-3.64300
X-2.96600 Y-3.64300
X-2.96600 Y-3.63900
X-2.96700 Y-3.63900
X-2.96700 Y-3.63600
X-2.96800 Y-3.63600
X-2.96800 Y-3.63300
X-2.96900 Y-3.63300
X-2.96900 Y-3.63000
X-2.97000 Y-3.63000
X-2.97000 Y-3.62700
X-2.97100 Y-3.62700
X-2.97100 Y-3.62400
X-2.97200 Y-3.62400
X-2.97200 Y-3.62100
X-2.97300 Y-3.62100
X-2.97300 Y-3.61800
X-2.97400 Y-3.61800
X-2.97400 Y-3.61500
X-2.97500 Y-3.61500
X-2.97500 Y-3.61200
X-2.97600 Y-3.61200
X-2.97600 Y-3.60900
X-2.97700 Y-3.60900
X-2.97700 Y-3.60600
X-2.97800 Y-3.60600
X-2.97800 Y-3.60300
X-2.97900 Y-3.60300
X-2.97900 Y-3.60000
X-2.98000 Y-3.60000
X-2.98000 Y-3.59700
X-2.98100 Y-3.59700
X-2.98100 Y-3.59400
X-2.98200 Y-3.59400
X-2.98200 Y-3.59100
X-2.98300 Y-3.59100
X-2.98300 Y-3.58800
X-2.98400 Y-3.58800
X-2.98400 Y-3.58600
X-2.98500 Y-3.58600
X-2.98500 Y-3.58300
X-2.98600 Y-3.58300
X-2.98600 Y-3.58100
X-2.98700 Y-3.58100
X-2.98700 Y-3.57800
X-2.98800 Y-3.57800
X-2.98800 Y-3.57600
X-2.98900 Y-3.57600
X-2.98900 Y-3.57300
X-2.99000 Y-3.57300
X-2.99000 Y-3.57100
X-2.99100 Y-3.57100
X-2.99100 Y-3.56800
X-2.99200 Y-3.56800
X-2.99200 Y-3.56500
X-2.99300 Y-3.56500
X-2.99300 Y-3.56300
X-2.99400 Y-3.56300
X-2.99400 Y-3.56000
X-2.99500 Y-3.56000
X-2.99500 Y-3.55800
X-2.99600 Y-3.55800
X-2.99600 Y-3.55500
X-2.99700 Y-3.55500
X-2.99700 Y-3.55300
X-2.99800 Y-3.55300
X-2.99800 Y-3.55000
X-2.99900 Y-3.55000
X-2.99900 Y-3.54800
X-3.00000 Y-3.54800
X-3.00000 Y-3.54500
X-3.00100 Y-3.54500
X-3.00100 Y-3.54300
X-3.00200 Y-3.54300
X-3.00200 Y-3.54000
X-3.00300 Y-3.54000
X-3.00300 Y-3.53800
X-3.00400 Y-3.53800
X-3.00400 Y-3.53600
X-3.00500 Y-3.53600
X-3.00500 Y-3.53400
X-3.00600 Y-3.53400
X-3.00600 Y-3.53200
X-3.00700 Y-3.53200
X-3.00700 Y-3.52900
X-3.00800 Y-3.52900
X-3.00800 Y-3.52700
X-3.00900 Y-3.52700
X-3.00900 Y-3.52500
X-3.01000 Y-3.52500
X-3.01000 Y-3.52300
X-3.01100 Y-3.52300
X-3.01100 Y-3.52100
X-3.01200 Y-3.52100
X-3.01200 Y-3.51800
X-3.01300 Y-3.51800
X-3.01300 Y-3.51600
X-3.01400 Y-3.51600
X-3.01400 Y-3.51400
X-3.01500 Y-3.51400
X-3.01500 Y-3.51200
X-3.01600 Y-3.51200
X-3.01600 Y-3.50900
X-3.01700 Y-3.50900
X-3.01700 Y-3.50700
X-3.01800 Y-3.50700
X-3.01800 Y-3.50500
X-3.01900 Y-3.50500
X-3.01900 Y-3.50300
X-3.02000 Y-3.50300
X-3.02000 Y-3.50100
X-3.02100 Y-3.50100
X-3.02100 Y-3.49800
X-3.02200 Y-3.49800
X-3.02200 Y-3.49600
X-3.02300 Y-3.49600
X-3.02300 Y-3.49400
X-3.02400 Y-3.49400
X-3.02400 Y-3.49200
X-3.02500 Y-3.49200
X-3.02500 Y-3.49100
X-3.02600 Y-3.49100
X-3.02600 Y-3.48900
X-3.02700 Y-3.48900
X-3.02700 Y-3.48700
X-3.02800 Y-3.48700
X-3.02800 Y-3.48500
X-3.02900 Y-3.48500
X-3.02900 Y-3.48300
X-3.03000 Y-3.48300
X-3.03000 Y-3.48100
X-3.03100 Y-3.48100
X-3.03100 Y-3.47900
X-3.03200 Y-3.47900
X-3.03200 Y-3.47700
X-3.03300 Y-3.47700
X-3.03300 Y-3.47500
X-3.03400 Y-3.47500
X-3.03400 Y-3.47300
X-3.03500 Y-3.47300
X-3.03500 Y-3.47100
X-3.03600 Y-3.47100
X-3.03600 Y-3.46900
X-3.03700 Y-3.46900
X-3.03700 Y-3.46700
X-3.03800 Y-3.46700
X-3.03800 Y-3.46500
X-3.03900 Y-3.46500
X-3.03900 Y-3.46300
X-3.04000 Y-3.46300
X-3.04000 Y-3.46100
X-3.04100 Y-3.46100
X-3.04100 Y-3.45900
X-3.04200 Y-3.45900
X-3.04200 Y-3.45700
X-3.04300 Y-3.45700
X-3.04300 Y-3.45500
X-3.04400 Y-3.45500
X-3.04400 Y-3.45400
X-3.04500 Y-3.45400
X-3.04500 Y-3.45200
X-3.04600 Y-3.45200
X-3.04600 Y-3.45000
X-3.04700 Y-3.45000
X-3.04700 Y-3.44800
X-3.04800 Y-3.44800
X-3.04800 Y-3.44700
X-3.04900 Y-3.44700
X-3.04900 Y-3.44500
X-3.05000 Y-3.44500
X-3.05000 Y-3.44300
X-3.05100 Y-3.44300
X-3.05100 Y-3.44100
X-3.05200 Y-3.44100
X-3.05200 Y-3.44000
X-3.05300 Y-3.44000
X-3.05300 Y-3.43800
X-3.05400 Y-3.43800
X-3.05400 Y-3.43600
X-3.05500 Y-3.43600
X-3.05500 Y-3.43400
X-3.05600 Y-3.43400
X-3.05600 Y-3.43300
X-3.05700 Y-3.43300
X-3.05700 Y-3.43100
X-3.05800 Y-3.43100
X-3.05800 Y-3.42900
X-3.05900 Y-3.42900
X-3.05900 Y-3.42700
X-3.06000 Y-3.42700
X-3.06000 Y-3.42600
X-3.06100 Y-3.42600
X-3.06100 Y-3.42400
X-3.06200 Y-3.42400
X-3.06200 Y-3.42200
X-3.06300 Y-3.42200
X-3.06300 Y-3.42000
X-3.06400 Y-3.42000
X-3.06400 Y-3.41900
X-3.06500 Y-3.41900
X-3.06500 Y-3.41700
X-3.06600 Y-3.41700
X-3.06600 Y-3.41500
X-3.06700 Y-3.41500
X-3.06700 Y-3.41400
X-3.06800 Y-3.41400
X-3.06800 Y-3.41200
X-3.06900 Y-3.41200
X-3.06900 Y-3.41000
X-3.07000 Y-3.41000
X-3.07000 Y-3.40900
X-3.07100 Y-3.40900
X-3.07100 Y-3.40700
X-3.07200 Y-3.40700
X-3.07200 Y-3.40600
X-3.07300 Y-3.40600
X-3.07300 Y-3.40400
X-3.07400 Y-3.40400
X-3.07400 Y-3.40200
X-3.07500 Y-3.40200
X-3.07500 Y-3.40100
X-3.07600 Y-3.40100
X-3.07600 Y-3.39900
X-3.07700 Y-3.39900
X-3.07700 Y-3.39800
X-3.07800 Y-3.39800
X-3.07800 Y-3.39600
X-3.07900 Y-3.39600
X-3.07900 Y-3.39500
X-3.08000 Y-3.39500
X-3.08000 Y-3.39300
X-3.08100 Y-3.39300
X-3.08100 Y-3.39200
X-3.08200 Y-3.39200
X-3.08200 Y-3.39000
X-3.08300 Y-3.39000
X-3.08300 Y-3.38800
X-3.08400 Y-3.38800
X-3.08400 Y-3.38700
X-3.08500 Y-3.38700
X-3.08500 Y-3.38500
X-3.08600 Y-3.38500
X-3.08600 Y-3.38400
X-3.08700 Y-3.38400
X-3.08700 Y-3.38200
X-3.08800 Y-3.38200
X-3.08800 Y-3.38100
X-3.08900 Y-3.38100
X-3.08900 Y-3.37900
X-3.09000 Y-3.37900
X-3.09000 Y-3.37700
X-3.09100 Y-3.37700
X-3.09100 Y-3.37600
X-3.09200 Y-3.37600
X-3.09200 Y-3.37400
X-3.09300 Y-3.37400
X-3.09300 Y-3.37300
X-3.09400 Y-3.37300
X-3.09400 Y-3.37100
X-3.09500 Y-3.37100
X-3.09500 Y-3.37000
X-3.09600 Y-3.37000
X-3.09600 Y-3.36800
X-3.09700 Y-3.36800
X-3.09700 Y-3.36700
X-3.09800 Y-3.36700
X-3.09800 Y-3.36600
X-3.09900 Y-3.36600
X-3.09900 Y-3.36400
X-3.10000 Y-3.36400
X-3.10000 Y-3.36300
X-3.10100 Y-3.36300
X-3.10100 Y-3.36100
X-3.10200 Y-3.36100
X-3.10200 Y-3.36000
X-3.10300 Y-3.36000
X-3.10300 Y-3.35900
X-3.10400 Y-3.35900
X-3.10400 Y-3.35700
X-3.10500 Y-3.35700
X-3.10500 Y-3.35600
X-3.10600 Y-3.35600
X-3.10600 Y-3.35400
X-3.10700 Y-3.35400
X-3.10700 Y-3.35300
X-3.10800 Y-3.35300
X-3.10800 Y-3.35200
X-3.10900 Y-3.35200
X-3.10900 Y-3.35000
X-3.11000 Y-3.35000
X-3.11000 Y-3.34900
X-3.11100 Y-3.34900
X-3.11100 Y-3.34700
X-3.11200 Y-3.34700
X-3.11200 Y-3.34600
X-3.11300 Y-3.34600
X-3.11300 Y-3.34400
X-3.11400 Y-3.34400
X-3.11400 Y-3.34300
X-3.11500 Y-3.34300
X-3.11500 Y-3.34200
X-3.11600 Y-3.34200
X-3.11600 Y-3.34000
X-3.11700 Y-3.34000
X-3.11700 Y-3.33900
X-3.11800 Y-3.33900
X-3.11800 Y-3.33700
X-3.11900 Y-3.33700
X-3.11900 Y-3.33600
X-3.12000 Y-3.33600
X-3.12000 Y-3.33500
X-3.12100 Y-3.33500
X-3.12100 Y-3.33300
X-3.12200 Y-3.33300
X-3.12200 Y-3.33200
X-3.12300 Y-3.33200
X-3.12300 Y-3.33000
X-3.12400 Y-3.33000
X-3.12400 Y-3.32900
X-3.12500 Y-3.32900
X-3.12500 Y-3.32800
X-3.12600 Y-3.32800
X-3.12600 Y-3.32700
X-3.12700 Y-3.32700
X-3.12700 Y-3.32500
X-3.12800 Y-3.32500
X-3.12800 Y-3.32400
X-3.12900 Y-3.32400
X-3.12900 Y-3.32300
X-3.13000 Y-3.32300
X-3.13000 Y-3.32200
X-3.13100 Y-3.32200
X-3.13100 Y-3.32000
X-3.13200 Y-3.32000
X-3.13200 Y-3.31900
X-3.13300 Y-3.31900
X-3.13300 Y-3.31800
X-3.13400 Y-3.31800
X-3.13400 Y-3.31600
X-3.13500 Y-3.31600
X-3.13500 Y-3.31500
X-3.13600 Y-3.31500
X-3.13600 Y-3.31400
X-3.13700 Y-3.31400
X-3.13700 Y-3.31300
X-3.13800 Y-3.31300
X-3.13800 Y-3.31100
X-3.13900 Y-3.31100
X-3.13900 Y-3.31000
X-3.14000 Y-3.31000
X-3.14000 Y-3.30900
X-3.14100 Y-3.30900
X-3.14100 Y-3.30800
X-3.14200 Y-3.30800
X-3.14200 Y-3.30600
X-3.14300 Y-3.30600
X-3.14300 Y-3.30500
X-3.14400 Y-3.30500
X-3.14400 Y-3.30400
X-3.14500 Y-3.30400
X-3.14500 Y-3.30200
X-3.14600 Y-3.30200
X-3.14600 Y-3.30100
X-3.14700 Y-3.30100
X-3.14700 Y-3.30000
X-3.14800 Y-3.30000
X-3.14800 Y-3.29900
X-3.14900 Y-3.29900
X-3.14900 Y-3.29700
X-3.15000 Y-3.29700
X-3.15000 Y-3.29600
X-3.15100 Y-3.29600
X-3.15100 Y-3.29500
X-3.15200 Y-3.29500
X-3.15200 Y-3.29400
X-3.15300 Y-3.29400
X-3.15300 Y-3.29200
X-3.15400 Y-3.29200
X-3.15400 Y-3.29100
X-3.15500 Y-3.29100
X-3.15500 Y-3.29000
X-3.15600 Y-3.29000
X-3.15600 Y-3.28900
X-3.15700 Y-3.28900
X-3.15700 Y-3.28800
X-3.15800 Y-3.28800
X-3.15800 Y-3.28700
X-3.15900 Y-3.28700
X-3.15900 Y-3.28500
X-3.16000 Y-3.28500
X-3.16000 Y-3.28400
X-3.16100 Y-3.28400
X-3.16100 Y-3.28300
X-3.16200 Y-3.28300
X-3.16200 Y-3.28200
X-3.16300 Y-3.28200
X-3.16300 Y-3.28100
X-3.16400 Y-3.28100
X-3.16400 Y-3.28000
X-3.16500 Y-3.28000
X-3.16500 Y-3.27900
X-3.16600 Y-3.27900
X-3.16600 Y-3.27700
X-3.16700 Y-3.27700
X-3.16700 Y-3.27600
X-3.16800 Y-3.27600
X-3.16800 Y-3.27500
X-3.16900 Y-3.27500
X-3.16900 Y-3.27400
X-3.17000 Y-3.27400
X-3.17000 Y-3.27300
X-3.17100 Y-3.27300
X-3.17100 Y-3.27200
X-3.17200 Y-3.27200
X-3.17200 Y-3.27000
X-3.17300 Y-3.27000
X-3.17300 Y-3.26900
X-3.17400 Y-3.26900
X-3.17400 Y-3.26800
X-3.17500 Y-3.26800
X-3.17500 Y-3.26700
X-3.17600 Y-3.26700
X-3.17600 Y-3.26600
X-3.17700 Y-3.26600
X-3.17700 Y-3.26500
X-3.17800 Y-3.26500
X-3.17800 Y-3.26400
X-3.17900 Y-3.26400
X-3.17900 Y-3.26200
X-3.18000 Y-3.26200
X-3.18000 Y-3.26100
X-3.18100 Y-3.26100
X-3.18100 Y-3.26000
X-3.18200 Y-3.26000
X-3.18200 Y-3.25900
X-3.18300 Y-3.25900
X-3.18300 Y-3.25800
X-3.18400 Y-3.25800
X-3.18400 Y-3.25700
X-3.18500 Y-3.25700
X-3.18500 Y-3.25600
X-3.18600 Y-3.25600
X-3.18600 Y-3.25400
X-3.18700 Y-3.25400
X-3.18700 Y-3.25300
X-3.18800 Y-3.25300
X-3.18800 Y-3.25200
X-3.18900 Y-3.25200
X-3.18900 Y-3.25100
X-3.19000 Y-3.25100
X-3.19000 Y-3.25000
X-3.19100 Y-3.25000
X-3.19100 Y-3.24900
X-3.19200 Y-3.24900
X-3.19200 Y-3.24800
X-3.19300 Y-3.24800
X-3.19300 Y-3.24700
X-3.19400 Y-3.24700
X-3.19400 Y-3.24600
X-3.19500 Y-3.24600
X-3.19500 Y-3.24500
X-3.19600 Y-3.24500
X-3.19600 Y-3.24400
X-3.19700 Y-3.24400
X-3.19700 Y-3.24300
X-3.19800 Y-3.24300
X-3.19800 Y-3.24200
X-3.19900 Y-3.24200
X-3.19900 Y-3.24100
X-3.20000 Y-3.24100
X-3.20000 Y-3.24000
X-3.20100 Y-3.24000
X-3.20100 Y-3.23900
X-3.20200 Y-3.23900
X-3.20200 Y-3.23800
X-3.20300 Y-3.23800
X-3.20300 Y-3.23700
X-3.20400 Y-3.23700
X-3.20400 Y-3.23600
X-3.20500 Y-3.23600
X-3.20500 Y-3.23500
X-3.20600 Y-3.23500
X-3.20600 Y-3.23300
X-3.20700 Y-3.23300
X-3.20700 Y-3.23200
X-3.20800 Y-3.23200
X-3.20800 Y-3.23100
X-3.20900 Y-3.23100
X-3.20900 Y-3.23000
X-3.21000 Y-3.23000
X-3.21000 Y-3.22900
X-3.21100 Y-3.22900
X-3.21100 Y-3.22800
X-3.21200 Y-3.22800
X-3.21200 Y-3.22700
X-3.21300 Y-3.22700
X-3.21300 Y-3.22600
X-3.21400 Y-3.22600
X-3.21400 Y-3.22500
X-3.21500 Y-3.22500
X-3.21500 Y-3.22400
X-3.21600 Y-3.22400
X-3.21600 Y-3.22300
X-3.21700 Y-3.22300
X-3.21700 Y-3.22200
X-3.21800 Y-3.22200
X-3.21800 Y-3.22100
X-3.21900 Y-3.22100
X-3.21900 Y-3.22000
X-3.22000 Y-3.22000
X-3.22000 Y-3.21900
X-3.22100 Y-3.21900
X-3.22100 Y-3.21800
X-3.22200 Y-3.21800
X-3.22200 Y-3.21700
X-3.22300 Y-3.21700
X-3.22300 Y-3.21600
X-3.22400 Y-3.21600
X-3.22400 Y-3.21500
X-3.22500 Y-3.21500
X-3.22500 Y-3.21400
X-3.22600 Y-3.21400
X-3.22600 Y-3.21300
X-3.22700 Y-3.21300
X-3.22700 Y-3.21200
X-3.22800 Y-3.21200
X-3.22800 Y-3.21100
X-3.22900 Y-3.21100
X-3.22900 Y-3.21000
X-3.23000 Y-3.21000
X-3.23000 Y-3.20900
X-3.23100 Y-3.20900
X-3.23100 Y-3.20800
X-3.23200 Y-3.20800
X-3.23200 Y-3.20700
X-3.23400 Y-3.20700
X-3.23400 Y-3.20600
X-3.23500 Y-3.20600
X-3.23500 Y-3.20500
X-3.23600 Y-3.20500
X-3.23600 Y-3.20400
X-3.23700 Y-3.20400
X-3.23700 Y-3.20300
X-3.23800 Y-3.20300
X-3.23800 Y-3.20200
X-3.23900 Y-3.20200
X-3.23900 Y-3.20100
X-3.24000 Y-3.20100
X-3.24000 Y-3.20000
X-3.24100 Y-3.20000
X-3.24100 Y-3.19900
X-3.24200 Y-3.19900
X-3.24200 Y-3.19800
X-3.24300 Y-3.19800
X-3.24300 Y-3.19700
X-3.24400 Y-3.19700
X-3.24400 Y-3.19600
X-3.24500 Y-3.19600
X-3.24500 Y-3.19500
X-3.24600 Y-3.19500
X-3.24600 Y-3.19400
X-3.24700 Y-3.19400
X-3.24700 Y-3.19300
X-3.24800 Y-3.19300
X-3.24800 Y-3.19200
X-3.24900 Y-3.19200
X-3.24900 Y-3.19100
X-3.25000 Y-3.19100
X-3.25000 Y-3.19000
X-3.25100 Y-3.19000
X-3.25100 Y-3.18900
X-3.25200 Y-3.18900
X-3.25200 Y-3.18800
X-3.25300 Y-3.18800
X-3.25300 Y-3.18700
X-3.25400 Y-3.18700
X-3.25400 Y-3.18600
X-3.25600 Y-3.18600
X-3.25600 Y-3.18500
X-3.25700 Y-3.18500
X-3.25700 Y-3.18400
X-3.25800 Y-3.18400
X-3.25800 Y-3.18300
X-3.25900 Y-3.18300
X-3.25900 Y-3.18200
X-3.26000 Y-3.18200
X-3.26000 Y-3.18100
X-3.26100 Y-3.18100
X-3.26100 Y-3.18000
X-3.26200 Y-3.18000
X-3.26200 Y-3.17900
X-3.26400 Y-3.17900
X-3.26400 Y-3.17800
X-3.26500 Y-3.17800
X-3.26500 Y-3.17700
X-3.26600 Y-3.17700
X-3.26600 Y-3.17600
X-3.26700 Y-3.17600
X-3.26700 Y-3.17500
X-3.26800 Y-3.17500
X-3.26800 Y-3.17400
X-3.26900 Y-3.17400
X-3.26900 Y-3.17300
X-3.27100 Y-3.17300
X-3.27100 Y-3.17200
X-3.27200 Y-3.17200
X-3.27200 Y-3.17100
X-3.27300 Y-3.17100
X-3.27300 Y-3.17000
X-3.27400 Y-3.17000
X-3.27400 Y-3.16900
X-3.27500 Y-3.16900
X-3.27500 Y-3.16800
X-3.27600 Y-3.16800
X-3.27600 Y-3.16700
X-3.27700 Y-3.16700
X-3.27700 Y-3.16600
X-3.27900 Y-3.16600
X-3.27900 Y-3.16500
X-3.28000 Y-3.16500
X-3.28000 Y-3.16400
X-3.28100 Y-3.16400
X-3.28100 Y-3.16300
X-3.28200 Y-3.16300
X-3.28200 Y-3.16200
X-3.28300 Y-3.16200
X-3.28300 Y-3.16100
X-3.28400 Y-3.16100
X-3.28400 Y-3.16000
X-3.28600 Y-3.16000
X-3.28600 Y-3.15900
X-3.28700 Y-3.15900
X-3.28700 Y-3.15800
X-3.28800 Y-3.15800
X-3.28800 Y-3.15700
X-3.28900 Y-3.15700
X-3.28900 Y-3.15600
X-3.29000 Y-3.15600
X-3.29000 Y-3.15500
X-3.29100 Y-3.15500
X-3.29100 Y-3.15400
X-3.29300 Y-3.15400
X-3.29300 Y-3.15300
X-3.29400 Y-3.15300
X-3.29400 Y-3.15200
X-3.29500 Y-3.15200
X-3.29500 Y-3.15100
X-3.29600 Y-3.15100
X-3.29600 Y-3.15000
X-3.29800 Y-3.15000
X-3.29800 Y-3.14900
X-3.29900 Y-3.14900
X-3.29900 Y-3.14800
X-3.30000 Y-3.14800
X-3.30000 Y-3.14700
X-3.30100 Y-3.14700
X-3.30100 Y-3.14600
X-3.30300 Y-3.14600
X-3.30300 Y-3.14500
X-3.30400 Y-3.14500
X-3.30400 Y-3.14400
X-3.30500 Y-3.14400
X-3.30500 Y-3.14300
X-3.30700 Y-3.14300
X-3.30700 Y-3.14200
X-3.30800 Y-3.14200
X-3.30800 Y-3.14100
X-3.30900 Y-3.14100
X-3.30900 Y-3.14000
X-3.31000 Y-3.14000
X-3.31000 Y-3.13900
X-3.31200 Y-3.13900
X-3.31200 Y-3.13800
X-3.31300 Y-3.13800
X-3.31300 Y-3.13700
X-3.31400 Y-3.13700
X-3.31400 Y-3.13600
X-3.31500 Y-3.13600
X-3.31500 Y-3.13500
X-3.31700 Y-3.13500
X-3.31700 Y-3.13400
X-3.31800 Y-3.13400
X-3.31800 Y-3.13300
X-3.31900 Y-3.13300
X-3.31900 Y-3.13200
X-3.32100 Y-3.13200
X-3.32100 Y-3.13100
X-3.32200 Y-3.13100
X-3.32200 Y-3.13000
X-3.32300 Y-3.13000
X-3.32300 Y-3.12900
X-3.32400 Y-3.12900
X-3.32400 Y-3.12800
X-3.32600 Y-3.12800
X-3.32600 Y-3.12700
X-3.32700 Y-3.12700
X-3.32700 Y-3.12600
X-3.32800 Y-3.12600
X-3.32800 Y-3.12500
X-3.32900 Y-3.12500
X-3.32900 Y-3.12400
X-3.33100 Y-3.12400
X-3.33100 Y-3.12300
X-3.33200 Y-3.12300
X-3.33200 Y-3.12200
X-3.33400 Y-3.12200
X-3.33400 Y-3.12100
X-3.33500 Y-3.12100
X-3.33500 Y-3.12000
X-3.33600 Y-3.12000
X-3.33600 Y-3.11900
X-3.33800 Y-3.11900
X-3.33800 Y-3.11800
X-3.33900 Y-3.11800
X-3.33900 Y-3.11700
X-3.34100 Y-3.11700
X-3.34100 Y-3.11600
X-3.34200 Y-3.11600
X-3.34200 Y-3.11500
X-3.34300 Y-3.11500
X-3.34300 Y-3.11400
X-3.34500 Y-3.11400
X-3.34500 Y-3.11300
X-3.34600 Y-3.11300
X-3.34600 Y-3.11200
X-3.34800 Y-3.11200
X-3.34800 Y-3.11100
X-3.34900 Y-3.11100
X-3.34900 Y-3.11000
X-3.35000 Y-3.11000
X-3.35000 Y-3.10900
X-3.35200 Y-3.10900
X-3.35200 Y-3.10800
X-3.35300 Y-3.10800
X-3.35300 Y-3.10700
X-3.35500 Y-3.10700
X-3.35500 Y-3.10600
X-3.35600 Y-3.10600
X-3.35600 Y-3.10500
X-3.35700 Y-3.10500
X-3.35700 Y-3.10400
X-3.35900 Y-3.10400
X-3.35900 Y-3.10300
X-3.36000 Y-3.10300
X-3.36000 Y-3.10200
X-3.36200 Y-3.10200
X-3.36200 Y-3.10100
X-3.36300 Y-3.10100
X-3.36300 Y-3.10000
X-3.36500 Y-3.10000
X-3.36500 Y-3.09900
X-3.36600 Y-3.09900
X-3.36600 Y-3.09800
X-3.36700 Y-3.09800
X-3.36700 Y-3.09700
X-3.36900 Y-3.09700
X-3.36900 Y-3.09600
X-3.37000 Y-3.09600
X-3.37000 Y-3.09500
X-3.37200 Y-3.09500
X-3.37200 Y-3.09400
X-3.37300 Y-3.09400
X-3.37300 Y-3.09300
X-3.37500 Y-3.09300
X-3.37500 Y-3.09200
X-3.37600 Y-3.09200
X-3.37600 Y-3.09100
X-3.37800 Y-3.09100
X-3.37800 Y-3.09000
X-3.38000 Y-3.09000
X-3.38000 Y-3.08900
X-3.38100 Y-3.08900
X-3.38100 Y-3.08800
X-3.38300 Y-3.08800
X-3.38300 Y-3.08700
X-3.38400 Y-3.08700
X-3.38400 Y-3.08600
X-3.38600 Y-3.08600
X-3.38600 Y-3.08500
X-3.38700 Y-3.08500
X-3.38700 Y-3.08400
X-3.38900 Y-3.08400
X-3.38900 Y-3.08300
X-3.39000 Y-3.08300
X-3.39000 Y-3.08200
X-3.39200 Y-3.08200
X-3.39200 Y-3.08100
X-3.39400 Y-3.08100
X-3.39400 Y-3.08000
X-3.39500 Y-3.08000
X-3.39500 Y-3.07900
X-3.39700 Y-3.07900
X-3.39700 Y-3.07800
X-3.39800 Y-3.07800
X-3.39800 Y-3.07700
X-3.40000 Y-3.07700
X-3.40000 Y-3.07600
X-3.40100 Y-3.07600
X-3.40100 Y-3.07500
X-3.40300 Y-3.07500
X-3.40300 Y-3.07400
X-3.40400 Y-3.07400
X-3.40400 Y-3.07300
X-3.40600 Y-3.07300
X-3.40600 Y-3.07200
X-3.40800 Y-3.07200
X-3.40800 Y-3.07100
X-3.40900 Y-3.07100
X-3.40900 Y-3.07000
X-3.41100 Y-3.07000
X-3.41100 Y-3.06900
X-3.41200 Y-3.06900
X-3.41200 Y-3.06800
X-3.41400 Y-3.06800
X-3.41400 Y-3.06700
X-3.41600 Y-3.06700
X-3.41600 Y-3.06600
X-3.41800 Y-3.06600
X-3.41800 Y-3.06500
X-3.41900 Y-3.06500
X-3.41900 Y-3.06400
X-3.42100 Y-3.06400
X-3.42100 Y-3.06300
X-3.42300 Y-3.06300
X-3.42300 Y-3.06200
X-3.42500 Y-3.06200
X-3.42500 Y-3.06100
X-3.42600 Y-3.06100
X-3.42600 Y-3.06000
X-3.42800 Y-3.06000
X-3.42800 Y-3.05900
X-3.43000 Y-3.05900
X-3.43000 Y-3.05800
X-3.43200 Y-3.05800
X-3.43200 Y-3.05700
X-3.43300 Y-3.05700
X-3.43300 Y-3.05600
X-3.43500 Y-3.05600
X-3.43500 Y-3.05500
X-3.43700 Y-3.05500
X-3.43700 Y-3.05400
X-3.43900 Y-3.05400
X-3.43900 Y-3.05300
X-3.44000 Y-3.05300
X-3.44000 Y-3.05200
X-3.44200 Y-3.05200
X-3.44200 Y-3.05100
X-3.44400 Y-3.05100
X-3.44400 Y-3.05000
X-3.44500 Y-3.05000
X-3.44500 Y-3.04900
X-3.44700 Y-3.04900
X-3.44700 Y-3.04800
X-3.44900 Y-3.04800
X-3.44900 Y-3.04700
X-3.45100 Y-3.04700
X-3.45100 Y-3.04600
X-3.45200 Y-3.04600
X-3.45200 Y-3.04500
X-3.45400 Y-3.04500
X-3.45400 Y-3.04400
X-3.45600 Y-3.04400
X-3.45600 Y-3.04300
X-3.45800 Y-3.04300
X-3.45800 Y-3.04200
X-3.46000 Y-3.04200
X-3.46000 Y-3.04100
X-3.46200 Y-3.04100
X-3.46200 Y-3.04000
X-3.46400 Y-3.04000
X-3.46400 Y-3.03900
X-3.46600 Y-3.03900
X-3.46600 Y-3.03800
X-3.46800 Y-3.03800
X-3.46800 Y-3.03700
X-3.47000 Y-3.03700
X-3.47000 Y-3.03600
X-3.47200 Y-3.03600
X-3.47200 Y-3.03500
X-3.47400 Y-3.03500
X-3.47400 Y-3.03400
X-3.47600 Y-3.03400
X-3.47600 Y-3.03300
X-3.47800 Y-3.03300
X-3.47800 Y-3.03200
X-3.48000 Y-3.03200
X-3.48000 Y-3.03100
X-3.48200 Y-3.03100
X-3.48200 Y-3.03000
X-3.48400 Y-3.03000
X-3.48400 Y-3.02900
X-3.48500 Y-3.02900
X-3.48500 Y-3.02800
X-3.48700 Y-3.02800
X-3.48700 Y-3.02700
X-3.48900 Y-3.02700
X-3.48900 Y-3.02600
X-3.49100 Y-3.02600
X-3.49100 Y-3.02500
X-3.49300 Y-3.02500
X-3.49300 Y-3.02400
X-3.49500 Y-3.02400
X-3.49500 Y-3.02300
X-3.49700 Y-3.02300
X-3.49700 Y-3.02200
X-3.49900 Y-3.02200
X-3.49900 Y-3.02100
X-3.50200 Y-3.02100
X-3.50200 Y-3.02000
X-3.50400 Y-3.02000
X-3.50400 Y-3.01900
X-3.50600 Y-3.01900
X-3.50600 Y-3.01800
X-3.50800 Y-3.01800
X-3.50800 Y-3.01700
X-3.51100 Y-3.01700
X-3.51100 Y-3.01600
X-3.51300 Y-3.01600
X-3.51300 Y-3.01500
X-3.51500 Y-3.01500
X-3.51500 Y-3.01400
X-3.51700 Y-3.01400
X-3.51700 Y-3.01300
X-3.51900 Y-3.01300
X-3.51900 Y-3.01200
X-3.52200 Y-3.01200
X-3.52200 Y-3.01100
X-3.52400 Y-3.01100
X-3.52400 Y-3.01000
X-3.52600 Y-3.01000
X-3.52600 Y-3.00900
X-3.52800 Y-3.00900
X-3.52800 Y-3.00800
X-3.53000 Y-3.00800
X-3.53000 Y-3.00700
X-3.53300 Y-3.00700
X-3.53300 Y-3.00600
X-3.53500 Y-3.00600
X-3.53500 Y-3.00500
X-3.53700 Y-3.00500
X-3.53700 Y-3.00400
X-3.53900 Y-3.00400
X-3.53900 Y-3.00300
X-3.54100 Y-3.00300
X-3.54100 Y-3.00200
X-3.54400 Y-3.00200
X-3.54400 Y-3.00100
X-3.54700 Y-3.00100
X-3.54700 Y-3.00000
X-3.54900 Y-3.00000
X-3.54900 Y-2.99900
X-3.55200 Y-2.99900
X-3.55200 Y-2.99800
X-3.55400 Y-2.99800
X-3.55400 Y-2.99700
X-3.55700 Y-2.99700
X-3.55700 Y-2.99600
X-3.55900 Y-2.99600
X-3.55900 Y-2.99500
X-3.56200 Y-2.99500
X-3.56200 Y-2.99400
X-3.56400 Y-2.99400
X-3.56400 Y-2.99300
X-3.56700 Y-2.99300
X-3.56700 Y-2.99200
X-3.56900 Y-2.99200
X-3.56900 Y-2.99100
X-3.57200 Y-2.99100
X-3.57200 Y-2.99000
X-3.57400 Y-2.99000
X-3.57400 Y-2.98900
X-3.57700 Y-2.98900
X-3.57700 Y-2.98800
X-3.57900 Y-2.98800
X-3.57900 Y-2.98700
X-3.58200 Y-2.98700
X-3.58200 Y-2.98600
X-3.58500 Y-2.98600
X-3.58500 Y-2.98500
X-3.58700 Y-2.98500
X-3.58700 Y-2.98400
X-3.59000 Y-2.98400
X-3.59000 Y-2.98300
X-3.59300 Y-2.98300
X-3.59300 Y-2.98200
X-3.59600 Y-2.98200
X-3.59600 Y-2.98100
X-3.59900 Y-2.98100
X-3.59900 Y-2.98000
X-3.60200 Y-2.98000
X-3.60200 Y-2.97900
X-3.60500 Y-2.97900
X-3.60500 Y-2.97800
X-3.60800 Y-2.97800
X-3.60800 Y-2.97700
X-3.61100 Y-2.97700
X-3.61100 Y-2.97600
X-3.61400 Y-2.97600
X-3.61400 Y-2.97500
X-3.61700 Y-2.97500
X-3.61700 Y-2.97400
X-3.61900 Y-2.97400
X-3.61900 Y-2.97300
X-3.62200 Y-2.97300
X-3.62200 Y-2.97200
X-3.62500 Y-2.97200
X-3.62500 Y-2.97100
X-3.62800 Y-2.97100
X-3.62800 Y-2.97000
X-3.63100 Y-2.97000
X-3.63100 Y-2.96900
X-3.63400 Y-2.96900
X-3.63400 Y-2.96800
X-3.63800 Y-2.96800
X-3.63800 Y-2.96700
X-3.64100 Y-2.96700
X-3.64100 Y-2.96600
X-3.64500 Y-2.96600
X-3.64500 Y-2.96500
X-3.64800 Y-2.96500
X-3.64800 Y-2.96400
X-3.65200 Y-2.96400
X-3.65200 Y-2.96300
X-3.65500 Y-2.96300
X-3.65500 Y-2.96200
X-3.65900 Y-2.96200
X-3.65900 Y-2.96100
X-3.66200 Y-2.96100
X-3.66200 Y-2.96000
X-3.66600 Y-2.96000
X-3.66600 Y-2.95900
X-3.66900 Y-2.95900
X-3.66900 Y-2.95800
X-3.67300 Y-2.95800
X-3.67300 Y-2.95700
X-3.67600 Y-2.95700
X-3.67600 Y-2.95600
X-3.68000 Y-2.95600
X-3.68000 Y-2.95500
X-3.68400 Y-2.95500
X-3.68400 Y-2.95400
X-3.68800 Y-2.95400
X-3.68800 Y-2.95300
X-3.69200 Y-2.95300
X-3.69200 Y-2.95200
X-3.69700 Y-2.95200
X-3.69700 Y-2.95100
X-3.70100 Y-2.95100
X-3.70100 Y-2.95000
X-3.70500 Y-2.95000
X-3.70500 Y-2.94900
X-3.71000 Y-2.94900
X-3.71000 Y-2.94800
X-3.71400 Y-2.94800
X-3.71400 Y-2.94700
X-3.71800 Y-2.94700
X-3.71800 Y-2.94600
X-3.72300 Y-2.94600
X-3.72300 Y-2.94500
X-3.72700 Y-2.94500
X-3.72700 Y-2.94400
X-3.73100 Y-2.94400
X-3.73100 Y-2.94300
X-3.73700 Y-2.94300
X-3.73700 Y-2.94200
X-3.74200 Y-2.94200
X-3.74200 Y-2.94100
X-3.74800 Y-2.94100
X-3.74800 Y-2.94000
X-3.75400 Y-2.94000
X-3.75400 Y-2.93900
X-3.75900 Y-2.93900
X-3.75900 Y-2.93800
X-3.76500 Y-2.93800
X-3.76500 Y-2.93700
X-3.77000 Y-2.93700
X-3.77000 Y-2.93600
X-3.77600 Y-2.93600
X-3.77600 Y-2.93500
X-3.78200 Y-2.93500
X-3.78200 Y-2.93400
X-3.78900 Y-2.93400
X-3.78900 Y-2.93300
X-3.79700 Y-2.93300
X-3.79700 Y-2.93200
X-3.80500 Y-2.93200
X-3.80500 Y-2.93100
X-3.81300 Y-2.93100
X-3.81300 Y-2.93000
X-3.82100 Y-2.93000
X-3.82100 Y-2.92900
X-3.82900 Y-2.92900
X-3.82900 Y-2.92800
X-3.84000 Y-2.92800
X-3.84000 Y-2.92700
X-3.85300 Y-2.92700
X-3.85300 Y-2.92600
X-3.86600 Y-2.92600
X-3.86600 Y-2.92500
X-3.87900 Y-2.92500
X-3.87900 Y-2.92400
X-3.91000 Y-2.92400
X-3.91000 Y-2.92300
X-3.96200 Y-2.92300
X-3.96200 Y-2.92400
G01 Z-0.01181 F39.37008 ( plunge. )
G04 P0 ( dwell for no time -- G64 should not smooth over this point )
X-3.96200 Y-2.92400
X-3.99300 Y-2.92400
X-3.99300 Y-2.92500
X-4.00600 Y-2.92500
X-4.00600 Y-2.92600
X-4.01900 Y-2.92600
X-4.01900 Y-2.92700
X-4.03200 Y-2.92700
X-4.03200 Y-2.92800
X-4.04300 Y-2.92800
X-4.04300 Y-2.92900
X-4.05100 Y-2.92900
X-4.05100 Y-2.93000
X-4.05900 Y-2.93000
X-4.05900 Y-2.93100
X-4.06700 Y-2.93100
X-4.06700 Y-2.93200
X-4.07500 Y-2.93200
X-4.07500 Y-2.93300
X-4.08300 Y-2.93300
X-4.08300 Y-2.93400
X-4.09100 Y-2.93400
X-4.09100 Y-2.93500
X-4.09600 Y-2.93500
X-4.09600 Y-2.93600
X-4.10200 Y-2.93600
X-4.10200 Y-2.93700
X-4.10700 Y-2.93700
X-4.10700 Y-2.93800
X-4.11300 Y-2.93800
X-4.11300 Y-2.93900
X-4.11900 Y-2.93900
X-4.11900 Y-2.94000
X-4.12400 Y-2.94000
X-4.12400 Y-2.94100
X-4.13000 Y-2.94100
X-4.13000 Y-2.94200
X-4.13500 Y-2.94200
X-4.13500 Y-2.94300
X-4.14100 Y-2.94300
X-4.14100 Y-2.94400
X-4.14500 Y-2.94400
X-4.14500 Y-2.94500
X-4.14900 Y-2.94500
X-4.14900 Y-2.94600
X-4.15400 Y-2.94600
X-4.15400 Y-2.94700
X-4.15800 Y-2.94700
X-4.15800 Y-2.94800
X-4.16200 Y-2.94800
X-4.16200 Y-2.94900
X-4.16700 Y-2.94900
X-4.16700 Y-2.95000
X-4.17100 Y-2.95000
X-4.17100 Y-2.95100
X-4.17500 Y-2.95100
X-4.17500 Y-2.95200
X-4.18000 Y-2.95200
X-4.18000 Y-2.95300
X-4.18400 Y-2.95300
X-4.18400 Y-2.95400
X-4.18800 Y-2.95400
X-4.18800 Y-2.95500
X-4.19200 Y-2.95500
X-4.19200 Y-2.95600
X-4.19600 Y-2.95600
X-4.19600 Y-2.95700
X-4.19900 Y-2.95700
X-4.19900 Y-2.95800
X-4.20300 Y-2.95800
X-4.20300 Y-2.95900
X-4.20600 Y-2.95900
X-4.20600 Y-2.96000
X-4.21000 Y-2.96000
X-4.21000 Y-2.96100
X-4.21300 Y-2.96100
X-4.21300 Y-2.96200
X-4.21700 Y-2.96200
X-4.21700 Y-2.96300
X-4.22000 Y-2.96300
X-4.22000 Y-2.96400
X-4.22400 Y-2.96400
X-4.22400 Y-2.96500
X-4.22700 Y-2.96500
X-4.22700 Y-2.96600
X-4.23100 Y-2.96600
X-4.23100 Y-2.96700
X-4.23400 Y-2.96700
X-4.23400 Y-2.96800
X-4.23800 Y-2.96800
X-4.23800 Y-2.96900
X-4.24100 Y-2.96900
X-4.24100 Y-2.97000
X-4.24400 Y-2.97000
X-4.24400 Y-2.97100
X-4.24700 Y-2.97100
X-4.24700 Y-2.97200
X-4.25000 Y-2.97200
X-4.25000 Y-2.97300
X-4.25300 Y-2.97300
X-4.25300 Y-2.97400
X-4.25600 Y-2.97400
X-4.25600 Y-2.97500
X-4.25900 Y-2.97500
X-4.25900 Y-2.97600
X-4.26200 Y-2.97600
X-4.26200 Y-2.97700
X-4.26400 Y-2.97700
X-4.26400 Y-2.97800
X-4.26700 Y-2.97800
X-4.26700 Y-2.97900
X-4.27000 Y-2.97900
X-4.27000 Y-2.98000
X-4.27300 Y-2.98000
X-4.27300 Y-2.98100
X-4.27600 Y-2.98100
X-4.27600 Y-2.98200
X-4.27900 Y-2.98200
X-4.27900 Y-2.98300
X-4.28200 Y-2.98300
X-4.28200 Y-2.98400
X-4.28500 Y-2.98400
X-4.28500 Y-2.98500
X-4.28800 Y-2.98500
X-4.28800 Y-2.98600
X-4.29000 Y-2.98600
X-4.29000 Y-2.98700
X-4.29300 Y-2.98700
X-4.29300 Y-2.98800
X-4.29500 Y-2.98800
X-4.29500 Y-2.98900
X-4.29800 Y-2.98900
X-4.29800 Y-2.99000
X-4.30000 Y-2.99000
X-4.30000 Y-2.99100
X-4.30300 Y-2.99100
X-4.30300 Y-2.99200
X-4.30500 Y-2.99200
X-4.30500 Y-2.99300
X-4.30800 Y-2.99300
X-4.30800 Y-2.99400
X-4.31000 Y-2.99400
X-4.31000 Y-2.99500
X-4.31300 Y-2.99500
X-4.31300 Y-2.99600
X-4.31500 Y-2.99600
X-4.31500 Y-2.99700
X-4.31800 Y-2.99700
X-4.31800 Y-2.99800
X-4.32100 Y-2.99800
X-4.32100 Y-2.99900
X-4.32300 Y-2.99900
X-4.32300 Y-3.00000
X-4.32600 Y-3.00000
X-4.32600 Y-3.00100
X-4.32800 Y-3.00100
X-4.32800 Y-3.00200
X-4.33100 Y-3.00200
X-4.33100 Y-3.00300
X-4.33300 Y-3.00300
X-4.33300 Y-3.00400
X-4.33500 Y-3.00400
X-4.33500 Y-3.00500
X-4.33700 Y-3.00500
X-4.33700 Y-3.00600
X-4.33900 Y-3.00600
X-4.33900 Y-3.00700
X-4.34200 Y-3.00700
X-4.34200 Y-3.00800
X-4.34400 Y-3.00800
X-4.34400 Y-3.00900
X-4.34600 Y-3.00900
X-4.34600 Y-3.01000
X-4.34800 Y-3.01000
X-4.34800 Y-3.01100
X-4.35100 Y-3.01100
X-4.35100 Y-3.01200
X-4.35300 Y-3.01200
X-4.35300 Y-3.01300
X-4.35500 Y-3.01300
X-4.35500 Y-3.01400
X-4.35700 Y-3.01400
X-4.35700 Y-3.01500
X-4.35900 Y-3.01500
X-4.35900 Y-3.01600
X-4.36200 Y-3.01600
X-4.36200 Y-3.01700
X-4.36400 Y-3.01700
X-4.36400 Y-3.01800
X-4.36600 Y-3.01800
X-4.36600 Y-3.01900
X-4.36800 Y-3.01900
X-4.36800 Y-3.02000
X-4.37000 Y-3.02000
X-4.37000 Y-3.02100
X-4.37300 Y-3.02100
X-4.37300 Y-3.02200
X-4.37500 Y-3.02200
X-4.37500 Y-3.02300
X-4.37700 Y-3.02300
X-4.37700 Y-3.02400
X-4.37900 Y-3.02400
X-4.37900 Y-3.02500
X-4.38100 Y-3.02500
X-4.38100 Y-3.02600
X-4.38300 Y-3.02600
X-4.38300 Y-3.02700
X-4.38500 Y-3.02700
X-4.38500 Y-3.02800
X-4.38700 Y-3.02800
