( pcb2gcode 1.1.4 )

G94     ( Inches per minute feed rate. )
G20     ( Units == INCHES.             )
G90     ( Absolute coordinates.        )
S10000  ( RPM spindle speed.           )
M3      ( Spindle on clockwise.        )

G64 P0.00500 ( set maximum deviation from commanded toolpath )

G04 P0 ( dwell for no time -- G64 should not smooth over this point )
G00 Z0.19685 ( retract )

G00 X-2.71800 Y0.00150 ( rapid move to begin. )
G01 Z-0.00394 F39.37008 ( plunge. )
G04 P0 ( dwell for no time -- G64 should not smooth over this point )
X-2.71800 Y0.00150
X-2.71900 Y0.00150
X-2.71900 Y-2.71750
X-2.71800 Y-2.71750
X-2.71800 Y-2.71850
X0.00100 Y-2.71850
X0.00100 Y-2.71750
X0.00200 Y-2.71750
X0.00200 Y-2.71550
X0.00100 Y-2.71550
X0.00100 Y-2.71450
X0.00000 Y-2.71450
X0.00000 Y-2.71350
X-2.71500 Y-2.71350
X-2.71500 Y0.00150
X-2.71600 Y0.00150
X-2.71600 Y0.00250
X-2.71800 Y0.00250
X-2.71800 Y0.00150
G01 Z-0.01181 F39.37008 ( plunge. )
G04 P0 ( dwell for no time -- G64 should not smooth over this point )
X-2.71800 Y0.00150
X-2.71900 Y0.00150
X-2.71900 Y-2.71750
X-2.71800 Y-2.71750
X-2.71800 Y-2.71850
X0.00100 Y-2.71850
X0.00100 Y-2.71750
X0.00200 Y-2.71750
X0.00200 Y-2.71550
X0.00100 Y-2.71550
X0.00100 Y-2.71450
X0.00000 Y-2.71450
X0.00000 Y-2.71350
X-2.71500 Y-2.71350
X-2.71500 Y0.00150
X-2.71600 Y0.00150
X-2.71600 Y0.00250
X-2.71800 Y0.00250
X-2.71800 Y0.00150
G01 Z-0.01969 F39.37008 ( plunge. )
G04 P0 ( dwell for no time -- G64 should not smooth over this point )
X-2.71800 Y0.00150
X-2.71900 Y0.00150
X-2.71900 Y-2.71750
X-2.71800 Y-2.71750
X-2.71800 Y-2.71850
X0.00100 Y-2.71850
X0.00100 Y-2.71750
X0.00200 Y-2.71750
X0.00200 Y-2.71550
X0.00100 Y-2.71550
X0.00100 Y-2.71450
X0.00000 Y-2.71450
X0.00000 Y-2.71350
X-2.71500 Y-2.71350
X-2.71500 Y0.00150
X-2.71600 Y0.00150
X-2.71600 Y0.00250
X-2.71800 Y0.00250
X-2.71800 Y0.00150
G01 Z-0.02756 F39.37008 ( plunge. )
G04 P0 ( dwell for no time -- G64 should not smooth over this point )
X-2.71800 Y0.00150
X-2.71900 Y0.00150
X-2.71900 Y-2.71750
X-2.71800 Y-2.71750
X-2.71800 Y-2.71850
X0.00100 Y-2.71850
X0.00100 Y-2.71750
X0.00200 Y-2.71750
X0.00200 Y-2.71550
X0.00100 Y-2.71550
X0.00100 Y-2.71450
X0.00000 Y-2.71450
X0.00000 Y-2.71350
X-2.71500 Y-2.71350
X-2.71500 Y0.00150
X-2.71600 Y0.00150
X-2.71600 Y0.00250
X-2.71800 Y0.00250
X-2.71800 Y0.00150
G01 Z-0.03543 F39.37008 ( plunge. )
G04 P0 ( dwell for no time -- G64 should not smooth over this point )
X-2.71800 Y0.00150
X-2.71900 Y0.00150
X-2.71900 Y-2.71750
X-2.71800 Y-2.71750
X-2.71800 Y-2.71850
X0.00100 Y-2.71850
X0.00100 Y-2.71750
X0.00200 Y-2.71750
X0.00200 Y-2.71550
X0.00100 Y-2.71550
X0.00100 Y-2.71450
X0.00000 Y-2.71450
X0.00000 Y-2.71350
X-2.71500 Y-2.71350
X-2.71500 Y0.00150
X-2.71600 Y0.00150
X-2.71600 Y0.00250
X-2.71800 Y0.00250
X-2.71800 Y0.00150
G01 Z-0.04331 F39.37008 ( plunge. )
G04 P0 ( dwell for no time -- G64 should not smooth over this point )
X-2.71800 Y0.00150
X-2.71900 Y0.00150
X-2.71900 Y-2.71750
X-2.71800 Y-2.71750
X-2.71800 Y-2.71850
X0.00100 Y-2.71850
X0.00100 Y-2.71750
X0.00200 Y-2.71750
X0.00200 Y-2.71550
X0.00100 Y-2.71550
X0.00100 Y-2.71450
X0.00000 Y-2.71450
X0.00000 Y-2.71350
X-2.71500 Y-2.71350
X-2.71500 Y0.00150
X-2.71600 Y0.00150
X-2.71600 Y0.00250
X-2.71800 Y0.00250
X-2.71800 Y0.00150
G01 Z-0.05118 F39.37008 ( plunge. )
G04 P0 ( dwell for no time -- G64 should not smooth over this point )
X-2.71800 Y0.00150
X-2.71900 Y0.00150
X-2.71900 Y-2.71750
X-2.71800 Y-2.71750
X-2.71800 Y-2.71850
X0.00100 Y-2.71850
X0.00100 Y-2.71750
X0.00200 Y-2.71750
X0.00200 Y-2.71550
X0.00100 Y-2.71550
X0.00100 Y-2.71450
X0.00000 Y-2.71450
X0.00000 Y-2.71350
X-2.71500 Y-2.71350
X-2.71500 Y0.00150
X-2.71600 Y0.00150
X-2.71600 Y0.00250
X-2.71800 Y0.00250
X-2.71800 Y0.00150
G01 Z-0.05906 F39.37008 ( plunge. )
G04 P0 ( dwell for no time -- G64 should not smooth over this point )
X-2.71800 Y0.00150
X-2.71900 Y0.00150
X-2.71900 Y-2.71750
X-2.71800 Y-2.71750
X-2.71800 Y-2.71850
X0.00100 Y-2.71850
X0.00100 Y-2.71750
X0.00200 Y-2.71750
X0.00200 Y-2.71550
X0.00100 Y-2.71550
X0.00100 Y-2.71450
X0.00000 Y-2.71450
X0.00000 Y-2.71350
X-2.71500 Y-2.71350
X-2.71500 Y0.00150
X-2.71600 Y0.00150
X-2.71600 Y0.00250
X-2.71800 Y0.00250
X-2.71800 Y0.00150
G01 Z-0.06693 F39.37008 ( plunge. )
G04 P0 ( dwell for no time -- G64 should not smooth over this point )
X-2.71800 Y0.00150
X-2.71900 Y0.00150
X-2.71900 Y-2.71750
X-2.71800 Y-2.71750
X-2.71800 Y-2.71850
X0.00100 Y-2.71850
X0.00100 Y-2.71750
X0.00200 Y-2.71750
X0.00200 Y-2.71550
X0.00100 Y-2.71550
X0.00100 Y-2.71450
X0.00000 Y-2.71450
X0.00000 Y-2.71350
X-2.71500 Y-2.71350
X-2.71500 Y0.00150
X-2.71600 Y0.00150
X-2.71600 Y0.00250
X-2.71800 Y0.00250
X-2.71800 Y0.00150
G01 Z-0.07480 F39.37008 ( plunge. )
G04 P0 ( dwell for no time -- G64 should not smooth over this point )
X-2.71800 Y0.00150
X-2.71900 Y0.00150
X-2.71900 Y-2.71750
X-2.71800 Y-2.71750
X-2.71800 Y-2.71850
X0.00100 Y-2.71850
X0.00100 Y-2.71750
X0.00200 Y-2.71750
X0.00200 Y-2.71550
X0.00100 Y-2.71550
X0.00100 Y-2.71450
X0.00000 Y-2.71450
X0.00000 Y-2.71350
X-2.71500 Y-2.71350
X-2.71500 Y0.00150
X-2.71600 Y0.00150
X-2.71600 Y0.00250
X-2.71800 Y0.00250
X-2.71800 Y0.00150
G01 Z-0.08268 F39.37008 ( plunge. )
G04 P0 ( dwell for no time -- G64 should not smooth over this point )
X-2.71800 Y0.00150
X-2.71900 Y0.00150
X-2.71900 Y-2.71750
X-2.71800 Y-2.71750
X-2.71800 Y-2.71850
X0.00100 Y-2.71850
X0.00100 Y-2.71750
X0.00200 Y-2.71750
X0.00200 Y-2.71550
X0.00100 Y-2.71550
X0.00100 Y-2.71450
X0.00000 Y-2.71450
X0.00000 Y-2.71350
X-2.71500 Y-2.71350
X-2.71500 Y0.00150
X-2.71600 Y0.00150
X-2.71600 Y0.00250
X-2.71800 Y0.00250
X-2.71800 Y0.00150
G01 Z-0.09055 F39.37008 ( plunge. )
G04 P0 ( dwell for no time -- G64 should not smooth over this point )
X-2.71800 Y0.00150
X-2.71900 Y0.00150
X-2.71900 Y-2.71750
X-2.71800 Y-2.71750
X-2.71800 Y-2.71850
X0.00100 Y-2.71850
X0.00100 Y-2.71750
X0.00200 Y-2.71750
X0.00200 Y-2.71550
X0.00100 Y-2.71550
X0.00100 Y-2.71450
X0.00000 Y-2.71450
X0.00000 Y-2.71350
X-2.71500 Y-2.71350
X-2.71500 Y0.00150
X-2.71600 Y0.00150
X-2.71600 Y0.00250
X-2.71800 Y0.00250
X-2.71800 Y0.00150
G01 Z-0.09843 F39.37008 ( plunge. )
G04 P0 ( dwell for no time -- G64 should not smooth over this point )
X-2.71800 Y0.00150
X-2.71900 Y0.00150
X-2.71900 Y-2.71750
X-2.71800 Y-2.71750
X-2.71800 Y-2.71850
X0.00100 Y-2.71850
X0.00100 Y-2.71750
X0.00200 Y-2.71750
X0.00200 Y-2.71550
X0.00100 Y-2.71550
X0.00100 Y-2.71450
X0.00000 Y-2.71450
X0.00000 Y-2.71350
X-2.71500 Y-2.71350
X-2.71500 Y0.00150
X-2.71600 Y0.00150
X-2.71600 Y0.00250
X-2.71800 Y0.00250
X-2.71800 Y0.00150
G01 Z-0.10630 F39.37008 ( plunge. )
G04 P0 ( dwell for no time -- G64 should not smooth over this point )
X-2.71800 Y0.00150
X-2.71900 Y0.00150
X-2.71900 Y-2.71750
X-2.71800 Y-2.71750
X-2.71800 Y-2.71850
X0.00100 Y-2.71850
X0.00100 Y-2.71750
X0.00200 Y-2.71750
X0.00200 Y-2.71550
X0.00100 Y-2.71550
X0.00100 Y-2.71450
X0.00000 Y-2.71450
X0.00000 Y-2.71350
X-2.71500 Y-2.71350
X-2.71500 Y0.00150
X-2.71600 Y0.00150
X-2.71600 Y0.00250
X-2.71800 Y0.00250
X-2.71800 Y0.00150
G01 Z-0.11417 F39.37008 ( plunge. )
G04 P0 ( dwell for no time -- G64 should not smooth over this point )
X-2.71800 Y0.00150
X-2.71900 Y0.00150
X-2.71900 Y-2.71750
X-2.71800 Y-2.71750
X-2.71800 Y-2.71850
X0.00100 Y-2.71850
X0.00100 Y-2.71750
X0.00200 Y-2.71750
X0.00200 Y-2.71550
X0.00100 Y-2.71550
X0.00100 Y-2.71450
X0.00000 Y-2.71450
X0.00000 Y-2.71350
X-2.71500 Y-2.71350
X-2.71500 Y0.00150
X-2.71600 Y0.00150
X-2.71600 Y0.00250
X-2.71800 Y0.00250
X-2.71800 Y0.00150
G01 Z-0.12205 F39.37008 ( plunge. )
G04 P0 ( dwell for no time -- G64 should not smooth over this point )
X-2.71800 Y0.00150
X-2.71900 Y0.00150
X-2.71900 Y-2.71750
X-2.71800 Y-2.71750
X-2.71800 Y-2.71850
X0.00100 Y-2.71850
X0.00100 Y-2.71750
X0.00200 Y-2.71750
X0.00200 Y-2.71550
X0.00100 Y-2.71550
X0.00100 Y-2.71450
X0.00000 Y-2.71450
X0.00000 Y-2.71350
X-2.71500 Y-2.71350
X-2.71500 Y0.00150
X-2.71600 Y0.00150
X-2.71600 Y0.00250
X-2.71800 Y0.00250
X-2.71800 Y0.00150
G01 Z-0.12992 F39.37008 ( plunge. )
G04 P0 ( dwell for no time -- G64 should not smooth over this point )
X-2.71800 Y0.00150
X-2.71900 Y0.00150
X-2.71900 Y-2.71750
X-2.71800 Y-2.71750
X-2.71800 Y-2.71850
X0.00100 Y-2.71850
X0.00100 Y-2.71750
X0.00200 Y-2.71750
X0.00200 Y-2.71550
X0.00100 Y-2.71550
X0.00100 Y-2.71450
X0.00000 Y-2.71450
X0.00000 Y-2.71350
X-2.71500 Y-2.71350
X-2.71500 Y0.00150
X-2.71600 Y0.00150
X-2.71600 Y0.00250
X-2.71800 Y0.00250
X-2.71800 Y0.00150
G01 Z-0.13780 F39.37008 ( plunge. )
G04 P0 ( dwell for no time -- G64 should not smooth over this point )
X-2.71800 Y0.00150
X-2.71900 Y0.00150
X-2.71900 Y-2.71750
X-2.71800 Y-2.71750
X-2.71800 Y-2.71850
X0.00100 Y-2.71850
X0.00100 Y-2.71750
X0.00200 Y-2.71750
X0.00200 Y-2.71550
X0.00100 Y-2.71550
X0.00100 Y-2.71450
X0.00000 Y-2.71450
X0.00000 Y-2.71350
X-2.71500 Y-2.71350
X-2.71500 Y0.00150
X-2.71600 Y0.00150
X-2.71600 Y0.00250
X-2.71800 Y0.00250
X-2.71800 Y0.00150
G01 Z-0.14567 F39.37008 ( plunge. )
G04 P0 ( dwell for no time -- G64 should not smooth over this point )
X-2.71800 Y0.00150
X-2.71900 Y0.00150
X-2.71900 Y-2.71750
X-2.71800 Y-2.71750
X-2.71800 Y-2.71850
X0.00100 Y-2.71850
X0.00100 Y-2.71750
X0.00200 Y-2.71750
X0.00200 Y-2.71550
X0.00100 Y-2.71550
X0.00100 Y-2.71450
X0.00000 Y-2.71450
X0.00000 Y-2.71350
X-2.71500 Y-2.71350
X-2.71500 Y0.00150
X-2.71600 Y0.00150
X-2.71600 Y0.00250
X-2.71800 Y0.00250
X-2.71800 Y0.00150
G01 Z-0.15354 F39.37008 ( plunge. )
G04 P0 ( dwell for no time -- G64 should not smooth over this point )
X-2.71800 Y0.00150
X-2.71900 Y0.00150
X-2.71900 Y-2.71750
X-2.71800 Y-2.71750
X-2.71800 Y-2.71850
X0.00100 Y-2.71850
X0.00100 Y-2.71750
X0.00200 Y-2.71750
X0.00200 Y-2.71550
X0.00100 Y-2.71550
X0.00100 Y-2.71450
X0.00000 Y-2.71450
X0.00000 Y-2.71350
X-2.71500 Y-2.71350
X-2.71500 Y0.00150
X-2.71600 Y0.00150
X-2.71600 Y0.00250
X-2.71800 Y0.00250
X-2.71800 Y0.00150
G01 Z-0.16142 F39.37008 ( plunge. )
G04 P0 ( dwell for no time -- G64 should not smooth over this point )
X-2.71800 Y0.00150
X-2.71900 Y0.00150
X-2.71900 Y-2.71750
X-2.71800 Y-2.71750
X-2.71800 Y-2.71850
X0.00100 Y-2.71850
X0.00100 Y-2.71750
X0.00200 Y-2.71750
X0.00200 Y-2.71550
X0.00100 Y-2.71550
X0.00100 Y-2.71450
X0.00000 Y-2.71450
X0.00000 Y-2.71350
X-2.71500 Y-2.71350
X-2.71500 Y0.00150
X-2.71600 Y0.00150
X-2.71600 Y0.00250
X-2.71800 Y0.00250
X-2.71800 Y0.00150
G01 Z-0.16929 F39.37008 ( plunge. )
G04 P0 ( dwell for no time -- G64 should not smooth over this point )
X-2.71800 Y0.00150
X-2.71900 Y0.00150
X-2.71900 Y-2.71750
X-2.71800 Y-2.71750
X-2.71800 Y-2.71850
X0.00100 Y-2.71850
X0.00100 Y-2.71750
X0.00200 Y-2.71750
X0.00200 Y-2.71550
X0.00100 Y-2.71550
X0.00100 Y-2.71450
X0.00000 Y-2.71450
X0.00000 Y-2.71350
X-2.71500 Y-2.71350
X-2.71500 Y0.00150
X-2.71600 Y0.00150
X-2.71600 Y0.00250
X-2.71800 Y0.00250
X-2.71800 Y0.00150
G01 Z-0.17717 F39.37008 ( plunge. )
G04 P0 ( dwell for no time -- G64 should not smooth over this point )
X-2.71800 Y0.00150
X-2.71900 Y0.00150
X-2.71900 Y-2.71750
X-2.71800 Y-2.71750
X-2.71800 Y-2.71850
X0.00100 Y-2.71850
X0.00100 Y-2.71750
X0.00200 Y-2.71750
X0.00200 Y-2.71550
X0.00100 Y-2.71550
X0.00100 Y-2.71450
X0.00000 Y-2.71450
X0.00000 Y-2.71350
X-2.71500 Y-2.71350
X-2.71500 Y0.00150
X-2.71600 Y0.00150
X-2.71600 Y0.00250
X-2.71800 Y0.00250
X-2.71800 Y0.00150
G01 Z-0.18504 F39.37008 ( plunge. )
G04 P0 ( dwell for no time -- G64 should not smooth over this point )
X-2.71800 Y0.00150
X-2.71900 Y0.00150
X-2.71900 Y-2.71750
X-2.71800 Y-2.71750
X-2.71800 Y-2.71850
X0.00100 Y-2.71850
X0.00100 Y-2.71750
X0.00200 Y-2.71750
X0.00200 Y-2.71550
X0.00100 Y-2.71550
X0.00100 Y-2.71450
X0.00000 Y-2.71450
X0.00000 Y-2.71350
X-2.71500 Y-2.71350
X-2.71500 Y0.00150
X-2.71600 Y0.00150
X-2.71600 Y0.00250
X-2.71800 Y0.00250
X-2.71800 Y0.00150
G01 Z-0.19291 F39.37008 ( plunge. )
G04 P0 ( dwell for no time -- G64 should not smooth over this point )
X-2.71800 Y0.00150
X-2.71900 Y0.00150
X-2.71900 Y-2.71750
X-2.71800 Y-2.71750
X-2.71800 Y-2.71850
X0.00100 Y-2.71850
X0.00100 Y-2.71750
X0.00200 Y-2.71750
X0.00200 Y-2.71550
X0.00100 Y-2.71550
X0.00100 Y-2.71450
X0.00000 Y-2.71450
X0.00000 Y-2.71350
X-2.71500 Y-2.71350
X-2.71500 Y0.00150
X-2.71600 Y0.00150
X-2.71600 Y0.00250
X-2.71800 Y0.00250
X-2.71800 Y0.00150
G01 Z-0.20079 F39.37008 ( plunge. )
G04 P0 ( dwell for no time -- G64 should not smooth over this point )
X-2.71800 Y0.00150
X-2.71900 Y0.00150
X-2.71900 Y-2.71750
X-2.71800 Y-2.71750
X-2.71800 Y-2.71850
X0.00100 Y-2.71850
X0.00100 Y-2.71750
X0.00200 Y-2.71750
X0.00200 Y-2.71550
X0.00100 Y-2.71550
X0.00100 Y-2.71450
X0.00000 Y-2.71450
X0.00000 Y-2.71350
X-2.71500 Y-2.71350
X-2.71500 Y0.00150
X-2.71600 Y0.00150
X-2.71600 Y0.00250
X-2.71800 Y0.00250
X-2.71800 Y0.00150
G01 Z-0.20866 F39.37008 ( plunge. )
G04 P0 ( dwell for no time -- G64 should not smooth over this point )
X-2.71800 Y0.00150
X-2.71900 Y0.00150
X-2.71900 Y-2.71750
X-2.71800 Y-2.71750
X-2.71800 Y-2.71850
X0.00100 Y-2.71850
X0.00100 Y-2.71750
X0.00200 Y-2.71750
X0.00200 Y-2.71550
X0.00100 Y-2.71550
X0.00100 Y-2.71450
X0.00000 Y-2.71450
X0.00000 Y-2.71350
X-2.71500 Y-2.71350
X-2.71500 Y0.00150
X-2.71600 Y0.00150
X-2.71600 Y0.00250
X-2.71800 Y0.00250
X-2.71800 Y0.00150
G01 Z-0.21654 F39.37008 ( plunge. )
G04 P0 ( dwell for no time -- G64 should not smooth over this point )
X-2.71800 Y0.00150
X-2.71900 Y0.00150
X-2.71900 Y-2.71750
X-2.71800 Y-2.71750
X-2.71800 Y-2.71850
X0.00100 Y-2.71850
X0.00100 Y-2.71750
X0.00200 Y-2.71750
X0.00200 Y-2.71550
X0.00100 Y-2.71550
X0.00100 Y-2.71450
X0.00000 Y-2.71450
X0.00000 Y-2.71350
X-2.71500 Y-2.71350
X-2.71500 Y0.00150
X-2.71600 Y0.00150
X-2.71600 Y0.00250
X-2.71800 Y0.00250
X-2.71800 Y0.00150
G01 Z-0.22441 F39.37008 ( plunge. )
G04 P0 ( dwell for no time -- G64 should not smooth over this point )
X-2.71800 Y0.00150
X-2.71900 Y0.00150
X-2.71900 Y-2.71750
X-2.71800 Y-2.71750
X-2.71800 Y-2.71850
X0.00100 Y-2.71850
X0.00100 Y-2.71750
X0.00200 Y-2.71750
X0.00200 Y-2.71550
X0.00100 Y-2.71550
X0.00100 Y-2.71450
X0.00000 Y-2.71450
X0.00000 Y-2.71350
X-2.71500 Y-2.71350
X-2.71500 Y0.00150
X-2.71600 Y0.00150
X-2.71600 Y0.00250
X-2.71800 Y0.00250
X-2.71800 Y0.00150
G01 Z-0.23228 F39.37008 ( plunge. )
G04 P0 ( dwell for no time -- G64 should not smooth over this point )
X-2.71800 Y0.00150
X-2.71900 Y0.00150
X-2.71900 Y-2.71750
X-2.71800 Y-2.71750
X-2.71800 Y-2.71850
X0.00100 Y-2.71850
X0.00100 Y-2.71750
X0.00200 Y-2.71750
X0.00200 Y-2.71550
X0.00100 Y-2.71550
X0.00100 Y-2.71450
X0.00000 Y-2.71450
X0.00000 Y-2.71350
X-2.71500 Y-2.71350
X-2.71500 Y0.00150
X-2.71600 Y0.00150
X-2.71600 Y0.00250
X-2.71800 Y0.00250
X-2.71800 Y0.00150
G01 Z-0.24016 F39.37008 ( plunge. )
G04 P0 ( dwell for no time -- G64 should not smooth over this point )
X-2.71800 Y0.00150
X-2.71900 Y0.00150
X-2.71900 Y-2.71750
X-2.71800 Y-2.71750
X-2.71800 Y-2.71850
X0.00100 Y-2.71850
X0.00100 Y-2.71750
X0.00200 Y-2.71750
X0.00200 Y-2.71550
X0.00100 Y-2.71550
X0.00100 Y-2.71450
X0.00000 Y-2.71450
X0.00000 Y-2.71350
X-2.71500 Y-2.71350
X-2.71500 Y0.00150
X-2.71600 Y0.00150
X-2.71600 Y0.00250
X-2.71800 Y0.00250
X-2.71800 Y0.00150
G01 Z-0.24803 F39.37008 ( plunge. )
G04 P0 ( dwell for no time -- G64 should not smooth over this point )
X-2.71800 Y0.00150
X-2.71900 Y0.00150
X-2.71900 Y-2.71750
X-2.71800 Y-2.71750
X-2.71800 Y-2.71850
X0.00100 Y-2.71850
X0.00100 Y-2.71750
X0.00200 Y-2.71750
X0.00200 Y-2.71550
X0.00100 Y-2.71550
X0.00100 Y-2.71450
X0.00000 Y-2.71450
X0.00000 Y-2.71350
X-2.71500 Y-2.71350
X-2.71500 Y0.00150
X-2.71600 Y0.00150
X-2.71600 Y0.00250
X-2.71800 Y0.00250
X-2.71800 Y0.00150
G01 Z-0.25591 F39.37008 ( plunge. )
G04 P0 ( dwell for no time -- G64 should not smooth over this point )
X-2.71800 Y0.00150
X-2.71900 Y0.00150
X-2.71900 Y-2.71750
X-2.71800 Y-2.71750
X-2.71800 Y-2.71850
X0.00100 Y-2.71850
X0.00100 Y-2.71750
X0.00200 Y-2.71750
X0.00200 Y-2.71550
X0.00100 Y-2.71550
X0.00100 Y-2.71450
X0.00000 Y-2.71450
X0.00000 Y-2.71350
X-2.71500 Y-2.71350
X-2.71500 Y0.00150
X-2.71600 Y0.00150
X-2.71600 Y0.00250
X-2.71800 Y0.00250
X-2.71800 Y0.00150

G04 P0 ( dwell for no time -- G64 should not smooth over this point )
G00 Z0.78740 ( retract )

M9 ( Coolant off. )
M2 ( Program end. )

