( pcb2gcode 1.1.4 )

( This file uses 2 drill bit sizes. )

G94     ( Inches per minute feed rate. )
G20     ( Units == INCHES.             )
G90     ( Absolute coordinates.        )
S13000  ( RPM spindle speed.           )

G00 Z1.57480 ( Retract )
T1
M5      ( Spindle stop.                )
M6      ( Tool change.                 )
(MSG, CHANGE TOOL BIT: to drill size 0.40000 mm)
M0      ( Temporary machine stop.      )
M3      ( Spindle on clockwise.        )

G81 R0.78740 Z0.44094 F5.11811 X-4.85039 Y-4.59843
X-5.31102 Y-5.02362
X-5.31299 Y-3.69449
X-5.52362 Y-4.97244
X-5.66614 Y-4.66890
X-5.72677 Y-4.97874
X-5.93898 Y-3.66811
X-5.97244 Y-4.94882
X-6.18504 Y-4.95276
X-6.52205 Y-3.70394
X-6.62598 Y-4.66535


G00 Z1.57480 ( Retract )
T2
M5      ( Spindle stop.                )
M6      ( Tool change.                 )
(MSG, CHANGE TOOL BIT: to drill size 0.50000 mm)
M0      ( Temporary machine stop.      )
M3      ( Spindle on clockwise.        )

G81 R0.78740 Z0.44094 F5.11811 X-5.51476 Y-3.94370
X-5.51476 Y-3.98307
X-5.51476 Y-4.02244
X-5.51476 Y-4.06181
X-5.51476 Y-4.10118
X-5.55413 Y-3.94370
X-5.55413 Y-3.98307
X-5.55413 Y-4.02244
X-5.55413 Y-4.06181
X-5.55413 Y-4.10118
X-5.59350 Y-3.94370
X-5.59350 Y-3.98307
X-5.59350 Y-4.02244
X-5.59350 Y-4.06181
X-5.59350 Y-4.10118
X-5.60000 Y-4.18386
X-5.60000 Y-4.22323
X-5.60000 Y-4.26260
X-5.60000 Y-4.30197
X-5.60000 Y-4.34134
X-5.63287 Y-3.94370
X-5.63287 Y-3.98307
X-5.63287 Y-4.02244
X-5.63287 Y-4.06181
X-5.63287 Y-4.10118
X-5.63937 Y-4.18386
X-5.63937 Y-4.22323
X-5.63937 Y-4.26260
X-5.63937 Y-4.30197
X-5.63937 Y-4.34134
X-5.67224 Y-3.94370
X-5.67224 Y-3.98307
X-5.67224 Y-4.02244
X-5.67224 Y-4.06181
X-5.67224 Y-4.10118
X-5.67874 Y-4.18386
X-5.67874 Y-4.22323
X-5.67874 Y-4.26260
X-5.67874 Y-4.30197
X-5.67874 Y-4.34134
X-5.71161 Y-3.94370
X-5.71161 Y-3.98307
X-5.71161 Y-4.02244
X-5.71161 Y-4.06181
X-5.71161 Y-4.10118
X-5.71811 Y-4.18386
X-5.71811 Y-4.22323
X-5.71811 Y-4.26260
X-5.71811 Y-4.30197
X-5.71811 Y-4.34134
X-5.75748 Y-4.18386
X-5.75748 Y-4.22323
X-5.75748 Y-4.26260
X-5.75748 Y-4.30197
X-5.75748 Y-4.34134
X-5.79685 Y-4.18386
X-5.79685 Y-4.22323
X-5.79685 Y-4.26260
X-5.79685 Y-4.30197
X-5.79685 Y-4.34134
X-5.83622 Y-4.18386
X-5.83622 Y-4.22323
X-5.83622 Y-4.26260
X-5.83622 Y-4.30197
X-5.83622 Y-4.34134
X-5.84272 Y-3.94370
X-5.84272 Y-3.98307
X-5.84272 Y-4.02244
X-5.84272 Y-4.06181
X-5.84272 Y-4.10118
X-5.87559 Y-4.18386
X-5.87559 Y-4.22323
X-5.87559 Y-4.26260
X-5.87559 Y-4.30197
X-5.87559 Y-4.34134
X-5.88209 Y-3.94370
X-5.88209 Y-3.98307
X-5.88209 Y-4.02244
X-5.88209 Y-4.06181
X-5.88209 Y-4.10118
X-5.91496 Y-4.18386
X-5.91496 Y-4.22323
X-5.91496 Y-4.26260
X-5.91496 Y-4.30197
X-5.91496 Y-4.34134
X-5.92146 Y-3.94370
X-5.92146 Y-3.98307
X-5.92146 Y-4.02244
X-5.92146 Y-4.06181
X-5.92146 Y-4.10118
X-5.95433 Y-4.18386
X-5.95433 Y-4.22323
X-5.95433 Y-4.26260
X-5.95433 Y-4.30197
X-5.95433 Y-4.34134
X-5.96083 Y-3.94370
X-5.96083 Y-3.98307
X-5.96083 Y-4.02244
X-5.96083 Y-4.06181
X-5.96083 Y-4.10118
X-6.00020 Y-3.94370
X-6.00020 Y-3.98307
X-6.00020 Y-4.02244
X-6.00020 Y-4.06181
X-6.00020 Y-4.10118
X-6.03957 Y-3.94370
X-6.03957 Y-3.98307
X-6.03957 Y-4.02244
X-6.03957 Y-4.06181
X-6.03957 Y-4.10118


G00 Z1.57480 ( All done -- retract )

M9 ( Coolant off. )
M2 ( Program end. )

