( pcb2gcode 1.1.4 )

( This file uses 3 drill bit sizes. )

G94     ( Inches per minute feed rate. )
G20     ( Units == INCHES.             )
G90     ( Absolute coordinates.        )
S30000  ( RPM spindle speed.           )

G00 Z0.98425 ( Retract )
T1
M5      ( Spindle stop.                )
M6      ( Tool change.                 )
(MSG, CHANGE TOOL BIT: to drill size 0.50000 mm)
M0      ( Temporary machine stop.      )
M3      ( Spindle on clockwise.        )

G81 R0.19685 Z-0.10236 F7.87402 X-5.39016 Y-2.59173
X-5.42008 Y-3.96417
X-5.42205 Y-4.09606
X-5.43504 Y-2.89488
X-5.44685 Y-4.44803
X-5.48819 Y-4.31535
X-5.52992 Y-3.10118
X-5.57874 Y-3.21555
X-5.88780 Y-3.21949
X-5.96181 Y-3.64016
X-5.97343 Y-3.50689
X-5.97520 Y-4.26811
X-6.01024 Y-4.17323
X-6.06791 Y-3.26772
X-6.07579 Y-3.19094
X-6.10512 Y-2.52520
X-6.12441 Y-4.10394
X-6.12520 Y-3.41181
X-6.13976 Y-2.68858
X-6.14016 Y-4.39567
X-6.14528 Y-4.31142
X-6.16811 Y-2.81417
X-6.18819 Y-3.85394
X-6.18858 Y-3.66299
X-6.19193 Y-3.45571
X-6.20394 Y-4.02598
X-6.20827 Y-2.94567
X-6.20984 Y-4.16693
X-6.24606 Y-3.82047
X-6.25945 Y-3.87913
X-6.64409 Y-3.82520
X-6.70906 Y-4.47283
X-6.71063 Y-3.22244
X-6.73031 Y-3.08661
X-6.73898 Y-4.06063
X-6.74921 Y-3.71378
X-6.75689 Y-2.93996
X-6.75787 Y-2.64173
X-6.76024 Y-2.73110
X-6.76181 Y-3.35551
X-6.76181 Y-3.66102
X-6.76496 Y-3.41850
X-6.77480 Y-4.33346
X-6.78031 Y-4.26299
X-6.78071 Y-4.01732
X-6.80551 Y-3.21732
X-6.80709 Y-3.08268


G00 Z0.98425 ( Retract )
T2
M5      ( Spindle stop.                )
M6      ( Tool change.                 )
(MSG, CHANGE TOOL BIT: to drill size 0.81300 mm)
M0      ( Temporary machine stop.      )
M3      ( Spindle on clockwise.        )

G81 R0.19685 Z-0.10236 F7.87402 X-5.68504 Y-3.01496
X-5.68504 Y-3.11496
X-5.68504 Y-3.21496
X-5.68504 Y-3.31496
X-5.68504 Y-3.41496
X-5.68504 Y-3.51496
X-5.68504 Y-3.61496
X-5.68504 Y-3.71496
X-5.68504 Y-3.81496
X-5.78504 Y-3.01496
X-5.78504 Y-3.11496
X-5.78504 Y-3.21496
X-5.78504 Y-3.31496
X-5.78504 Y-3.41496
X-5.78504 Y-3.51496
X-5.78504 Y-3.61496
X-5.78504 Y-3.71496
X-5.78504 Y-3.81496


G00 Z0.98425 ( Retract )
T3
M5      ( Spindle stop.                )
M6      ( Tool change.                 )
(MSG, CHANGE TOOL BIT: to drill size 1.69900 mm)
M0      ( Temporary machine stop.      )
M3      ( Spindle on clockwise.        )

G81 R0.19685 Z-0.10236 F7.87402 X-5.72087 Y-2.50236
X-5.72087 Y-2.67957


G00 Z0.98425 ( All done -- retract )

M9 ( Coolant off. )
M2 ( Program end. )

