( pcb2gcode 1.1.4 )

( This file uses 2 drill bit sizes. )

G94     ( Inches per minute feed rate. )
G20     ( Units == INCHES.             )
G90     ( Absolute coordinates.        )
S30000  ( RPM spindle speed.           )

G00 Z0.98425 ( Retract )
T1
M5      ( Spindle stop.                )
M6      ( Tool change.                 )
(MSG, CHANGE TOOL BIT: to drill size 0.50000 mm)
M0      ( Temporary machine stop.      )
M3      ( Spindle on clockwise.        )

G81 R0.19685 Z-0.10236 F7.87402 X-5.08189 Y-3.76417
X-5.08583 Y-3.87402
X-5.08583 Y-3.96417
X-5.09409 Y-4.06299
X-5.10118 Y-4.16181
X-5.10118 Y-4.26417
X-5.10906 Y-4.35709
X-5.11063 Y-4.56614
X-5.11181 Y-4.46417
X-5.12087 Y-4.65906
X-5.65709 Y-4.25787
X-5.65709 Y-4.35118
X-5.65945 Y-4.45354
X-5.66102 Y-4.15709
X-5.66181 Y-4.05512
X-5.66496 Y-3.86181
X-5.66496 Y-3.96299
X-5.66535 Y-4.65157
X-5.66693 Y-3.75984
X-5.66693 Y-4.55394


G00 Z0.98425 ( Retract )
T2
M5      ( Spindle stop.                )
M6      ( Tool change.                 )
(MSG, CHANGE TOOL BIT: to drill size 1.00000 mm)
M0      ( Temporary machine stop.      )
M3      ( Spindle on clockwise.        )

G81 R0.19685 Z-0.10236 F7.87402 X-5.20354 Y-3.76417
X-5.20354 Y-3.86417
X-5.20354 Y-3.96417
X-5.20354 Y-4.06417
X-5.20354 Y-4.16417
X-5.20354 Y-4.26417
X-5.20354 Y-4.36417
X-5.20354 Y-4.46417
X-5.20354 Y-4.56417
X-5.20354 Y-4.66417
X-5.30354 Y-3.76417
X-5.30354 Y-3.86417
X-5.30354 Y-3.96417
X-5.30354 Y-4.06417
X-5.30354 Y-4.16417
X-5.30354 Y-4.26417
X-5.30354 Y-4.36417
X-5.30354 Y-4.46417
X-5.30354 Y-4.56417
X-5.30354 Y-4.66417
X-5.46102 Y-3.76063
X-5.46102 Y-3.86063
X-5.46102 Y-3.96063
X-5.46102 Y-4.06063
X-5.46102 Y-4.16063
X-5.46102 Y-4.26063
X-5.46102 Y-4.36063
X-5.46102 Y-4.46063
X-5.46102 Y-4.56063
X-5.46102 Y-4.66063
X-5.56102 Y-3.76063
X-5.56102 Y-3.86063
X-5.56102 Y-3.96063
X-5.56102 Y-4.06063
X-5.56102 Y-4.16063
X-5.56102 Y-4.26063
X-5.56102 Y-4.36063
X-5.56102 Y-4.46063
X-5.56102 Y-4.56063
X-5.56102 Y-4.66063


G00 Z0.98425 ( All done -- retract )

M9 ( Coolant off. )
M2 ( Program end. )

