( pcb2gcode 1.1.4 )

( This file uses 1 drill bit sizes. )

G94     ( Inches per minute feed rate. )
G20     ( Units == INCHES.             )
G90     ( Absolute coordinates.        )
S13000  ( RPM spindle speed.           )

G00 Z1.57480 ( Retract )
T1
M5      ( Spindle stop.                )
M6      ( Tool change.                 )
(MSG, CHANGE TOOL BIT: to drill size 0.40000 mm)
M0      ( Temporary machine stop.      )
M3      ( Spindle on clockwise.        )

G81 R0.78740 Z0.19685 F5.11811 X2.29921 Y-2.62992
X2.31496 Y-3.52756
X2.36614 Y-3.56693
X2.39370 Y-2.58268
X2.43307 Y-3.56299
X2.48425 Y-3.52362
X2.50394 Y-3.27953
X2.52756 Y-2.59843
X2.53543 Y-3.34252
X2.57480 Y-3.43701
X2.57768 Y-2.39067
X2.59843 Y-2.55906
X2.62795 Y-2.39173
X2.64961 Y-2.64173
X2.72933 Y-2.23130
X2.92913 Y-2.62992
X3.02362 Y-2.58268
X3.15748 Y-2.59843
X3.20760 Y-2.39067
X3.22835 Y-2.55906
X3.25787 Y-2.39173
X3.27953 Y-2.64173
X3.35925 Y-2.23130
X3.63386 Y-1.91339
X3.63386 Y-2.72047
X3.63386 Y-3.52756
X3.68504 Y-1.95276
X3.68504 Y-2.75984
X3.68504 Y-3.56693
X3.75197 Y-1.94882
X3.75197 Y-2.75591
X3.75197 Y-3.56299
X3.80315 Y-1.90945
X3.80315 Y-2.71654
X3.80315 Y-3.52362
X3.82283 Y-1.66535
X3.82283 Y-2.47244
X3.82283 Y-3.27953
X3.85433 Y-1.72835
X3.85433 Y-2.53543
X3.85433 Y-3.34252
X3.89370 Y-1.82283
X3.89370 Y-2.62992
X3.89370 Y-3.43701


G00 Z1.57480 ( All done -- retract )

M9 ( Coolant off. )
M2 ( Program end. )

