( pcb2gcode 1.1.4 )

( This file uses 3 drill bit sizes. )

G94     ( Inches per minute feed rate. )
G20     ( Units == INCHES.             )
G90     ( Absolute coordinates.        )
S13000  ( RPM spindle speed.           )

G00 Z1.57480 ( Retract )
T1
M5      ( Spindle stop.                )
M6      ( Tool change.                 )
(MSG, CHANGE TOOL BIT: to drill size 0.40000 mm)
M0      ( Temporary machine stop.      )
M3      ( Spindle on clockwise.        )

G81 R0.78740 Z0.20472 F5.11811 X-3.91339 Y-3.18504
X-4.03937 Y-2.90551
X-4.17441 Y-4.02480
X-4.45276 Y-2.70866
X-4.45748 Y-3.23386
X-4.51654 Y-3.91890
X-4.59606 Y-3.38189
X-4.60748 Y-3.71102
X-4.61142 Y-3.77717
X-4.68898 Y-3.61417
X-4.68898 Y-4.28740
X-4.70866 Y-3.06693
X-4.77835 Y-3.41969
X-4.79843 Y-3.48268
X-4.79921 Y-2.60236
X-4.82283 Y-3.18504
X-4.83346 Y-3.39252
X-4.83898 Y-3.67717
X-4.84646 Y-2.98819
X-4.89764 Y-4.34646
X-4.90354 Y-3.23976
X-4.94094 Y-2.63386
X-4.98150 Y-3.20472
X-5.08268 Y-3.05512
X-5.09449 Y-3.19685
X-5.11024 Y-4.11811
X-5.15748 Y-3.04331
X-5.16142 Y-3.96457
X-5.18228 Y-3.28976
X-5.19685 Y-3.20472
X-5.20079 Y-2.65354
X-5.23228 Y-4.11024
X-5.23622 Y-3.98031
X-5.25039 Y-3.64882
X-5.25984 Y-3.33858
X-5.26858 Y-3.53890
X-5.30315 Y-3.68898
X-5.31102 Y-3.40551
X-5.31496 Y-2.86614
X-5.32283 Y-3.22047
X-5.34843 Y-3.64213
X-5.35630 Y-3.52953
X-5.36614 Y-3.41339
X-5.38583 Y-3.20472
X-5.39370 Y-3.46457
X-5.42008 Y-3.89764
X-5.42756 Y-3.83543
X-5.45079 Y-3.42717
X-5.50787 Y-3.42638
X-5.51181 Y-3.24409
X-5.52756 Y-3.16142
X-5.53819 Y-3.76890
X-5.57126 Y-3.53228
X-5.57480 Y-3.11811
X-5.59055 Y-3.06299
X-5.60236 Y-3.40157
X-5.62992 Y-3.02362
X-5.64173 Y-3.33858
X-5.65354 Y-3.27165
X-5.73622 Y-3.11417
X-5.76772 Y-3.89764
X-5.78740 Y-4.29134
X-5.83465 Y-3.85827
X-5.92913 Y-3.90157
X-6.01181 Y-3.86220
X-6.14567 Y-3.82283
X-6.20472 Y-3.85039
X-6.25197 Y-3.74016
X-6.25984 Y-3.88189
X-6.27165 Y-3.27559
X-6.27559 Y-3.09449
X-6.35028 Y-3.46063
X-6.35827 Y-3.53543
X-6.37402 Y-3.78740
X-6.38583 Y-3.65748
X-6.38976 Y-3.32677
X-6.39370 Y-3.13386
X-6.41732 Y-3.90157
X-6.73819 Y-4.14764
X-6.83071 Y-2.88583


G00 Z1.57480 ( Retract )
T2
M5      ( Spindle stop.                )
M6      ( Tool change.                 )
(MSG, CHANGE TOOL BIT: to drill size 0.60000 mm)
M0      ( Temporary machine stop.      )
M3      ( Spindle on clockwise.        )

G81 R0.78740 Z0.20472 F5.11811 X-4.97039 Y-3.49087
X-4.97039 Y-3.55087
X-5.00039 Y-3.52087
X-5.03039 Y-3.49087
X-5.03039 Y-3.55087


G00 Z1.57480 ( Retract )
T3
M5      ( Spindle stop.                )
M6      ( Tool change.                 )
(MSG, CHANGE TOOL BIT: to drill size 1.00000 mm)
M0      ( Temporary machine stop.      )
M3      ( Spindle on clockwise.        )

G81 R0.78740 Z0.20472 F5.11811 X-4.79331 Y-4.24803
X-4.89331 Y-4.24803
X-4.99291 Y-4.24803
X-5.09291 Y-4.24803
X-5.19252 Y-4.24803
X-5.29252 Y-4.24803


G00 Z1.57480 ( All done -- retract )

M9 ( Coolant off. )
M2 ( Program end. )

