( pcb2gcode 1.1.4 )

( This file uses 3 drill bit sizes. )

G94     ( Inches per minute feed rate. )
G20     ( Units == INCHES.             )
G90     ( Absolute coordinates.        )
S30000  ( RPM spindle speed.           )

G00 Z0.98425 ( Retract )
T1
M5      ( Spindle stop.                )
M6      ( Tool change.                 )
(MSG, CHANGE TOOL BIT: to drill size 0.40000 mm)
M0      ( Temporary machine stop.      )
M3      ( Spindle on clockwise.        )

G81 R0.19685 Z-0.10236 F7.87402 X-1.27362 Y-3.72244
X-1.80630 Y-3.54646
X-1.83583 Y-4.70591
X-2.11890 Y-3.91496
X-2.17795 Y-4.60000
X-2.25748 Y-4.06299
X-2.26890 Y-4.39213
X-2.27283 Y-4.45827
X-2.35039 Y-4.29528
X-2.43976 Y-4.10079
X-2.45984 Y-4.16378
X-2.49488 Y-4.07362
X-2.50039 Y-4.35827
X-2.50118 Y-3.86102
X-2.56496 Y-3.92087
X-2.64291 Y-3.88583
X-2.77480 Y-3.84724
X-2.84370 Y-3.97087
X-2.85433 Y-3.87165
X-2.87795 Y-3.60827
X-2.91181 Y-4.32992
X-2.93000 Y-4.22000
X-2.93307 Y-4.01535
X-2.95669 Y-3.92717
X-2.96299 Y-3.84882
X-2.96457 Y-4.37008
X-2.98780 Y-4.10630
X-3.00984 Y-4.32323
X-3.01772 Y-4.21063
X-3.05118 Y-4.10630
X-3.06378 Y-4.65866
X-3.07795 Y-4.79409
X-3.08150 Y-4.57874
X-3.08898 Y-4.51654
X-3.11220 Y-4.10827
X-3.14213 Y-3.92992
X-3.16299 Y-4.00591
X-3.16929 Y-4.10748
X-3.19961 Y-4.45000
X-3.23268 Y-4.21339
X-3.24843 Y-4.12165
X-3.27087 Y-4.07441
X-3.29291 Y-4.67795
X-3.29528 Y-3.92087
X-3.31063 Y-3.85906
X-3.35787 Y-4.63740
X-3.37835 Y-3.91929
X-3.40787 Y-4.79213
X-3.43976 Y-3.93976
X-3.47598 Y-3.97559
X-3.54685 Y-4.57087
X-3.59173 Y-4.58898
X-3.63661 Y-4.56693
X-3.68268 Y-4.60236
X-3.72835 Y-4.55276
X-3.74646 Y-4.50669
X-3.79528 Y-3.36614
X-3.82323 Y-4.38268
X-3.84134 Y-4.46850
X-3.89213 Y-4.55906
X-3.91693 Y-3.88819
X-3.92992 Y-4.35118
X-3.94291 Y-4.05591
X-3.95079 Y-4.13780
X-3.99291 Y-4.02008
X-3.99606 Y-3.83898
X-4.00118 Y-3.96260
X-4.01929 Y-3.78071
X-4.04843 Y-4.37402
X-4.05000 Y-4.30669
X-4.05512 Y-4.24803
X-4.08307 Y-4.62205
X-4.25472 Y-4.89055
X-4.30709 Y-3.65000
X-4.42638 Y-4.77638
X-4.51969 Y-4.04685
X-4.52756 Y-4.62638
X-4.53583 Y-4.36339


G00 Z0.98425 ( Retract )
T2
M5      ( Spindle stop.                )
M6      ( Tool change.                 )
(MSG, CHANGE TOOL BIT: to drill size 0.60000 mm)
M0      ( Temporary machine stop.      )
M3      ( Spindle on clockwise.        )

G81 R0.19685 Z-0.10236 F7.87402 X-2.63181 Y-4.17197
X-2.63181 Y-4.23197
X-2.66181 Y-4.20197
X-2.69181 Y-4.17197
X-2.69181 Y-4.23197


G00 Z0.98425 ( Retract )
T3
M5      ( Spindle stop.                )
M6      ( Tool change.                 )
(MSG, CHANGE TOOL BIT: to drill size 1.00000 mm)
M0      ( Temporary machine stop.      )
M3      ( Spindle on clockwise.        )

G81 R0.19685 Z-0.10236 F7.87402 X-3.59016 Y-4.80315
X-3.69016 Y-4.80315
X-3.78976 Y-4.80315
X-3.88976 Y-4.80315
X-3.98937 Y-4.80315
X-4.08937 Y-4.80315


G00 Z0.98425 ( All done -- retract )

M9 ( Coolant off. )
M2 ( Program end. )

