( pcb2gcode 1.1.4 )

( This file uses 3 drill bit sizes. )

G94     ( Inches per minute feed rate. )
G20     ( Units == INCHES.             )
G90     ( Absolute coordinates.        )
S13000  ( RPM spindle speed.           )

G00 Z1.57480 ( Retract )
T1
M5      ( Spindle stop.                )
M6      ( Tool change.                 )
(MSG, CHANGE TOOL BIT: to drill size 0.40000 mm)
M0      ( Temporary machine stop.      )
M3      ( Spindle on clockwise.        )

G81 R0.78740 Z0.19685 F5.11811 X3.91339 Y-3.18504
X4.07283 Y-3.16732
X4.26772 Y-4.11024
X4.49016 Y-3.94488
X4.50394 Y-3.25984
X4.50787 Y-3.00787
X4.57283 Y-3.93504
X4.60748 Y-3.71102
X4.60827 Y-3.37008
X4.61142 Y-3.77717
X4.68898 Y-2.99016
X4.68898 Y-3.61417
X4.77835 Y-3.41969
X4.78543 Y-2.92323
X4.79843 Y-3.48268
X4.82283 Y-3.18504
X4.83346 Y-3.39252
X4.83858 Y-3.66732
X4.88976 Y-3.36024
X4.89567 Y-3.28150
X4.98819 Y-3.25984
X5.01969 Y-4.04134
X5.15157 Y-4.04921
X5.17323 Y-4.11024
X5.18504 Y-4.15748
X5.19094 Y-3.30906
X5.24409 Y-3.66142
X5.24606 Y-3.44685
X5.24803 Y-3.33465
X5.25197 Y-3.86811
X5.25787 Y-3.39173
X5.26772 Y-2.96654
X5.29921 Y-3.71457
X5.29921 Y-3.83465
X5.30118 Y-3.51772
X5.32677 Y-3.25197
X5.34055 Y-3.47638
X5.34843 Y-3.52559
X5.36024 Y-3.64567
X5.41339 Y-3.84449
X5.45276 Y-3.48425
X5.46850 Y-2.91732
X5.49213 Y-3.03543
X5.59843 Y-4.00394
X5.65945 Y-3.32283
X5.78346 Y-3.00394
X5.83268 Y-3.80118
X5.84252 Y-3.00591
X5.84449 Y-4.10827
X5.96260 Y-4.12598
X5.97244 Y-3.87598
X5.97343 Y-2.88878
X6.01378 Y-3.84646
X6.03937 Y-3.23228
X6.12205 Y-3.36614
X6.14764 Y-3.82677
X6.16929 Y-3.87795
X6.22047 Y-3.28740
X6.26772 Y-3.09843
X6.27165 Y-3.27165
X6.29331 Y-3.66929
X6.31102 Y-3.38583
X6.31693 Y-3.04134
X6.31890 Y-3.25591
X6.32874 Y-3.46063
X6.39370 Y-3.66535
X6.50787 Y-4.10039
X6.54921 Y-3.01181
X6.54921 Y-3.42323
X6.56299 Y-3.65748
X6.78740 Y-2.89370


G00 Z1.57480 ( Retract )
T2
M5      ( Spindle stop.                )
M6      ( Tool change.                 )
(MSG, CHANGE TOOL BIT: to drill size 0.60000 mm)
M0      ( Temporary machine stop.      )
M3      ( Spindle on clockwise.        )

G81 R0.78740 Z0.19685 F5.11811 X4.97039 Y-3.49087
X4.97039 Y-3.55087
X5.00039 Y-3.52087
X5.03039 Y-3.49087
X5.03039 Y-3.55087


G00 Z1.57480 ( Retract )
T3
M5      ( Spindle stop.                )
M6      ( Tool change.                 )
(MSG, CHANGE TOOL BIT: to drill size 1.00000 mm)
M0      ( Temporary machine stop.      )
M3      ( Spindle on clockwise.        )

G81 R0.78740 Z0.19685 F5.11811 X5.69488 Y-3.97638
X5.79488 Y-3.97638
X5.89449 Y-3.97638
X5.99449 Y-3.97638
X6.09409 Y-3.97638
X6.19409 Y-3.97638


G00 Z1.57480 ( All done -- retract )

M9 ( Coolant off. )
M2 ( Program end. )

