( pcb2gcode 1.1.4 )

( This file uses 3 drill bit sizes. )

G94     ( Inches per minute feed rate. )
G20     ( Units == INCHES.             )
G90     ( Absolute coordinates.        )
S30000  ( RPM spindle speed.           )

G00 Z0.98425 ( Retract )
T1
M5      ( Spindle stop.                )
M6      ( Tool change.                 )
(MSG, CHANGE TOOL BIT: to drill size 0.50000 mm)
M0      ( Temporary machine stop.      )
M3      ( Spindle on clockwise.        )

G81 R0.19685 Z-0.09843 F7.87402 X-1.27362 Y-3.72244
X-1.80630 Y-3.54646
X-1.83583 Y-4.70591
X-2.11890 Y-3.91496
X-2.17795 Y-4.60000
X-2.25748 Y-4.06299
X-2.26890 Y-4.39213
X-2.27283 Y-4.45827
X-2.35039 Y-4.29528
X-2.43976 Y-4.10079
X-2.45984 Y-4.16378
X-2.49488 Y-4.07362
X-2.50039 Y-4.35827
X-2.50118 Y-3.86102
X-2.56496 Y-3.92087
X-2.67480 Y-3.85472
X-2.77480 Y-3.84724
X-2.84370 Y-3.97087
X-2.85433 Y-3.87165
X-2.87795 Y-3.60827
X-2.90354 Y-4.36220
X-2.93000 Y-4.22000
X-2.93307 Y-4.01535
X-2.95669 Y-3.92717
X-2.96299 Y-3.84882
X-2.96457 Y-4.37008
X-2.98780 Y-4.10630
X-3.00984 Y-4.32323
X-3.01772 Y-4.21063
X-3.05118 Y-4.10630
X-3.06378 Y-4.65866
X-3.07795 Y-4.79409
X-3.08150 Y-4.57874
X-3.08898 Y-4.51654
X-3.11220 Y-4.10827
X-3.14803 Y-3.94370
X-3.17835 Y-4.10315
X-3.19685 Y-4.44291
X-3.30906 Y-3.92402
X-3.36102 Y-3.88307
X-3.52953 Y-4.67992
X-3.62402 Y-4.54528
X-3.79528 Y-3.36614
X-3.79803 Y-4.50197
X-3.90276 Y-4.58465
X-3.95906 Y-3.98701
X-4.02717 Y-4.31102
X-4.03346 Y-4.09488
X-4.25472 Y-4.89055
X-4.30709 Y-3.65000
X-4.30906 Y-4.78346
X-4.42638 Y-4.77638
X-4.51969 Y-4.04685


G00 Z0.98425 ( Retract )
T2
M5      ( Spindle stop.                )
M6      ( Tool change.                 )
(MSG, CHANGE TOOL BIT: to drill size 0.60000 mm)
M0      ( Temporary machine stop.      )
M3      ( Spindle on clockwise.        )

G81 R0.19685 Z-0.09843 F7.87402 X-2.63181 Y-4.17197
X-2.63181 Y-4.23197
X-2.66181 Y-4.20197
X-2.69181 Y-4.17197
X-2.69181 Y-4.23197


G00 Z0.98425 ( Retract )
T3
M5      ( Spindle stop.                )
M6      ( Tool change.                 )
(MSG, CHANGE TOOL BIT: to drill size 0.81300 mm)
M0      ( Temporary machine stop.      )
M3      ( Spindle on clockwise.        )

G81 R0.19685 Z-0.09843 F7.87402 X-3.59016 Y-4.80354
X-3.69016 Y-4.80374
X-3.78976 Y-4.80354
X-3.88976 Y-4.80374
X-3.98937 Y-4.80354
X-4.08937 Y-4.80374


G00 Z0.98425 ( All done -- retract )

M9 ( Coolant off. )
M2 ( Program end. )

