( pcb2gcode 1.1.4 )

( This file uses 3 drill bit sizes. )

G94     ( Inches per minute feed rate. )
G20     ( Units == INCHES.             )
G90     ( Absolute coordinates.        )
S13000  ( RPM spindle speed.           )

G00 Z1.57480 ( Retract )
T1
M5      ( Spindle stop.                )
M6      ( Tool change.                 )
(MSG, CHANGE TOOL BIT: to drill size 0.40000 mm)
M0      ( Temporary machine stop.      )
M3      ( Spindle on clockwise.        )

G81 R0.78740 Z0.19685 F5.11811 X3.91339 Y-3.18504
X4.01575 Y-2.55512
X4.24016 Y-4.00394
X4.47244 Y-3.25000
X4.47244 Y-3.96457
X4.51654 Y-3.91890
X4.59606 Y-3.38189
X4.60748 Y-3.71102
X4.61142 Y-3.77717
X4.61417 Y-3.11417
X4.68898 Y-3.61417
X4.68898 Y-4.28740
X4.77559 Y-4.00787
X4.77835 Y-3.41969
X4.79843 Y-3.48268
X4.82283 Y-3.18504
X4.83346 Y-3.39252
X4.83898 Y-3.67717
X4.90354 Y-3.23976
X4.95276 Y-2.51969
X4.96457 Y-2.72697
X4.98150 Y-3.20472
X5.09449 Y-3.19685
X5.10630 Y-2.81102
X5.11024 Y-4.11811
X5.16142 Y-3.96457
X5.17717 Y-2.56693
X5.18228 Y-3.28976
X5.19685 Y-3.20472
X5.23228 Y-4.11024
X5.23622 Y-3.98031
X5.25039 Y-3.64882
X5.25984 Y-3.33858
X5.26858 Y-3.53890
X5.30315 Y-3.68898
X5.31102 Y-2.95276
X5.31102 Y-3.40551
X5.32283 Y-3.22047
X5.34843 Y-3.64213
X5.35630 Y-3.52953
X5.36614 Y-3.41339
X5.38583 Y-3.20472
X5.39370 Y-3.46457
X5.42008 Y-3.89764
X5.42756 Y-3.83543
X5.45079 Y-3.42717
X5.50787 Y-3.08268
X5.50787 Y-3.42638
X5.51181 Y-3.24409
X5.52756 Y-3.16142
X5.53819 Y-3.76890
X5.54724 Y-3.04724
X5.57126 Y-3.53228
X5.59055 Y-3.39764
X5.62598 Y-3.31693
X5.64567 Y-3.06299
X5.67323 Y-3.31102
X5.71654 Y-3.05512
X5.76772 Y-3.89764
X5.82677 Y-3.05118
X5.83465 Y-3.85827
X5.83858 Y-3.24803
X5.92913 Y-3.90157
X6.01181 Y-3.86220
X6.05512 Y-2.54331
X6.09055 Y-3.24409
X6.12598 Y-2.70866
X6.14567 Y-2.58268
X6.14567 Y-3.82283
X6.16142 Y-2.78740
X6.20472 Y-3.85039
X6.21654 Y-3.16142
X6.24016 Y-3.73228
X6.25984 Y-3.88189
X6.27953 Y-3.28346
X6.33465 Y-2.94882
X6.35028 Y-3.46063
X6.35827 Y-3.53543
X6.37402 Y-3.78740
X6.38583 Y-3.65748
X6.38976 Y-3.32677
X6.40945 Y-2.75197
X6.41339 Y-2.70079
X6.41732 Y-3.90157
X6.48031 Y-2.94488


G00 Z1.57480 ( Retract )
T2
M5      ( Spindle stop.                )
M6      ( Tool change.                 )
(MSG, CHANGE TOOL BIT: to drill size 0.60000 mm)
M0      ( Temporary machine stop.      )
M3      ( Spindle on clockwise.        )

G81 R0.78740 Z0.19685 F5.11811 X4.97039 Y-3.49087
X4.97039 Y-3.55087
X5.00039 Y-3.52087
X5.03039 Y-3.49087
X5.03039 Y-3.55087


G00 Z1.57480 ( Retract )
T3
M5      ( Spindle stop.                )
M6      ( Tool change.                 )
(MSG, CHANGE TOOL BIT: to drill size 1.00000 mm)
M0      ( Temporary machine stop.      )
M3      ( Spindle on clockwise.        )

G81 R0.78740 Z0.19685 F5.11811 X4.79331 Y-4.24803
X4.89331 Y-4.24803
X4.99291 Y-4.24803
X5.09291 Y-4.24803
X5.19252 Y-4.24803
X5.29252 Y-4.24803


G00 Z1.57480 ( All done -- retract )

M9 ( Coolant off. )
M2 ( Program end. )

