( pcb2gcode 1.1.4 )

G94     ( Inches per minute feed rate. )
G20     ( Units == INCHES.             )
G90     ( Absolute coordinates.        )
S30000  ( RPM spindle speed.           )
M3      ( Spindle on clockwise.        )

G64 P0.00500 ( set maximum deviation from commanded toolpath )

G04 P0 ( dwell for no time -- G64 should not smooth over this point )
G00 Z0.19685 ( retract )

G00 X-1.57100 Y-2.72980 ( rapid move to begin. )
G01 Z-0.00591 F39.37008 ( plunge. )
G04 P0 ( dwell for no time -- G64 should not smooth over this point )
X-1.57100 Y-2.72980
X-1.73900 Y-2.72980
X-1.73900 Y-2.73080
X-1.90700 Y-2.73080
X-1.90700 Y-2.73180
X-2.07500 Y-2.73180
X-2.07500 Y-2.73280
X-2.24400 Y-2.73280
X-2.24400 Y-2.73380
X-2.41200 Y-2.73380
X-2.41200 Y-2.73480
X-2.58000 Y-2.73480
X-2.58000 Y-2.73580
X-2.74800 Y-2.73580
X-2.74800 Y-2.73680
X-2.91700 Y-2.73680
X-2.91700 Y-2.73780
X-3.08500 Y-2.73780
X-3.08500 Y-2.73880
X-3.25300 Y-2.73880
X-3.25300 Y-2.73980
X-3.42100 Y-2.73980
X-3.42100 Y-2.74080
X-3.59000 Y-2.74080
X-3.59000 Y-2.74180
X-3.75800 Y-2.74180
X-3.75800 Y-2.74280
X-3.92600 Y-2.74280
X-3.92600 Y-2.74380
X-3.92900 Y-2.74380
X-3.92900 Y-2.74580
X-3.93000 Y-2.74580
X-3.93000 Y-2.74680
X-3.93100 Y-2.74680
X-3.93100 Y-2.91880
X-3.93200 Y-2.91880
X-3.93200 Y-3.48380
X-3.93300 Y-3.48380
X-3.93300 Y-4.04980
X-3.93400 Y-4.04980
X-3.93400 Y-4.61480
X-3.93500 Y-4.61480
X-3.93500 Y-5.18080
X-3.93600 Y-5.18080
X-3.93600 Y-5.52280
X-3.93500 Y-5.52280
X-3.93500 Y-5.52480
X-3.93400 Y-5.52480
X-3.93400 Y-5.52580
X-3.93300 Y-5.52580
X-3.93300 Y-5.52680
X-3.24100 Y-5.52680
X-3.24100 Y-5.52580
X-1.97300 Y-5.52580
X-1.97300 Y-5.52480
X-1.46500 Y-5.52480
X-1.46500 Y-5.52280
X-1.46400 Y-5.52280
X-1.46400 Y-5.52180
X-1.46300 Y-5.52180
X-1.46300 Y-5.48480
X-1.46200 Y-5.48480
X-1.46200 Y-5.30680
X-1.46100 Y-5.30680
X-1.46100 Y-5.12980
X-1.46000 Y-5.12980
X-1.46000 Y-4.95280
X-1.45900 Y-4.95280
X-1.45900 Y-4.77480
X-1.45800 Y-4.77480
X-1.45800 Y-4.59780
X-1.45700 Y-4.59780
X-1.45700 Y-4.41980
X-1.45600 Y-4.41980
X-1.45600 Y-4.24280
X-1.45500 Y-4.24280
X-1.45500 Y-4.06480
X-1.45400 Y-4.06480
X-1.45400 Y-3.88780
X-1.45300 Y-3.88780
X-1.45300 Y-3.71080
X-1.45200 Y-3.71080
X-1.45200 Y-3.53280
X-1.45100 Y-3.53280
X-1.45100 Y-3.35580
X-1.45000 Y-3.35580
X-1.45000 Y-3.17780
X-1.44900 Y-3.17780
X-1.44900 Y-3.00080
X-1.44800 Y-3.00080
X-1.44800 Y-2.82380
X-1.44700 Y-2.82380
X-1.44700 Y-2.73280
X-1.44800 Y-2.73280
X-1.44800 Y-2.73080
X-1.44900 Y-2.73080
X-1.44900 Y-2.72880
X-1.57100 Y-2.72880
X-1.57100 Y-2.72980
G04 P0 ( dwell for no time -- G64 should not smooth over this point )
G00 Z0.19685 ( retract )

G00 X-3.35800 Y-2.85480 ( rapid move to begin. )
G01 Z-0.00591 F39.37008 ( plunge. )
G04 P0 ( dwell for no time -- G64 should not smooth over this point )
X-3.35800 Y-2.85480
X-3.36100 Y-2.85480
X-3.36100 Y-2.85580
X-3.36200 Y-2.85580
X-3.36200 Y-2.85680
X-3.36300 Y-2.85680
X-3.36300 Y-2.85780
X-3.36500 Y-2.85780
X-3.36500 Y-2.85880
X-3.36600 Y-2.85880
X-3.36600 Y-2.85980
X-3.36700 Y-2.85980
X-3.36700 Y-2.86080
X-3.36900 Y-2.86080
X-3.36900 Y-2.86180
X-3.37000 Y-2.86180
X-3.37000 Y-2.86380
X-3.37100 Y-2.86380
X-3.37100 Y-2.86480
X-3.37200 Y-2.86480
X-3.37200 Y-2.86680
X-3.37300 Y-2.86680
X-3.37300 Y-2.86780
X-3.37400 Y-2.86780
X-3.37400 Y-2.86980
X-3.37500 Y-2.86980
X-3.37500 Y-2.87080
X-3.37600 Y-2.87080
X-3.37600 Y-2.87280
X-3.37700 Y-2.87280
X-3.37700 Y-2.87380
X-3.37800 Y-2.87380
X-3.37800 Y-2.87580
X-3.37900 Y-2.87580
X-3.37900 Y-2.87780
X-3.38000 Y-2.87780
X-3.38000 Y-2.87880
X-3.38100 Y-2.87880
X-3.38100 Y-2.88080
X-3.38200 Y-2.88080
X-3.38200 Y-2.88180
X-3.38300 Y-2.88180
X-3.38300 Y-2.88380
X-3.38400 Y-2.88380
X-3.38400 Y-2.88480
X-3.38500 Y-2.88480
X-3.38500 Y-2.88680
X-3.38600 Y-2.88680
X-3.38600 Y-2.88780
X-3.38700 Y-2.88780
X-3.38700 Y-2.88980
X-3.38800 Y-2.88980
X-3.38800 Y-2.89180
X-3.38900 Y-2.89180
X-3.38900 Y-2.89280
X-3.39000 Y-2.89280
X-3.39000 Y-2.89480
X-3.39100 Y-2.89480
X-3.39100 Y-2.89580
X-3.39200 Y-2.89580
X-3.39200 Y-2.89780
X-3.39300 Y-2.89780
X-3.39300 Y-2.89880
X-3.39400 Y-2.89880
X-3.39400 Y-2.90080
X-3.39500 Y-2.90080
X-3.39500 Y-2.90180
X-3.39600 Y-2.90180
X-3.39600 Y-2.90380
X-3.39700 Y-2.90380
X-3.39700 Y-2.90580
X-3.39800 Y-2.90580
X-3.39800 Y-2.90680
X-3.39900 Y-2.90680
X-3.39900 Y-2.90880
X-3.40000 Y-2.90880
X-3.40000 Y-2.90980
X-3.40100 Y-2.90980
X-3.40100 Y-2.91180
X-3.40200 Y-2.91180
X-3.40200 Y-2.91280
X-3.40300 Y-2.91280
X-3.40300 Y-2.91480
X-3.40400 Y-2.91480
X-3.40400 Y-2.91680
X-3.40500 Y-2.91680
X-3.40500 Y-2.91780
X-3.40600 Y-2.91780
X-3.40600 Y-2.91980
X-3.40700 Y-2.91980
X-3.40700 Y-2.92080
X-3.40800 Y-2.92080
X-3.40800 Y-2.92280
X-3.40900 Y-2.92280
X-3.40900 Y-2.92380
X-3.41000 Y-2.92380
X-3.41000 Y-2.92580
X-3.41100 Y-2.92580
X-3.41100 Y-2.92680
X-3.41200 Y-2.92680
X-3.41200 Y-2.92880
X-3.41300 Y-2.92880
X-3.41300 Y-2.93080
X-3.41400 Y-2.93080
X-3.41400 Y-2.93180
X-3.41500 Y-2.93180
X-3.41500 Y-2.93380
X-3.41600 Y-2.93380
X-3.41600 Y-2.93480
X-3.41700 Y-2.93480
X-3.41700 Y-2.93680
X-3.41800 Y-2.93680
X-3.41800 Y-2.93780
X-3.41900 Y-2.93780
X-3.41900 Y-2.93980
X-3.42000 Y-2.93980
X-3.42000 Y-2.94080
X-3.42100 Y-2.94080
X-3.42100 Y-2.94280
X-3.42200 Y-2.94280
X-3.42200 Y-2.94480
X-3.42300 Y-2.94480
X-3.42300 Y-2.94580
X-3.42400 Y-2.94580
X-3.42400 Y-2.94780
X-3.42500 Y-2.94780
X-3.42500 Y-2.94880
X-3.42600 Y-2.94880
X-3.42600 Y-2.95080
X-3.42700 Y-2.95080
X-3.42700 Y-2.95180
X-3.42800 Y-2.95180
X-3.42800 Y-2.95380
X-3.42900 Y-2.95380
X-3.42900 Y-2.95480
X-3.43000 Y-2.95480
X-3.43000 Y-2.95680
X-3.43100 Y-2.95680
X-3.43100 Y-2.95880
X-3.43200 Y-2.95880
X-3.43200 Y-2.95980
X-3.43300 Y-2.95980
X-3.43300 Y-2.96180
X-3.43400 Y-2.96180
X-3.43400 Y-2.96280
X-3.43500 Y-2.96280
X-3.43500 Y-2.96480
X-3.43600 Y-2.96480
X-3.43600 Y-2.96580
X-3.43700 Y-2.96580
X-3.43700 Y-2.96780
X-3.43800 Y-2.96780
X-3.43800 Y-2.96880
X-3.43900 Y-2.96880
X-3.43900 Y-2.97080
X-3.44000 Y-2.97080
X-3.44000 Y-2.97280
X-3.44100 Y-2.97280
X-3.44100 Y-2.97380
X-3.44200 Y-2.97380
X-3.44200 Y-2.97580
X-3.44300 Y-2.97580
X-3.44300 Y-2.97680
X-3.44400 Y-2.97680
X-3.44400 Y-2.97880
X-3.44500 Y-2.97880
X-3.44500 Y-2.97980
X-3.44600 Y-2.97980
X-3.44600 Y-2.98180
X-3.44700 Y-2.98180
X-3.44700 Y-2.98280
X-3.44800 Y-2.98280
X-3.44800 Y-2.98480
X-3.44900 Y-2.98480
X-3.44900 Y-2.98680
X-3.45000 Y-2.98680
X-3.45000 Y-2.98780
X-3.45100 Y-2.98780
X-3.45100 Y-2.98980
X-3.45200 Y-2.98980
X-3.45200 Y-2.99080
X-3.45300 Y-2.99080
X-3.45300 Y-2.99280
X-3.45400 Y-2.99280
X-3.45400 Y-2.99380
X-3.45500 Y-2.99380
X-3.45500 Y-2.99580
X-3.45600 Y-2.99580
X-3.45600 Y-2.99780
X-3.45700 Y-2.99780
X-3.45700 Y-2.99880
X-3.45800 Y-2.99880
X-3.45800 Y-3.00080
X-3.45900 Y-3.00080
X-3.45900 Y-3.00180
X-3.46000 Y-3.00180
X-3.46000 Y-3.00380
X-3.46100 Y-3.00380
X-3.46100 Y-3.00480
X-3.46200 Y-3.00480
X-3.46200 Y-3.00680
X-3.46300 Y-3.00680
X-3.46300 Y-3.00780
X-3.46400 Y-3.00780
X-3.46400 Y-3.00980
X-3.46500 Y-3.00980
X-3.46500 Y-3.01180
X-3.46600 Y-3.01180
X-3.46600 Y-3.01280
X-3.46700 Y-3.01280
X-3.46700 Y-3.01480
X-3.46800 Y-3.01480
X-3.46800 Y-3.01580
X-3.46900 Y-3.01580
X-3.46900 Y-3.01780
X-3.47000 Y-3.01780
X-3.47000 Y-3.01880
X-3.47100 Y-3.01880
X-3.47100 Y-3.02080
X-3.47200 Y-3.02080
X-3.47200 Y-3.02180
X-3.47300 Y-3.02180
X-3.47300 Y-3.02380
X-3.47400 Y-3.02380
X-3.47400 Y-3.02580
X-3.47500 Y-3.02580
X-3.47500 Y-3.02680
X-3.47600 Y-3.02680
X-3.47600 Y-3.02880
X-3.47700 Y-3.02880
X-3.47700 Y-3.02980
X-3.47800 Y-3.02980
X-3.47800 Y-3.03180
X-3.47900 Y-3.03180
X-3.47900 Y-3.03280
X-3.48000 Y-3.03280
X-3.48000 Y-3.03480
X-3.48100 Y-3.03480
X-3.48100 Y-3.03580
X-3.48200 Y-3.03580
X-3.48200 Y-3.03780
X-3.48300 Y-3.03780
X-3.48300 Y-3.03980
X-3.48400 Y-3.03980
X-3.48400 Y-3.04080
X-3.48500 Y-3.04080
X-3.48500 Y-3.04280
X-3.48600 Y-3.04280
X-3.48600 Y-3.04380
X-3.48700 Y-3.04380
X-3.48700 Y-3.04580
X-3.48800 Y-3.04580
X-3.48800 Y-3.04680
X-3.48900 Y-3.04680
X-3.48900 Y-3.04880
X-3.49000 Y-3.04880
X-3.49000 Y-3.04980
X-3.49100 Y-3.04980
X-3.49100 Y-3.05180
X-3.49200 Y-3.05180
X-3.49200 Y-3.05380
X-3.49300 Y-3.05380
X-3.49300 Y-3.05480
X-3.49400 Y-3.05480
X-3.49400 Y-3.05680
X-3.49500 Y-3.05680
X-3.49500 Y-3.05780
X-3.49600 Y-3.05780
X-3.49600 Y-3.05980
X-3.49700 Y-3.05980
X-3.49700 Y-3.06280
X-3.49800 Y-3.06280
X-3.49800 Y-3.06580
X-3.49900 Y-3.06580
X-3.49900 Y-3.06880
X-3.50000 Y-3.06880
X-3.50000 Y-3.10280
X-3.50100 Y-3.10280
X-3.50100 Y-3.10380
X-3.50200 Y-3.10380
X-3.50200 Y-3.10480
X-3.50300 Y-3.10480
X-3.50300 Y-3.10680
X-3.50400 Y-3.10680
X-3.50400 Y-3.10780
X-3.50500 Y-3.10780
X-3.50500 Y-3.10980
X-3.50600 Y-3.10980
X-3.50600 Y-3.11080
X-3.50700 Y-3.11080
X-3.50700 Y-3.11180
X-3.50800 Y-3.11180
X-3.50800 Y-3.11580
X-3.50900 Y-3.11580
X-3.50900 Y-3.12080
X-3.51000 Y-3.12080
X-3.51000 Y-3.12580
X-3.51100 Y-3.12580
X-3.51100 Y-3.12780
X-3.51000 Y-3.12780
X-3.51000 Y-3.13280
X-3.50900 Y-3.13280
X-3.50900 Y-3.13780
X-3.50800 Y-3.13780
X-3.50800 Y-3.14080
X-3.50700 Y-3.14080
X-3.50700 Y-3.14180
X-3.50600 Y-3.14180
X-3.50600 Y-3.14380
X-3.50500 Y-3.14380
X-3.50500 Y-3.14480
X-3.50400 Y-3.14480
X-3.50400 Y-3.14680
X-3.50300 Y-3.14680
X-3.50300 Y-3.14780
X-3.50200 Y-3.14780
X-3.50200 Y-3.14880
X-3.50100 Y-3.14880
X-3.50100 Y-3.14980
X-3.50000 Y-3.14980
X-3.50000 Y-3.15080
X-3.49800 Y-3.15080
X-3.49800 Y-3.15180
X-3.49600 Y-3.15180
X-3.49600 Y-3.15280
X-3.49500 Y-3.15280
X-3.49500 Y-3.15380
X-3.49300 Y-3.15380
X-3.49300 Y-3.15480
X-3.49100 Y-3.15480
X-3.49100 Y-3.15580
X-3.48500 Y-3.15580
X-3.48500 Y-3.15680
X-3.47500 Y-3.15680
X-3.47500 Y-3.15580
X-3.47000 Y-3.15580
X-3.47000 Y-3.15480
X-3.46700 Y-3.15480
X-3.46700 Y-3.15380
X-3.46500 Y-3.15380
X-3.46500 Y-3.15280
X-3.46400 Y-3.15280
X-3.46400 Y-3.15180
X-3.46200 Y-3.15180
X-3.46200 Y-3.15080
X-3.46000 Y-3.15080
X-3.46000 Y-3.14980
X-3.45900 Y-3.14980
X-3.45900 Y-3.14880
X-3.45800 Y-3.14880
X-3.45800 Y-3.14780
X-3.45700 Y-3.14780
X-3.45700 Y-3.14580
X-3.45600 Y-3.14580
X-3.45600 Y-3.14480
X-3.45500 Y-3.14480
X-3.45500 Y-3.14380
X-3.45400 Y-3.14380
X-3.45400 Y-3.14180
X-3.45300 Y-3.14180
X-3.45300 Y-3.14080
X-3.45200 Y-3.14080
X-3.45200 Y-3.13680
X-3.45100 Y-3.13680
X-3.45100 Y-3.13180
X-3.45000 Y-3.13180
X-3.45000 Y-3.12180
X-3.45100 Y-3.12180
X-3.45100 Y-3.11680
X-3.45200 Y-3.11680
X-3.45200 Y-3.11280
X-3.45300 Y-3.11280
X-3.45300 Y-3.11080
X-3.45400 Y-3.11080
X-3.45400 Y-3.10980
X-3.45500 Y-3.10980
X-3.45500 Y-3.10780
X-3.45600 Y-3.10780
X-3.45600 Y-3.10680
X-3.45700 Y-3.10680
X-3.45700 Y-3.10580
X-3.45800 Y-3.10580
X-3.45800 Y-3.10380
X-3.45900 Y-3.10380
X-3.45900 Y-3.10280
X-3.46000 Y-3.10280
X-3.46000 Y-3.07780
X-3.45900 Y-3.07780
X-3.45900 Y-3.07580
X-3.45800 Y-3.07580
X-3.45800 Y-3.07480
X-3.45700 Y-3.07480
X-3.45700 Y-3.07280
X-3.45600 Y-3.07280
X-3.45600 Y-3.07080
X-3.45500 Y-3.07080
X-3.45500 Y-3.06980
X-3.45400 Y-3.06980
X-3.45400 Y-3.06780
X-3.45300 Y-3.06780
X-3.45300 Y-3.06680
X-3.45200 Y-3.06680
X-3.45200 Y-3.06480
X-3.45100 Y-3.06480
X-3.45100 Y-3.06380
X-3.45000 Y-3.06380
X-3.45000 Y-3.06180
X-3.44900 Y-3.06180
X-3.44900 Y-3.05980
X-3.44800 Y-3.05980
X-3.44800 Y-3.05880
X-3.44700 Y-3.05880
X-3.44700 Y-3.05680
X-3.44600 Y-3.05680
X-3.44600 Y-3.05580
X-3.44500 Y-3.05580
X-3.44500 Y-3.05380
X-3.44400 Y-3.05380
X-3.44400 Y-3.05280
X-3.44300 Y-3.05280
X-3.44300 Y-3.05080
X-3.44200 Y-3.05080
X-3.44200 Y-3.04980
X-3.44100 Y-3.04980
X-3.44100 Y-3.04780
X-3.44000 Y-3.04780
X-3.44000 Y-3.04580
X-3.43900 Y-3.04580
X-3.43900 Y-3.04480
X-3.43800 Y-3.04480
X-3.43800 Y-3.04280
X-3.43700 Y-3.04280
X-3.43700 Y-3.04180
X-3.43600 Y-3.04180
X-3.43600 Y-3.03980
X-3.43500 Y-3.03980
X-3.43500 Y-3.03880
X-3.43400 Y-3.03880
X-3.43400 Y-3.03680
X-3.43300 Y-3.03680
X-3.43300 Y-3.03580
X-3.43200 Y-3.03580
X-3.43200 Y-3.03380
X-3.43100 Y-3.03380
X-3.43100 Y-3.03180
X-3.43000 Y-3.03180
X-3.43000 Y-3.03080
X-3.42900 Y-3.03080
X-3.42900 Y-3.02880
X-3.42800 Y-3.02880
X-3.42800 Y-3.02780
X-3.42700 Y-3.02780
X-3.42700 Y-3.02580
X-3.42600 Y-3.02580
X-3.42600 Y-3.02480
X-3.42500 Y-3.02480
X-3.42500 Y-3.02280
X-3.42400 Y-3.02280
X-3.42400 Y-3.02180
X-3.42300 Y-3.02180
X-3.42300 Y-3.01980
X-3.42200 Y-3.01980
X-3.42200 Y-3.01780
X-3.42100 Y-3.01780
X-3.42100 Y-3.01680
X-3.42000 Y-3.01680
X-3.42000 Y-3.01480
X-3.41900 Y-3.01480
X-3.41900 Y-3.01380
X-3.41800 Y-3.01380
X-3.41800 Y-3.01180
X-3.41700 Y-3.01180
X-3.41700 Y-3.01080
X-3.41600 Y-3.01080
X-3.41600 Y-3.00880
X-3.41500 Y-3.00880
X-3.41500 Y-3.00780
X-3.41400 Y-3.00780
X-3.41400 Y-3.00580
X-3.41300 Y-3.00580
X-3.41300 Y-3.00380
X-3.41200 Y-3.00380
X-3.41200 Y-3.00280
X-3.41100 Y-3.00280
X-3.41100 Y-3.00080
X-3.41000 Y-3.00080
X-3.41000 Y-2.99980
X-3.40900 Y-2.99980
X-3.40900 Y-2.99780
X-3.40800 Y-2.99780
X-3.40800 Y-2.99680
X-3.40700 Y-2.99680
X-3.40700 Y-2.99480
X-3.40600 Y-2.99480
X-3.40600 Y-2.99380
X-3.40500 Y-2.99380
X-3.40500 Y-2.99180
X-3.40400 Y-2.99180
X-3.40400 Y-2.98980
X-3.40300 Y-2.98980
X-3.40300 Y-2.98880
X-3.40200 Y-2.98880
X-3.40200 Y-2.98680
X-3.40100 Y-2.98680
X-3.40100 Y-2.98580
X-3.40000 Y-2.98580
X-3.40000 Y-2.98380
X-3.39900 Y-2.98380
X-3.39900 Y-2.98280
X-3.39800 Y-2.98280
X-3.39800 Y-2.98080
X-3.39700 Y-2.98080
X-3.39700 Y-2.97880
X-3.39600 Y-2.97880
X-3.39600 Y-2.97780
X-3.39500 Y-2.97780
X-3.39500 Y-2.97580
X-3.39400 Y-2.97580
X-3.39400 Y-2.97480
X-3.39300 Y-2.97480
X-3.39300 Y-2.97280
X-3.39200 Y-2.97280
X-3.39200 Y-2.97180
X-3.39100 Y-2.97180
X-3.39100 Y-2.96980
X-3.39000 Y-2.96980
X-3.39000 Y-2.96880
X-3.38900 Y-2.96880
X-3.38900 Y-2.96680
X-3.38800 Y-2.96680
X-3.38800 Y-2.96480
X-3.38700 Y-2.96480
X-3.38700 Y-2.96380
X-3.38600 Y-2.96380
X-3.38600 Y-2.96180
X-3.38500 Y-2.96180
X-3.38500 Y-2.96080
X-3.38400 Y-2.96080
X-3.38400 Y-2.95880
X-3.38300 Y-2.95880
X-3.38300 Y-2.95780
X-3.38200 Y-2.95780
X-3.38200 Y-2.95580
X-3.38100 Y-2.95580
X-3.38100 Y-2.95480
X-3.38000 Y-2.95480
X-3.38000 Y-2.95280
X-3.37900 Y-2.95280
X-3.37900 Y-2.95080
X-3.37800 Y-2.95080
X-3.37800 Y-2.94980
X-3.37700 Y-2.94980
X-3.37700 Y-2.94780
X-3.37600 Y-2.94780
X-3.37600 Y-2.94680
X-3.37500 Y-2.94680
X-3.37500 Y-2.94480
X-3.37400 Y-2.94480
X-3.37400 Y-2.94380
X-3.37300 Y-2.94380
X-3.37300 Y-2.94180
X-3.37200 Y-2.94180
X-3.37200 Y-2.94080
X-3.37100 Y-2.94080
X-3.37100 Y-2.93880
X-3.37000 Y-2.93880
X-3.37000 Y-2.93680
X-3.36900 Y-2.93680
X-3.36900 Y-2.93580
X-3.36800 Y-2.93580
X-3.36800 Y-2.93380
X-3.36700 Y-2.93380
X-3.36700 Y-2.93280
X-3.36600 Y-2.93280
X-3.36600 Y-2.93080
X-3.36500 Y-2.93080
X-3.36500 Y-2.92980
X-3.36400 Y-2.92980
X-3.36400 Y-2.92780
X-3.36300 Y-2.92780
X-3.36300 Y-2.92680
X-3.36200 Y-2.92680
X-3.36200 Y-2.92480
X-3.36100 Y-2.92480
X-3.36100 Y-2.92280
X-3.36000 Y-2.92280
X-3.36000 Y-2.92180
X-3.35900 Y-2.92180
X-3.35900 Y-2.91980
X-3.35800 Y-2.91980
X-3.35800 Y-2.91880
X-3.35700 Y-2.91880
X-3.35700 Y-2.91680
X-3.35600 Y-2.91680
X-3.35600 Y-2.91580
X-3.35500 Y-2.91580
X-3.35500 Y-2.91380
X-3.35400 Y-2.91380
X-3.35400 Y-2.91180
X-3.35300 Y-2.91180
X-3.35300 Y-2.91080
X-3.35200 Y-2.91080
X-3.35200 Y-2.90880
X-3.35100 Y-2.90880
X-3.35100 Y-2.90780
X-3.35000 Y-2.90780
X-3.35000 Y-2.90580
X-3.34900 Y-2.90580
X-3.34900 Y-2.90480
X-3.34800 Y-2.90480
X-3.34800 Y-2.90280
X-3.34700 Y-2.90280
X-3.34700 Y-2.90180
X-3.34600 Y-2.90180
X-3.34600 Y-2.89980
X-3.34500 Y-2.89980
X-3.34500 Y-2.89780
X-3.34400 Y-2.89780
X-3.34400 Y-2.89680
X-3.34300 Y-2.89680
X-3.34300 Y-2.89480
X-3.34200 Y-2.89480
X-3.34200 Y-2.89380
X-3.08700 Y-2.89380
X-3.08700 Y-2.89480
X-3.08600 Y-2.89480
X-3.08600 Y-2.89580
X-3.08500 Y-2.89580
X-3.08500 Y-2.89680
X-3.08400 Y-2.89680
X-3.08400 Y-2.89780
X-3.08300 Y-2.89780
X-3.08300 Y-2.89880
X-3.08200 Y-2.89880
X-3.08200 Y-2.90080
X-3.08100 Y-2.90080
X-3.08100 Y-2.90180
X-3.08000 Y-2.90180
X-3.08000 Y-2.90280
X-3.07900 Y-2.90280
X-3.07900 Y-2.90380
X-3.07800 Y-2.90380
X-3.07800 Y-2.90480
X-3.07700 Y-2.90480
X-3.07700 Y-2.90580
X-3.07600 Y-2.90580
X-3.07600 Y-2.90780
X-3.07500 Y-2.90780
X-3.07500 Y-2.90880
X-3.07400 Y-2.90880
X-3.07400 Y-2.90980
X-3.07300 Y-2.90980
X-3.07300 Y-2.91080
X-3.07200 Y-2.91080
X-3.07200 Y-2.91180
X-3.07100 Y-2.91180
X-3.07100 Y-2.91380
X-3.07000 Y-2.91380
X-3.07000 Y-2.91480
X-3.06900 Y-2.91480
X-3.06900 Y-2.91580
X-3.06800 Y-2.91580
X-3.06800 Y-2.91680
X-3.06700 Y-2.91680
X-3.06700 Y-2.91780
X-3.06600 Y-2.91780
X-3.06600 Y-2.91880
X-3.06500 Y-2.91880
X-3.06500 Y-2.92080
X-3.06400 Y-2.92080
X-3.06400 Y-2.92180
X-3.06300 Y-2.92180
X-3.06300 Y-2.92280
X-3.06200 Y-2.92280
X-3.06200 Y-2.92380
X-3.06100 Y-2.92380
X-3.06100 Y-2.92480
X-3.06000 Y-2.92480
X-3.06000 Y-2.92580
X-3.05900 Y-2.92580
X-3.05900 Y-2.92780
X-3.05800 Y-2.92780
X-3.05800 Y-2.92880
X-3.05700 Y-2.92880
X-3.05700 Y-2.92980
X-3.05600 Y-2.92980
X-3.05600 Y-2.93080
X-3.05500 Y-2.93080
X-3.05500 Y-2.93180
X-3.05400 Y-2.93180
X-3.05400 Y-2.93280
X-3.05300 Y-2.93280
X-3.05300 Y-2.93480
X-3.05200 Y-2.93480
X-3.05200 Y-2.93580
X-3.05100 Y-2.93580
X-3.05100 Y-2.93680
X-3.05000 Y-2.93680
X-3.05000 Y-2.93780
X-3.04900 Y-2.93780
X-3.04900 Y-2.93880
X-3.04800 Y-2.93880
X-3.04800 Y-2.94080
X-3.04700 Y-2.94080
X-3.04700 Y-2.94180
X-3.04600 Y-2.94180
X-3.04600 Y-2.94280
X-3.04500 Y-2.94280
X-3.04500 Y-2.94380
X-3.04400 Y-2.94380
X-3.04400 Y-2.94480
X-3.04300 Y-2.94480
X-3.04300 Y-2.94580
X-3.04200 Y-2.94580
X-3.04200 Y-2.94780
X-3.04100 Y-2.94780
X-3.04100 Y-2.94880
X-3.04000 Y-2.94880
X-3.04000 Y-2.94980
X-3.03900 Y-2.94980
X-3.03900 Y-2.95080
X-3.03800 Y-2.95080
X-3.03800 Y-2.95180
X-3.03700 Y-2.95180
X-3.03700 Y-2.95280
X-3.03600 Y-2.95280
X-3.03600 Y-2.95480
X-3.03500 Y-2.95480
X-3.03500 Y-2.95580
X-3.03400 Y-2.95580
X-3.03400 Y-2.95680
X-3.03300 Y-2.95680
X-3.03300 Y-2.95780
X-3.03200 Y-2.95780
X-3.03200 Y-2.95880
X-3.03100 Y-2.95880
X-3.03100 Y-2.95980
X-3.03000 Y-2.95980
X-3.03000 Y-2.96180
X-3.02900 Y-2.96180
X-3.02900 Y-2.96280
X-3.02800 Y-2.96280
X-3.02800 Y-2.96380
X-3.02700 Y-2.96380
X-3.02700 Y-2.96480
X-3.02600 Y-2.96480
X-3.02600 Y-2.96580
X-3.02500 Y-2.96580
X-3.02500 Y-2.96780
X-3.02400 Y-2.96780
X-3.02400 Y-2.96880
X-3.02300 Y-2.96880
X-3.02300 Y-2.96980
X-3.02200 Y-2.96980
X-3.02200 Y-2.97080
X-3.02100 Y-2.97080
X-3.02100 Y-2.97180
X-3.02000 Y-2.97180
X-3.02000 Y-2.97280
X-3.01900 Y-2.97280
X-3.01900 Y-2.97480
X-3.01800 Y-2.97480
X-3.01800 Y-2.97580
X-3.01700 Y-2.97580
X-3.01700 Y-2.97680
X-3.01600 Y-2.97680
X-3.01600 Y-2.97780
X-3.01500 Y-2.97780
X-3.01500 Y-2.97880
X-3.01400 Y-2.97880
X-3.01400 Y-2.97980
X-3.01300 Y-2.97980
X-3.01300 Y-2.98180
X-3.01200 Y-2.98180
X-3.01200 Y-2.98280
X-3.01100 Y-2.98280
X-3.01100 Y-2.98380
X-3.01000 Y-2.98380
X-3.01000 Y-2.98480
X-3.00900 Y-2.98480
X-3.00900 Y-2.98580
X-3.00800 Y-2.98580
X-3.00800 Y-2.98680
X-3.00700 Y-2.98680
X-3.00700 Y-3.17080
X-3.00600 Y-3.17080
X-3.00600 Y-3.17380
X-3.00500 Y-3.17380
X-3.00500 Y-3.17680
X-3.00400 Y-3.17680
X-3.00400 Y-3.17980
X-3.00300 Y-3.17980
X-3.00300 Y-3.18180
X-3.00200 Y-3.18180
X-3.00200 Y-3.18280
X-3.00100 Y-3.18280
X-3.00100 Y-3.18380
X-3.00000 Y-3.18380
X-3.00000 Y-3.18480
X-2.99900 Y-3.18480
X-2.99900 Y-3.18580
X-2.99800 Y-3.18580
X-2.99800 Y-3.18680
X-2.99700 Y-3.18680
X-2.99700 Y-3.18780
X-2.99600 Y-3.18780
X-2.99600 Y-3.18880
X-2.99500 Y-3.18880
X-2.99500 Y-3.18980
X-2.99400 Y-3.18980
X-2.99400 Y-3.19080
X-2.99300 Y-3.19080
X-2.99300 Y-3.19180
X-2.99200 Y-3.19180
X-2.99200 Y-3.19280
X-2.99100 Y-3.19280
X-2.99100 Y-3.19380
X-2.99000 Y-3.19380
X-2.99000 Y-3.19480
X-2.98900 Y-3.19480
X-2.98900 Y-3.19580
X-2.98800 Y-3.19580
X-2.98800 Y-3.19680
X-2.98700 Y-3.19680
X-2.98700 Y-3.19780
X-2.98600 Y-3.19780
X-2.98600 Y-3.19880
X-2.98500 Y-3.19880
X-2.98500 Y-3.19980
X-2.98400 Y-3.19980
X-2.98400 Y-3.20080
X-2.98300 Y-3.20080
X-2.98300 Y-3.20180
X-2.98200 Y-3.20180
X-2.98200 Y-3.20280
X-2.98100 Y-3.20280
X-2.98100 Y-3.20380
X-2.98000 Y-3.20380
X-2.98000 Y-3.20480
X-2.97900 Y-3.20480
X-2.97900 Y-3.20580
X-2.97700 Y-3.20580
X-2.97700 Y-3.20680
X-2.97600 Y-3.20680
X-2.97600 Y-3.20780
X-2.97500 Y-3.20780
X-2.97500 Y-3.20880
X-2.97300 Y-3.20880
X-2.97300 Y-3.20980
X-2.97200 Y-3.20980
X-2.97200 Y-3.21080
X-2.97000 Y-3.21080
X-2.97000 Y-3.21180
X-2.96500 Y-3.21180
X-2.96500 Y-3.21280
X-2.91100 Y-3.21280
X-2.91100 Y-3.21380
X-2.91000 Y-3.21380
X-2.91000 Y-3.21480
X-2.90800 Y-3.21480
X-2.90800 Y-3.21580
X-2.90600 Y-3.21580
X-2.90600 Y-3.21680
X-2.90500 Y-3.21680
X-2.90500 Y-3.21780
X-2.90300 Y-3.21780
X-2.90300 Y-3.21880
X-2.89800 Y-3.21880
X-2.89800 Y-3.21980
X-2.89300 Y-3.21980
X-2.89300 Y-3.22080
X-2.89100 Y-3.22080
X-2.89100 Y-3.21980
X-2.88600 Y-3.21980
X-2.88600 Y-3.21880
X-2.88100 Y-3.21880
X-2.88100 Y-3.21780
X-2.87900 Y-3.21780
X-2.87900 Y-3.21680
X-2.87800 Y-3.21680
X-2.87800 Y-3.21580
X-2.87600 Y-3.21580
X-2.87600 Y-3.21480
X-2.87400 Y-3.21480
X-2.87400 Y-3.21380
X-2.87300 Y-3.21380
X-2.87300 Y-3.21280
X-2.87200 Y-3.21280
X-2.87200 Y-3.21180
X-2.87100 Y-3.21180
X-2.87100 Y-3.21080
X-2.87000 Y-3.21080
X-2.87000 Y-3.20880
X-2.86900 Y-3.20880
X-2.86900 Y-3.20780
X-2.86800 Y-3.20780
X-2.86800 Y-3.20680
X-2.86700 Y-3.20680
X-2.86700 Y-3.20480
X-2.86600 Y-3.20480
X-2.86600 Y-3.20080
X-2.86500 Y-3.20080
X-2.86500 Y-3.19580
X-2.86400 Y-3.19580
X-2.86400 Y-3.18880
X-2.86500 Y-3.18880
X-2.86500 Y-3.18380
X-2.86600 Y-3.18380
X-2.86600 Y-3.17980
X-2.86700 Y-3.17980
X-2.86700 Y-3.17780
X-2.86800 Y-3.17780
X-2.86800 Y-3.17680
X-2.86900 Y-3.17680
X-2.86900 Y-3.17580
X-2.87000 Y-3.17580
X-2.87000 Y-3.17380
X-2.87100 Y-3.17380
X-2.87100 Y-3.17280
X-2.87200 Y-3.17280
X-2.87200 Y-3.17080
X-2.87400 Y-3.17080
X-2.87400 Y-3.16980
X-2.87600 Y-3.16980
X-2.87600 Y-3.16880
X-2.87700 Y-3.16880
X-2.87700 Y-3.16780
X-2.87900 Y-3.16780
X-2.87900 Y-3.16680
X-2.88100 Y-3.16680
X-2.88100 Y-3.16580
X-2.88600 Y-3.16580
X-2.88600 Y-3.16480
X-2.89100 Y-3.16480
X-2.89100 Y-3.16380
X-2.89300 Y-3.16380
X-2.89300 Y-3.16480
X-2.89800 Y-3.16480
X-2.89800 Y-3.16580
X-2.90300 Y-3.16580
X-2.90300 Y-3.16680
X-2.90500 Y-3.16680
X-2.90500 Y-3.16780
X-2.90700 Y-3.16780
X-2.90700 Y-3.16880
X-2.90800 Y-3.16880
X-2.90800 Y-3.16980
X-2.91000 Y-3.16980
X-2.91000 Y-3.17080
X-2.91200 Y-3.17080
X-2.91200 Y-3.17180
X-2.95600 Y-3.17180
X-2.95600 Y-3.17080
X-2.95700 Y-3.17080
X-2.95700 Y-3.16980
X-2.95800 Y-3.16980
X-2.95800 Y-3.16880
X-2.95900 Y-3.16880
X-2.95900 Y-3.16780
X-2.96000 Y-3.16780
X-2.96000 Y-3.16680
X-2.96100 Y-3.16680
X-2.96100 Y-3.16580
X-2.96200 Y-3.16580
X-2.96200 Y-3.16480
X-2.96300 Y-3.16480
X-2.96300 Y-3.16380
X-2.96400 Y-3.16380
X-2.96400 Y-3.16280
X-2.96500 Y-3.16280
X-2.96500 Y-3.16180
X-2.96600 Y-3.16180
X-2.96600 Y-3.16080
X-2.96700 Y-3.16080
X-2.96700 Y-2.97680
X-2.96800 Y-2.97680
X-2.96800 Y-2.97380
X-2.96900 Y-2.97380
X-2.96900 Y-2.97080
X-2.97000 Y-2.97080
X-2.97000 Y-2.96780
X-2.97100 Y-2.96780
X-2.97100 Y-2.96680
X-2.97200 Y-2.96680
X-2.97200 Y-2.96580
X-2.97300 Y-2.96580
X-2.97300 Y-2.96380
X-2.97400 Y-2.96380
X-2.97400 Y-2.96280
X-2.97500 Y-2.96280
X-2.97500 Y-2.96180
X-2.97600 Y-2.96180
X-2.97600 Y-2.96080
X-2.97700 Y-2.96080
X-2.97700 Y-2.95980
X-2.97800 Y-2.95980
X-2.97800 Y-2.95880
X-2.97900 Y-2.95880
X-2.97900 Y-2.95680
X-2.98000 Y-2.95680
X-2.98000 Y-2.95580
X-2.98100 Y-2.95580
X-2.98100 Y-2.95480
X-2.98200 Y-2.95480
X-2.98200 Y-2.95380
X-2.98300 Y-2.95380
X-2.98300 Y-2.95280
X-2.98400 Y-2.95280
X-2.98400 Y-2.95180
X-2.98500 Y-2.95180
X-2.98500 Y-2.94980
X-2.98600 Y-2.94980
X-2.98600 Y-2.94880
X-2.98700 Y-2.94880
X-2.98700 Y-2.94780
X-2.98800 Y-2.94780
X-2.98800 Y-2.94680
X-2.98900 Y-2.94680
X-2.98900 Y-2.94580
X-2.99000 Y-2.94580
X-2.99000 Y-2.94480
X-2.99100 Y-2.94480
X-2.99100 Y-2.94280
X-2.99200 Y-2.94280
X-2.99200 Y-2.94180
X-2.99300 Y-2.94180
X-2.99300 Y-2.94080
X-2.99400 Y-2.94080
X-2.99400 Y-2.93980
X-2.99500 Y-2.93980
X-2.99500 Y-2.93880
X-2.99600 Y-2.93880
X-2.99600 Y-2.93680
X-2.99700 Y-2.93680
X-2.99700 Y-2.93580
X-2.99800 Y-2.93580
X-2.99800 Y-2.93480
X-2.99900 Y-2.93480
X-2.99900 Y-2.93380
X-3.00000 Y-2.93380
X-3.00000 Y-2.93280
X-3.00100 Y-2.93280
X-3.00100 Y-2.93180
X-3.00200 Y-2.93180
X-3.00200 Y-2.92980
X-3.00300 Y-2.92980
X-3.00300 Y-2.92880
X-3.00400 Y-2.92880
X-3.00400 Y-2.92780
X-3.00500 Y-2.92780
X-3.00500 Y-2.92680
X-3.00600 Y-2.92680
X-3.00600 Y-2.92580
X-3.00700 Y-2.92580
X-3.00700 Y-2.92480
X-3.00800 Y-2.92480
X-3.00800 Y-2.92280
X-3.00900 Y-2.92280
X-3.00900 Y-2.92180
X-3.01000 Y-2.92180
X-3.01000 Y-2.92080
X-3.01100 Y-2.92080
X-3.01100 Y-2.91980
X-3.01200 Y-2.91980
X-3.01200 Y-2.91880
X-3.01300 Y-2.91880
X-3.01300 Y-2.91780
X-3.01400 Y-2.91780
X-3.01400 Y-2.91580
X-3.01500 Y-2.91580
X-3.01500 Y-2.91480
X-3.01600 Y-2.91480
X-3.01600 Y-2.91380
X-3.01700 Y-2.91380
X-3.01700 Y-2.91280
X-3.01800 Y-2.91280
X-3.01800 Y-2.91180
X-3.01900 Y-2.91180
X-3.01900 Y-2.91080
X-3.02000 Y-2.91080
X-3.02000 Y-2.90880
X-3.02100 Y-2.90880
X-3.02100 Y-2.90780
X-3.02200 Y-2.90780
X-3.02200 Y-2.90680
X-3.02300 Y-2.90680
X-3.02300 Y-2.90580
X-3.02400 Y-2.90580
X-3.02400 Y-2.90480
X-3.02500 Y-2.90480
X-3.02500 Y-2.90280
X-3.02600 Y-2.90280
X-3.02600 Y-2.90180
X-3.02700 Y-2.90180
X-3.02700 Y-2.90080
X-3.02800 Y-2.90080
X-3.02800 Y-2.89980
X-3.02900 Y-2.89980
X-3.02900 Y-2.89880
X-3.03000 Y-2.89880
X-3.03000 Y-2.89780
X-3.03100 Y-2.89780
X-3.03100 Y-2.89580
X-3.03200 Y-2.89580
X-3.03200 Y-2.89480
X-3.03300 Y-2.89480
X-3.03300 Y-2.89380
X-3.03400 Y-2.89380
X-3.03400 Y-2.89280
X-3.03500 Y-2.89280
X-3.03500 Y-2.89180
X-3.03600 Y-2.89180
X-3.03600 Y-2.89080
X-3.03700 Y-2.89080
X-3.03700 Y-2.88880
X-3.03800 Y-2.88880
X-3.03800 Y-2.88780
X-3.03900 Y-2.88780
X-3.03900 Y-2.88680
X-3.04000 Y-2.88680
X-3.04000 Y-2.88580
X-3.04100 Y-2.88580
X-3.04100 Y-2.88480
X-3.04200 Y-2.88480
X-3.04200 Y-2.88380
X-3.04300 Y-2.88380
X-3.04300 Y-2.88180
X-3.04400 Y-2.88180
X-3.04400 Y-2.88080
X-3.04500 Y-2.88080
X-3.04500 Y-2.87980
X-3.04600 Y-2.87980
X-3.04600 Y-2.87880
X-3.04700 Y-2.87880
X-3.04700 Y-2.87780
X-3.04800 Y-2.87780
X-3.04800 Y-2.87580
X-3.04900 Y-2.87580
X-3.04900 Y-2.87480
X-3.05000 Y-2.87480
X-3.05000 Y-2.87380
X-3.05100 Y-2.87380
X-3.05100 Y-2.87280
X-3.05200 Y-2.87280
X-3.05200 Y-2.87180
X-3.05300 Y-2.87180
X-3.05300 Y-2.87080
X-3.05400 Y-2.87080
X-3.05400 Y-2.86880
X-3.05500 Y-2.86880
X-3.05500 Y-2.86780
X-3.05600 Y-2.86780
X-3.05600 Y-2.86680
X-3.05700 Y-2.86680
X-3.05700 Y-2.86580
X-3.05800 Y-2.86580
X-3.05800 Y-2.86480
X-3.05900 Y-2.86480
X-3.05900 Y-2.86380
X-3.06000 Y-2.86380
X-3.06000 Y-2.86180
X-3.06100 Y-2.86180
X-3.06100 Y-2.86080
X-3.06300 Y-2.86080
X-3.06300 Y-2.85980
X-3.06400 Y-2.85980
X-3.06400 Y-2.85880
X-3.06600 Y-2.85880
X-3.06600 Y-2.85780
X-3.06700 Y-2.85780
X-3.06700 Y-2.85680
X-3.06800 Y-2.85680
X-3.06800 Y-2.85580
X-3.07000 Y-2.85580
X-3.07000 Y-2.85480
X-3.07300 Y-2.85480
X-3.07300 Y-2.85380
X-3.35800 Y-2.85380
X-3.35800 Y-2.85480
G04 P0 ( dwell for no time -- G64 should not smooth over this point )
G00 Z0.19685 ( retract )

G00 X-2.87700 Y-2.87580 ( rapid move to begin. )
G01 Z-0.00591 F39.37008 ( plunge. )
G04 P0 ( dwell for no time -- G64 should not smooth over this point )
X-2.87700 Y-2.87580
X-2.87900 Y-2.87580
X-2.87900 Y-2.87680
X-2.88100 Y-2.87680
X-2.88100 Y-2.87780
X-2.88200 Y-2.87780
X-2.88200 Y-2.87880
X-2.88400 Y-2.87880
X-2.88400 Y-2.87980
X-2.88500 Y-2.87980
X-2.88500 Y-2.88080
X-2.88600 Y-2.88080
X-2.88600 Y-2.88180
X-2.88700 Y-2.88180
X-2.88700 Y-2.88280
X-2.88800 Y-2.88280
X-2.88800 Y-2.88380
X-2.88900 Y-2.88380
X-2.88900 Y-2.88480
X-2.89000 Y-2.88480
X-2.89000 Y-2.88580
X-2.89100 Y-2.88580
X-2.89100 Y-2.88680
X-2.89200 Y-2.88680
X-2.89200 Y-2.88780
X-2.89300 Y-2.88780
X-2.89300 Y-2.88880
X-2.89400 Y-2.88880
X-2.89400 Y-2.88980
X-2.89500 Y-2.88980
X-2.89500 Y-2.89080
X-2.89600 Y-2.89080
X-2.89600 Y-2.89180
X-2.89700 Y-2.89180
X-2.89700 Y-2.89280
X-2.89800 Y-2.89280
X-2.89800 Y-2.89380
X-2.89900 Y-2.89380
X-2.89900 Y-2.89480
X-2.90000 Y-2.89480
X-2.90000 Y-2.89580
X-2.90100 Y-2.89580
X-2.90100 Y-2.89680
X-2.90200 Y-2.89680
X-2.90200 Y-2.89780
X-2.90300 Y-2.89780
X-2.90300 Y-2.89880
X-2.90400 Y-2.89880
X-2.90400 Y-2.89980
X-2.90500 Y-2.89980
X-2.90500 Y-2.90080
X-2.90600 Y-2.90080
X-2.90600 Y-2.90180
X-2.90700 Y-2.90180
X-2.90700 Y-2.90280
X-2.90800 Y-2.90280
X-2.90800 Y-2.90380
X-2.90900 Y-2.90380
X-2.90900 Y-2.90680
X-2.91000 Y-2.90680
X-2.91000 Y-2.90980
X-2.91100 Y-2.90980
X-2.91100 Y-2.91280
X-2.91200 Y-2.91280
X-2.91200 Y-2.96480
X-2.92000 Y-2.96480
X-2.92000 Y-3.02080
X-2.86400 Y-3.02080
X-2.86400 Y-3.01780
X-2.86100 Y-3.01780
X-2.86100 Y-3.01880
X-2.85500 Y-3.01880
X-2.85500 Y-3.01980
X-2.84900 Y-3.01980
X-2.84900 Y-3.02080
X-2.84300 Y-3.02080
X-2.84300 Y-3.02180
X-2.83800 Y-3.02180
X-2.83800 Y-3.02280
X-2.83200 Y-3.02280
X-2.83200 Y-3.02380
X-2.82600 Y-3.02380
X-2.82600 Y-3.02480
X-2.82000 Y-3.02480
X-2.82000 Y-3.02580
X-2.81500 Y-3.02580
X-2.81500 Y-3.02680
X-2.80900 Y-3.02680
X-2.80900 Y-3.02780
X-2.80300 Y-3.02780
X-2.80300 Y-3.02880
X-2.79700 Y-3.02880
X-2.79700 Y-3.02980
X-2.79200 Y-3.02980
X-2.79200 Y-3.03080
X-2.78600 Y-3.03080
X-2.78600 Y-3.03180
X-2.78000 Y-3.03180
X-2.78000 Y-3.03280
X-2.77400 Y-3.03280
X-2.77400 Y-3.03380
X-2.76800 Y-3.03380
X-2.76800 Y-3.03480
X-2.76300 Y-3.03480
X-2.76300 Y-3.03580
X-2.75700 Y-3.03580
X-2.75700 Y-3.03680
X-2.75100 Y-3.03680
X-2.75100 Y-3.03780
X-2.74500 Y-3.03780
X-2.74500 Y-3.03880
X-2.74000 Y-3.03880
X-2.74000 Y-3.03980
X-2.73400 Y-3.03980
X-2.73400 Y-3.04080
X-2.72800 Y-3.04080
X-2.72800 Y-3.04180
X-2.72200 Y-3.04180
X-2.72200 Y-3.04280
X-2.71700 Y-3.04280
X-2.71700 Y-3.04380
X-2.71100 Y-3.04380
X-2.71100 Y-3.04480
X-2.70500 Y-3.04480
X-2.70500 Y-3.04580
X-2.69900 Y-3.04580
X-2.69900 Y-3.04680
X-2.69400 Y-3.04680
X-2.69400 Y-3.04780
X-2.69100 Y-3.04780
X-2.69100 Y-3.04680
X-2.68000 Y-3.04680
X-2.68000 Y-3.04580
X-2.67900 Y-3.04580
X-2.67900 Y-3.04480
X-2.67700 Y-3.04480
X-2.67700 Y-3.04380
X-2.67600 Y-3.04380
X-2.67600 Y-3.04280
X-2.67400 Y-3.04280
X-2.67400 Y-3.04180
X-2.67300 Y-3.04180
X-2.67300 Y-3.04080
X-2.67200 Y-3.04080
X-2.67200 Y-3.03980
X-2.67100 Y-3.03980
X-2.67100 Y-3.03880
X-2.67000 Y-3.03880
X-2.67000 Y-3.03780
X-2.66900 Y-3.03780
X-2.66900 Y-3.03680
X-2.66800 Y-3.03680
X-2.66800 Y-3.03580
X-2.66700 Y-3.03580
X-2.66700 Y-3.03280
X-2.66600 Y-3.03280
X-2.66600 Y-3.02980
X-2.66500 Y-3.02980
X-2.66500 Y-3.02680
X-2.66400 Y-3.02680
X-2.66400 Y-3.01980
X-2.66500 Y-3.01980
X-2.66500 Y-3.01680
X-2.66600 Y-3.01680
X-2.66600 Y-3.01380
X-2.66700 Y-3.01380
X-2.66700 Y-3.01080
X-2.66900 Y-3.01080
X-2.66900 Y-3.00980
X-2.66900 Y-3.00980
X-2.66900 Y-3.00880
X-2.66800 Y-3.00880
X-2.66800 Y-3.00780
X-2.66700 Y-3.00780
X-2.66700 Y-3.00680
X-2.66600 Y-3.00680
X-2.66600 Y-3.00580
X-2.66500 Y-3.00580
X-2.66500 Y-3.00480
X-2.66400 Y-3.00480
X-2.66400 Y-3.00380
X-2.66300 Y-3.00380
X-2.66300 Y-3.00280
X-2.66200 Y-3.00280
X-2.66200 Y-3.00180
X-2.66100 Y-3.00180
X-2.66100 Y-3.00080
X-2.66000 Y-3.00080
X-2.66000 Y-2.99980
X-2.65900 Y-2.99980
X-2.65900 Y-2.99880
X-2.65800 Y-2.99880
X-2.65800 Y-2.99780
X-2.65700 Y-2.99780
X-2.65700 Y-2.99680
X-2.65600 Y-2.99680
X-2.65600 Y-2.99580
X-2.65500 Y-2.99580
X-2.65500 Y-2.99480
X-2.65400 Y-2.99480
X-2.65400 Y-2.99380
X-2.65300 Y-2.99380
X-2.65300 Y-2.99280
X-2.65200 Y-2.99280
X-2.65200 Y-2.99180
X-2.65100 Y-2.99180
X-2.65100 Y-2.99080
X-2.65000 Y-2.99080
X-2.65000 Y-2.98980
X-2.64900 Y-2.98980
X-2.64900 Y-2.98880
X-2.64800 Y-2.98880
X-2.64800 Y-2.98780
X-2.64700 Y-2.98780
X-2.64700 Y-2.98680
X-2.64600 Y-2.98680
X-2.64600 Y-2.98580
X-2.64500 Y-2.98580
X-2.64500 Y-2.98480
X-2.64400 Y-2.98480
X-2.64400 Y-2.98380
X-2.64300 Y-2.98380
X-2.64300 Y-2.98280
X-2.64200 Y-2.98280
X-2.64200 Y-2.98180
X-2.64100 Y-2.98180
X-2.64100 Y-2.98080
X-2.64000 Y-2.98080
X-2.64000 Y-2.97980
X-2.63900 Y-2.97980
X-2.63900 Y-2.97880
X-2.63800 Y-2.97880
X-2.63800 Y-2.97780
X-2.63700 Y-2.97780
X-2.63700 Y-2.97680
X-2.63600 Y-2.97680
X-2.63600 Y-2.97580
X-2.63500 Y-2.97580
X-2.63500 Y-2.97480
X-2.63400 Y-2.97480
X-2.63400 Y-2.97380
X-2.63300 Y-2.97380
X-2.63300 Y-2.97280
X-2.63200 Y-2.97280
X-2.63200 Y-2.97180
X-2.63100 Y-2.97180
X-2.63100 Y-2.97080
X-2.63000 Y-2.97080
X-2.63000 Y-2.96980
X-2.62900 Y-2.96980
X-2.62900 Y-2.96880
X-2.62800 Y-2.96880
X-2.62800 Y-2.96780
X-2.62700 Y-2.96780
X-2.62700 Y-2.96680
X-2.62600 Y-2.96680
X-2.62600 Y-2.96580
X-2.62500 Y-2.96580
X-2.62500 Y-2.96480
X-2.62400 Y-2.96480
X-2.62400 Y-2.96380
X-2.62300 Y-2.96380
X-2.62300 Y-2.96280
X-2.26100 Y-2.96280
X-2.26100 Y-2.96380
X-2.26000 Y-2.96380
X-2.26000 Y-2.96480
X-2.25900 Y-2.96480
X-2.25900 Y-2.96580
X-2.25800 Y-2.96580
X-2.25800 Y-2.96680
X-2.25700 Y-2.96680
X-2.25700 Y-2.96780
X-2.25600 Y-2.96780
X-2.25600 Y-2.96880
X-2.25500 Y-2.96880
X-2.25500 Y-2.96980
X-2.25400 Y-2.96980
X-2.25400 Y-2.97080
X-2.25300 Y-2.97080
X-2.25300 Y-2.97180
X-2.25200 Y-2.97180
X-2.25200 Y-2.97280
X-2.25100 Y-2.97280
X-2.25100 Y-2.97380
X-2.25000 Y-2.97380
X-2.25000 Y-2.97480
X-2.24900 Y-2.97480
X-2.24900 Y-2.97580
X-2.24800 Y-2.97580
X-2.24800 Y-2.97680
X-2.24700 Y-2.97680
X-2.24700 Y-2.97780
X-2.24600 Y-2.97780
X-2.24600 Y-2.97880
X-2.24500 Y-2.97880
X-2.24500 Y-2.97980
X-2.24400 Y-2.97980
X-2.24400 Y-2.98080
X-2.24300 Y-2.98080
X-2.24300 Y-2.98180
X-2.24200 Y-2.98180
X-2.24200 Y-2.98280
X-2.24100 Y-2.98280
X-2.24100 Y-2.98380
X-2.24000 Y-2.98380
X-2.24000 Y-2.98480
X-2.23900 Y-2.98480
X-2.23900 Y-2.98580
X-2.23800 Y-2.98580
X-2.23800 Y-2.98680
X-2.23700 Y-2.98680
X-2.23700 Y-2.98780
X-2.23600 Y-2.98780
X-2.23600 Y-2.98880
X-2.23500 Y-2.98880
X-2.23500 Y-2.98980
X-2.23400 Y-2.98980
X-2.23400 Y-2.99080
X-2.23300 Y-2.99080
X-2.23300 Y-2.99180
X-2.23200 Y-2.99180
X-2.23200 Y-2.99280
X-2.23100 Y-2.99280
X-2.23100 Y-2.99380
X-2.23000 Y-2.99380
X-2.23000 Y-2.99480
X-2.22900 Y-2.99480
X-2.22900 Y-2.99580
X-2.22800 Y-2.99580
X-2.22800 Y-2.99680
X-2.22700 Y-2.99680
X-2.22700 Y-2.99780
X-2.22600 Y-2.99780
X-2.22600 Y-2.99880
X-2.22500 Y-2.99880
X-2.22500 Y-2.99980
X-2.22400 Y-2.99980
X-2.22400 Y-3.00080
X-2.22300 Y-3.00080
X-2.22300 Y-3.00180
X-2.22200 Y-3.00180
X-2.22200 Y-3.00280
X-2.22100 Y-3.00280
X-2.22100 Y-3.00380
X-2.22000 Y-3.00380
X-2.22000 Y-3.00480
X-2.21900 Y-3.00480
X-2.21900 Y-3.00580
X-2.21800 Y-3.00580
X-2.21800 Y-3.00680
X-2.21700 Y-3.00680
X-2.21700 Y-3.00780
X-2.21600 Y-3.00780
X-2.21600 Y-3.00880
X-2.21500 Y-3.00880
X-2.21500 Y-3.00980
X-2.21400 Y-3.00980
X-2.21400 Y-3.01080
X-2.21300 Y-3.01080
X-2.21300 Y-3.01180
X-2.21200 Y-3.01180
X-2.21200 Y-3.01280
X-2.21100 Y-3.01280
X-2.21100 Y-3.01380
X-2.21000 Y-3.01380
X-2.21000 Y-3.01480
X-2.20900 Y-3.01480
X-2.20900 Y-3.01580
X-2.20800 Y-3.01580
X-2.20800 Y-3.01680
X-2.20700 Y-3.01680
X-2.20700 Y-3.01780
X-2.20600 Y-3.01780
X-2.20600 Y-3.01880
X-2.20500 Y-3.01880
X-2.20500 Y-3.01980
X-2.20400 Y-3.01980
X-2.20400 Y-3.02080
X-2.20300 Y-3.02080
X-2.20300 Y-3.02180
X-2.20200 Y-3.02180
X-2.20200 Y-3.02280
X-2.20100 Y-3.02280
X-2.20100 Y-3.02380
X-2.20000 Y-3.02380
X-2.20000 Y-3.02480
X-2.19900 Y-3.02480
X-2.19900 Y-3.02580
X-2.19800 Y-3.02580
X-2.19800 Y-3.02680
X-2.19700 Y-3.02680
X-2.19700 Y-3.02780
X-2.19600 Y-3.02780
X-2.19600 Y-3.02880
X-2.19500 Y-3.02880
X-2.19500 Y-3.02980
X-2.19400 Y-3.02980
X-2.19400 Y-3.03080
X-2.19300 Y-3.03080
X-2.19300 Y-3.03180
X-2.19200 Y-3.03180
X-2.19200 Y-3.03280
X-2.19100 Y-3.03280
X-2.19100 Y-3.03380
X-2.19000 Y-3.03380
X-2.19000 Y-3.03480
X-2.18900 Y-3.03480
X-2.18900 Y-3.03580
X-2.18800 Y-3.03580
X-2.18800 Y-3.03680
X-2.18700 Y-3.03680
X-2.18700 Y-3.03780
X-2.18600 Y-3.03780
X-2.18600 Y-3.03880
X-2.18500 Y-3.03880
X-2.18500 Y-3.03980
X-2.18400 Y-3.03980
X-2.18400 Y-3.04080
X-2.18300 Y-3.04080
X-2.18300 Y-3.04180
X-2.18200 Y-3.04180
X-2.18200 Y-3.04280
X-2.18100 Y-3.04280
X-2.18100 Y-3.04380
X-2.18000 Y-3.04380
X-2.18000 Y-3.04480
X-2.17900 Y-3.04480
X-2.17900 Y-3.04580
X-2.17800 Y-3.04580
X-2.17800 Y-3.04680
X-2.17700 Y-3.04680
X-2.17700 Y-3.04780
X-2.17600 Y-3.04780
X-2.17600 Y-3.04880
X-2.17500 Y-3.04880
X-2.17500 Y-3.04980
X-2.17400 Y-3.04980
X-2.17400 Y-3.05080
X-2.17300 Y-3.05080
X-2.17300 Y-3.05180
X-2.17200 Y-3.05180
X-2.17200 Y-3.05280
X-2.17100 Y-3.05280
X-2.17100 Y-3.05380
X-2.17000 Y-3.05380
X-2.17000 Y-3.05480
X-2.16900 Y-3.05480
X-2.16900 Y-3.05580
X-2.16800 Y-3.05580
X-2.16800 Y-3.05680
X-2.16700 Y-3.05680
X-2.16700 Y-3.05780
X-2.16600 Y-3.05780
X-2.16600 Y-3.05880
X-2.16500 Y-3.05880
X-2.16500 Y-3.05980
X-2.16400 Y-3.05980
X-2.16400 Y-3.06080
X-2.16300 Y-3.06080
X-2.16300 Y-3.06180
X-2.16200 Y-3.06180
X-2.16200 Y-3.06280
X-2.16100 Y-3.06280
X-2.16100 Y-3.06380
X-2.16000 Y-3.06380
X-2.16000 Y-3.06480
X-2.15900 Y-3.06480
X-2.15900 Y-3.20780
X-2.16000 Y-3.20780
X-2.16000 Y-3.20880
X-2.16100 Y-3.20880
X-2.16100 Y-3.20980
X-2.16200 Y-3.20980
X-2.16200 Y-3.21080
X-2.16300 Y-3.21080
X-2.16300 Y-3.21180
X-2.16400 Y-3.21180
X-2.16400 Y-3.21280
X-2.16500 Y-3.21280
X-2.16500 Y-3.21380
X-2.16600 Y-3.21380
X-2.16600 Y-3.21480
X-2.16700 Y-3.21480
X-2.16700 Y-3.21580
X-2.16800 Y-3.21580
X-2.16800 Y-3.21680
X-2.16900 Y-3.21680
X-2.16900 Y-3.21780
X-2.24900 Y-3.21780
X-2.24900 Y-3.21080
X-2.25700 Y-3.21080
X-2.25700 Y-3.09780
X-2.25800 Y-3.09780
X-2.25800 Y-3.09480
X-2.25900 Y-3.09480
X-2.25900 Y-3.09180
X-2.26000 Y-3.09180
X-2.26000 Y-3.08980
X-2.26100 Y-3.08980
X-2.26100 Y-3.08880
X-2.26200 Y-3.08880
X-2.26200 Y-3.08680
X-2.26300 Y-3.08680
X-2.26300 Y-3.08580
X-2.26400 Y-3.08580
X-2.26400 Y-3.08480
X-2.26500 Y-3.08480
X-2.26500 Y-3.08380
X-2.26600 Y-3.08380
X-2.26600 Y-3.08280
X-2.26700 Y-3.08280
X-2.26700 Y-3.08180
X-2.26800 Y-3.08180
X-2.26800 Y-3.08080
X-2.26900 Y-3.08080
X-2.26900 Y-3.07980
X-2.27000 Y-3.07980
X-2.27000 Y-3.07880
X-2.27100 Y-3.07880
X-2.27100 Y-3.07780
X-2.27200 Y-3.07780
X-2.27200 Y-3.07680
X-2.27300 Y-3.07680
X-2.27300 Y-3.07580
X-2.27400 Y-3.07580
X-2.27400 Y-3.07480
X-2.27500 Y-3.07480
X-2.27500 Y-3.07380
X-2.27600 Y-3.07380
X-2.27600 Y-3.07280
X-2.27700 Y-3.07280
X-2.27700 Y-3.07180
X-2.27800 Y-3.07180
X-2.27800 Y-3.07080
X-2.27900 Y-3.07080
X-2.27900 Y-3.06980
X-2.28000 Y-3.06980
X-2.28000 Y-3.06880
X-2.28100 Y-3.06880
X-2.28100 Y-3.06780
X-2.28200 Y-3.06780
X-2.28200 Y-3.06680
X-2.28300 Y-3.06680
X-2.28300 Y-3.06580
X-2.28400 Y-3.06580
X-2.28400 Y-3.06480
X-2.28500 Y-3.06480
X-2.28500 Y-3.06380
X-2.28600 Y-3.06380
X-2.28600 Y-3.06280
X-2.28700 Y-3.06280
X-2.28700 Y-3.06180
X-2.28800 Y-3.06180
X-2.28800 Y-3.06080
X-2.28900 Y-3.06080
X-2.28900 Y-3.05980
X-2.29200 Y-3.05980
X-2.29200 Y-3.05880
X-2.29300 Y-3.05880
X-2.29300 Y-3.05780
X-2.29500 Y-3.05780
X-2.29500 Y-3.05680
X-2.29600 Y-3.05680
X-2.29600 Y-3.05580
X-2.31200 Y-3.05580
X-2.31200 Y-3.05680
X-2.31400 Y-3.05680
X-2.31400 Y-3.05780
X-2.31500 Y-3.05780
X-2.31500 Y-3.05880
X-2.31700 Y-3.05880
X-2.31700 Y-3.05980
X-2.31800 Y-3.05980
X-2.31800 Y-3.06080
X-2.31900 Y-3.06080
X-2.31900 Y-3.06180
X-2.32000 Y-3.06180
X-2.32000 Y-3.06280
X-2.32100 Y-3.06280
X-2.32100 Y-3.06380
X-2.32200 Y-3.06380
X-2.32200 Y-3.06480
X-2.32300 Y-3.06480
X-2.32300 Y-3.06580
X-2.32400 Y-3.06580
X-2.32400 Y-3.06680
X-2.32500 Y-3.06680
X-2.32500 Y-3.06780
X-2.32600 Y-3.06780
X-2.32600 Y-3.06880
X-2.32700 Y-3.06880
X-2.32700 Y-3.06980
X-2.32800 Y-3.06980
X-2.32800 Y-3.07080
X-2.32900 Y-3.07080
X-2.32900 Y-3.07180
X-2.33000 Y-3.07180
X-2.33000 Y-3.07280
X-2.33100 Y-3.07280
X-2.33100 Y-3.07380
X-2.33200 Y-3.07380
X-2.33200 Y-3.07480
X-2.33300 Y-3.07480
X-2.33300 Y-3.07580
X-2.33400 Y-3.07580
X-2.33400 Y-3.07680
X-2.33500 Y-3.07680
X-2.33500 Y-3.07780
X-2.33600 Y-3.07780
X-2.33600 Y-3.07880
X-2.33700 Y-3.07880
X-2.33700 Y-3.07980
X-2.33800 Y-3.07980
X-2.33800 Y-3.08080
X-2.33900 Y-3.08080
X-2.33900 Y-3.08180
X-2.34000 Y-3.08180
X-2.34000 Y-3.08280
X-2.34100 Y-3.08280
X-2.34100 Y-3.08380
X-2.34200 Y-3.08380
X-2.34200 Y-3.08480
X-2.34300 Y-3.08480
X-2.34300 Y-3.08580
X-2.34400 Y-3.08580
X-2.34400 Y-3.08680
X-2.34500 Y-3.08680
X-2.34500 Y-3.08780
X-2.34600 Y-3.08780
X-2.34600 Y-3.08880
X-2.34700 Y-3.08880
X-2.34700 Y-3.08980
X-2.34800 Y-3.08980
X-2.34800 Y-3.09080
X-2.34900 Y-3.09080
X-2.34900 Y-3.09180
X-2.35000 Y-3.09180
X-2.35000 Y-3.09280
X-2.35100 Y-3.09280
X-2.35100 Y-3.09380
X-2.35200 Y-3.09380
X-2.35200 Y-3.09480
X-2.35300 Y-3.09480
X-2.35300 Y-3.09580
X-2.35400 Y-3.09580
X-2.35400 Y-3.09680
X-2.35500 Y-3.09680
X-2.35500 Y-3.09780
X-2.35600 Y-3.09780
X-2.35600 Y-3.09880
X-2.35700 Y-3.09880
X-2.35700 Y-3.09980
X-2.35800 Y-3.09980
X-2.35800 Y-3.10080
X-2.35900 Y-3.10080
X-2.35900 Y-3.10180
X-2.36000 Y-3.10180
X-2.36000 Y-3.10280
X-2.36100 Y-3.10280
X-2.36100 Y-3.10380
X-2.36200 Y-3.10380
X-2.36200 Y-3.10480
X-2.36300 Y-3.10480
X-2.36300 Y-3.10580
X-2.36400 Y-3.10580
X-2.36400 Y-3.10680
X-2.36500 Y-3.10680
X-2.36500 Y-3.10780
X-2.36600 Y-3.10780
X-2.36600 Y-3.10880
X-2.36700 Y-3.10880
X-2.36700 Y-3.10980
X-2.36800 Y-3.10980
X-2.36800 Y-3.11080
X-2.36900 Y-3.11080
X-2.36900 Y-3.11180
X-2.37000 Y-3.11180
X-2.37000 Y-3.11280
X-2.37100 Y-3.11280
X-2.37100 Y-3.11380
X-2.37200 Y-3.11380
X-2.37200 Y-3.11480
X-2.37300 Y-3.11480
X-2.37300 Y-3.11580
X-2.37400 Y-3.11580
X-2.37400 Y-3.11680
X-2.37500 Y-3.11680
X-2.37500 Y-3.11780
X-2.37600 Y-3.11780
X-2.37600 Y-3.11880
X-2.37700 Y-3.11880
X-2.37700 Y-3.11980
X-2.37800 Y-3.11980
X-2.37800 Y-3.12080
X-2.37900 Y-3.12080
X-2.37900 Y-3.12180
X-2.38000 Y-3.12180
X-2.38000 Y-3.12280
X-2.38100 Y-3.12280
X-2.38100 Y-3.12380
X-2.38200 Y-3.12380
X-2.38200 Y-3.12480
X-2.38300 Y-3.12480
X-2.38300 Y-3.12580
X-2.38400 Y-3.12580
X-2.38400 Y-3.12680
X-2.38500 Y-3.12680
X-2.38500 Y-3.12780
X-2.38600 Y-3.12780
X-2.38600 Y-3.12880
X-2.38700 Y-3.12880
X-2.38700 Y-3.12980
X-2.38800 Y-3.12980
X-2.38800 Y-3.13080
X-2.38900 Y-3.13080
X-2.38900 Y-3.13180
X-2.39000 Y-3.13180
X-2.39000 Y-3.13280
X-2.39100 Y-3.13280
X-2.39100 Y-3.13380
X-2.39200 Y-3.13380
X-2.39200 Y-3.13480
X-2.39300 Y-3.13480
X-2.39300 Y-3.13580
X-2.39400 Y-3.13580
X-2.39400 Y-3.13680
X-2.39500 Y-3.13680
X-2.39500 Y-3.13780
X-2.39600 Y-3.13780
X-2.39600 Y-3.13880
X-2.39700 Y-3.13880
X-2.39700 Y-3.13980
X-2.39800 Y-3.13980
X-2.39800 Y-3.14080
X-2.39900 Y-3.14080
X-2.39900 Y-3.14280
X-2.40000 Y-3.14280
X-2.40000 Y-3.14580
X-2.40100 Y-3.14580
X-2.40100 Y-3.14880
X-2.40200 Y-3.14880
X-2.40200 Y-3.15180
X-2.40300 Y-3.15180
X-2.40300 Y-3.85480
X-2.40400 Y-3.85480
X-2.40400 Y-3.85580
X-2.40500 Y-3.85580
X-2.40500 Y-3.85680
X-2.40600 Y-3.85680
X-2.40600 Y-3.85780
X-2.40700 Y-3.85780
X-2.40700 Y-3.85880
X-2.40800 Y-3.85880
X-2.40800 Y-3.85980
X-2.40900 Y-3.85980
X-2.40900 Y-3.86080
X-2.41000 Y-3.86080
X-2.41000 Y-3.86180
X-2.41100 Y-3.86180
X-2.41100 Y-3.86280
X-2.41200 Y-3.86280
X-2.41200 Y-3.86380
X-2.41300 Y-3.86380
X-2.41300 Y-3.86480
X-2.41400 Y-3.86480
X-2.41400 Y-3.86580
X-2.41500 Y-3.86580
X-2.41500 Y-3.86680
X-2.41600 Y-3.86680
X-2.41600 Y-3.86780
X-2.41700 Y-3.86780
X-2.41700 Y-3.86880
X-2.41800 Y-3.86880
X-2.41800 Y-3.86980
X-2.41900 Y-3.86980
X-2.41900 Y-3.87080
X-2.42000 Y-3.87080
X-2.42000 Y-3.87180
X-2.42100 Y-3.87180
X-2.42100 Y-3.87280
X-2.42200 Y-3.87280
X-2.42200 Y-3.87380
X-2.42300 Y-3.87380
X-2.42300 Y-3.87480
X-2.42400 Y-3.87480
X-2.42400 Y-3.87580
X-2.42500 Y-3.87580
X-2.42500 Y-3.87680
X-2.42600 Y-3.87680
X-2.42600 Y-3.87780
X-2.42700 Y-3.87780
X-2.42700 Y-3.87880
X-2.42800 Y-3.87880
X-2.42800 Y-3.87980
X-2.42900 Y-3.87980
X-2.42900 Y-3.88080
X-2.43000 Y-3.88080
X-2.43000 Y-3.88180
X-2.43100 Y-3.88180
X-2.43100 Y-3.88280
X-2.43200 Y-3.88280
X-2.43200 Y-3.88380
X-2.43300 Y-3.88380
X-2.43300 Y-3.88480
X-2.43400 Y-3.88480
X-2.43400 Y-3.88580
X-2.43500 Y-3.88580
X-2.43500 Y-3.88680
X-2.43600 Y-3.88680
X-2.43600 Y-3.88780
X-2.43700 Y-3.88780
X-2.43700 Y-3.88880
X-2.43800 Y-3.88880
X-2.43800 Y-3.88980
X-2.43900 Y-3.88980
X-2.43900 Y-3.89080
X-2.44000 Y-3.89080
X-2.44000 Y-3.89180
X-2.44100 Y-3.89180
X-2.44100 Y-3.89280
X-2.44200 Y-3.89280
X-2.44200 Y-3.89380
X-2.44300 Y-3.89380
X-2.44300 Y-3.89480
X-2.44400 Y-3.89480
X-2.44400 Y-3.89580
X-2.44500 Y-3.89580
X-2.44500 Y-3.89680
X-2.44600 Y-3.89680
X-2.44600 Y-3.89780
X-2.44700 Y-3.89780
X-2.44700 Y-3.89880
X-2.44800 Y-3.89880
X-2.44800 Y-3.89980
X-2.44900 Y-3.89980
X-2.44900 Y-3.90080
X-2.45000 Y-3.90080
X-2.45000 Y-3.90180
X-2.45100 Y-3.90180
X-2.45100 Y-3.90280
X-2.45200 Y-3.90280
X-2.45200 Y-3.90380
X-2.45300 Y-3.90380
X-2.45300 Y-3.90480
X-2.45400 Y-3.90480
X-2.45400 Y-3.90580
X-2.45500 Y-3.90580
X-2.45500 Y-3.90680
X-2.45600 Y-3.90680
X-2.45600 Y-3.90780
X-2.45700 Y-3.90780
X-2.45700 Y-3.90880
X-2.45800 Y-3.90880
X-2.45800 Y-3.90980
X-2.45900 Y-3.90980
X-2.45900 Y-3.91080
X-2.46000 Y-3.91080
X-2.46000 Y-3.91180
X-2.46100 Y-3.91180
X-2.46100 Y-3.91280
X-2.46200 Y-3.91280
X-2.46200 Y-3.91380
X-2.46300 Y-3.91380
X-2.46300 Y-3.91480
X-2.46400 Y-3.91480
X-2.46400 Y-3.91580
X-2.46500 Y-3.91580
X-2.46500 Y-3.91680
X-2.46600 Y-3.91680
X-2.46600 Y-3.91780
X-2.46700 Y-3.91780
X-2.46700 Y-3.91880
X-2.46800 Y-3.91880
X-2.46800 Y-3.91980
X-2.46900 Y-3.91980
X-2.46900 Y-3.92080
X-2.47000 Y-3.92080
X-2.47000 Y-3.92180
X-2.47100 Y-3.92180
X-2.47100 Y-3.92280
X-2.47200 Y-3.92280
X-2.47200 Y-3.92380
X-2.47300 Y-3.92380
X-2.47300 Y-3.92480
X-2.47400 Y-3.92480
X-2.47400 Y-3.92580
X-2.47500 Y-3.92580
X-2.47500 Y-3.92680
X-2.47600 Y-3.92680
X-2.47600 Y-3.92780
X-2.47700 Y-3.92780
X-2.47700 Y-3.92880
X-2.47800 Y-3.92880
X-2.47800 Y-3.92980
X-2.47900 Y-3.92980
X-2.47900 Y-3.93080
X-2.48000 Y-3.93080
X-2.48000 Y-3.93180
X-2.48100 Y-3.93180
X-2.48100 Y-3.93280
X-2.48200 Y-3.93280
X-2.48200 Y-3.93380
X-2.48300 Y-3.93380
X-2.48300 Y-3.93480
X-2.48400 Y-3.93480
X-2.48400 Y-3.93580
X-2.48500 Y-3.93580
X-2.48500 Y-3.93680
X-2.48600 Y-3.93680
X-2.48600 Y-3.93780
X-2.48700 Y-3.93780
X-2.48700 Y-3.93880
X-2.48800 Y-3.93880
X-2.48800 Y-3.93980
X-2.48900 Y-3.93980
X-2.48900 Y-3.94080
X-2.49000 Y-3.94080
X-2.49000 Y-3.94180
X-2.49100 Y-3.94180
X-2.49100 Y-3.94280
X-2.49200 Y-3.94280
X-2.49200 Y-3.94380
X-2.49300 Y-3.94380
X-2.49300 Y-3.94480
X-2.49400 Y-3.94480
X-2.49400 Y-3.94580
X-2.49500 Y-3.94580
X-2.49500 Y-3.94680
X-2.49600 Y-3.94680
X-2.49600 Y-3.94780
X-2.49700 Y-3.94780
X-2.49700 Y-3.94880
X-2.49800 Y-3.94880
X-2.49800 Y-3.94980
X-2.49900 Y-3.94980
X-2.49900 Y-3.95080
X-2.50000 Y-3.95080
X-2.50000 Y-3.95180
X-2.50100 Y-3.95180
X-2.50100 Y-3.95280
X-2.50200 Y-3.95280
X-2.50200 Y-3.95380
X-2.50300 Y-3.95380
X-2.50300 Y-3.95480
X-2.50400 Y-3.95480
X-2.50400 Y-3.95580
X-2.50500 Y-3.95580
X-2.50500 Y-3.95680
X-2.50600 Y-3.95680
X-2.50600 Y-3.95780
X-2.50700 Y-3.95780
X-2.50700 Y-3.95880
X-2.50800 Y-3.95880
X-2.50800 Y-3.95980
X-2.50900 Y-3.95980
X-2.50900 Y-3.96080
X-2.51000 Y-3.96080
X-2.51000 Y-3.96180
X-2.51100 Y-3.96180
X-2.51100 Y-3.96280
X-2.51200 Y-3.96280
X-2.51200 Y-3.96380
X-2.51300 Y-3.96380
X-2.51300 Y-3.96480
X-2.51400 Y-3.96480
X-2.51400 Y-3.96580
X-2.51500 Y-3.96580
X-2.51500 Y-3.96680
X-2.51600 Y-3.96680
X-2.51600 Y-3.96780
X-2.51700 Y-3.96780
X-2.51700 Y-3.96880
X-2.51800 Y-3.96880
X-2.51800 Y-3.96980
X-2.51900 Y-3.96980
X-2.51900 Y-3.97080
X-2.52000 Y-3.97080
X-2.52000 Y-3.97180
X-2.52100 Y-3.97180
X-2.52100 Y-3.97280
X-2.52200 Y-3.97280
X-2.52200 Y-3.97380
X-2.52300 Y-3.97380
X-2.52300 Y-3.97480
X-2.52400 Y-3.97480
X-2.52400 Y-3.97580
X-2.52500 Y-3.97580
X-2.52500 Y-3.97680
X-2.52600 Y-3.97680
X-2.52600 Y-3.97780
X-2.52700 Y-3.97780
X-2.52700 Y-3.97880
X-2.52800 Y-3.97880
X-2.52800 Y-3.97980
X-2.52900 Y-3.97980
X-2.52900 Y-3.98080
X-2.53000 Y-3.98080
X-2.53000 Y-3.98180
X-2.53100 Y-3.98180
X-2.53100 Y-3.98280
X-2.53200 Y-3.98280
X-2.53200 Y-3.98380
X-2.53300 Y-3.98380
X-2.53300 Y-3.98480
X-2.53400 Y-3.98480
X-2.53400 Y-3.98580
X-2.53500 Y-3.98580
X-2.53500 Y-3.98680
X-2.53600 Y-3.98680
X-2.53600 Y-3.98780
X-2.53700 Y-3.98780
X-2.53700 Y-3.98880
X-2.53800 Y-3.98880
X-2.53800 Y-3.98980
X-2.53900 Y-3.98980
X-2.53900 Y-3.99080
X-2.54000 Y-3.99080
X-2.54000 Y-3.99180
X-2.54100 Y-3.99180
X-2.54100 Y-3.99280
X-2.54200 Y-3.99280
X-2.54200 Y-3.99380
X-2.54300 Y-3.99380
X-2.54300 Y-3.99480
X-2.54400 Y-3.99480
X-2.54400 Y-3.99580
X-2.54500 Y-3.99580
X-2.54500 Y-3.99680
X-2.54600 Y-3.99680
X-2.54600 Y-3.99780
X-2.54700 Y-3.99780
X-2.54700 Y-3.99880
X-2.54800 Y-3.99880
X-2.54800 Y-3.99980
X-2.54900 Y-3.99980
X-2.54900 Y-4.00080
X-2.55000 Y-4.00080
X-2.55000 Y-4.00180
X-2.55100 Y-4.00180
X-2.55100 Y-4.00280
X-2.55200 Y-4.00280
X-2.55200 Y-4.00380
X-2.55300 Y-4.00380
X-2.55300 Y-4.00480
X-2.55400 Y-4.00480
X-2.55400 Y-4.00580
X-2.55500 Y-4.00580
X-2.55500 Y-4.00680
X-2.55600 Y-4.00680
X-2.55600 Y-4.00780
X-2.55700 Y-4.00780
X-2.55700 Y-4.00880
X-2.55800 Y-4.00880
X-2.55800 Y-4.00980
X-2.55900 Y-4.00980
X-2.55900 Y-4.01080
X-2.56000 Y-4.01080
X-2.56000 Y-4.01180
X-2.56100 Y-4.01180
X-2.56100 Y-4.01180
X-2.56300 Y-4.01180
X-2.56300 Y-4.01080
X-2.56500 Y-4.01080
X-2.56500 Y-4.00980
X-2.56900 Y-4.00980
X-2.56900 Y-4.00880
X-2.57500 Y-4.00880
X-2.57500 Y-4.00780
X-2.57800 Y-4.00780
X-2.57800 Y-4.00880
X-2.58400 Y-4.00880
X-2.58400 Y-4.00980
X-2.58800 Y-4.00980
X-2.58800 Y-4.01080
X-2.58900 Y-4.01080
X-2.58900 Y-4.01180
X-2.59100 Y-4.01180
X-2.59100 Y-4.01280
X-2.59300 Y-4.01280
X-2.59300 Y-4.01380
X-2.59400 Y-4.01380
X-2.59400 Y-4.01480
X-2.59600 Y-4.01480
X-2.59600 Y-4.01580
X-2.59700 Y-4.01580
X-2.59700 Y-4.01780
X-2.59800 Y-4.01780
X-2.59800 Y-4.01880
X-2.59900 Y-4.01880
X-2.59900 Y-4.02080
X-2.60000 Y-4.02080
X-2.60000 Y-4.02180
X-2.60100 Y-4.02180
X-2.60100 Y-4.02280
X-2.60200 Y-4.02280
X-2.60200 Y-4.02680
X-2.60300 Y-4.02680
X-2.60300 Y-4.02780
X-2.60400 Y-4.02780
X-2.60400 Y-4.02880
X-2.60500 Y-4.02880
X-2.60500 Y-4.02980
X-2.60700 Y-4.02980
X-2.60700 Y-4.03080
X-2.60900 Y-4.03080
X-2.60900 Y-4.03180
X-2.61100 Y-4.03180
X-2.61100 Y-4.03280
X-2.61200 Y-4.03280
X-2.61200 Y-4.03380
X-2.61400 Y-4.03380
X-2.61400 Y-4.03480
X-2.61600 Y-4.03480
X-2.61600 Y-4.03580
X-2.61800 Y-4.03580
X-2.61800 Y-4.03680
X-2.61900 Y-4.03680
X-2.61900 Y-4.03780
X-2.62100 Y-4.03780
X-2.62100 Y-4.03880
X-2.62300 Y-4.03880
X-2.62300 Y-4.03980
X-2.62500 Y-4.03980
X-2.62500 Y-4.04080
X-2.62600 Y-4.04080
X-2.62600 Y-4.04180
X-2.62800 Y-4.04180
X-2.62800 Y-4.04280
X-2.63000 Y-4.04280
X-2.63000 Y-4.04380
X-2.63200 Y-4.04380
X-2.63200 Y-4.04480
X-2.63300 Y-4.04480
X-2.63300 Y-4.04580
X-2.63500 Y-4.04580
X-2.63500 Y-4.04680
X-2.63700 Y-4.04680
X-2.63700 Y-4.04780
X-2.63900 Y-4.04780
X-2.63900 Y-4.04880
X-2.64000 Y-4.04880
X-2.64000 Y-4.04980
X-2.64200 Y-4.04980
X-2.64200 Y-4.05080
X-2.64400 Y-4.05080
X-2.64400 Y-4.05180
X-2.64500 Y-4.05180
X-2.64500 Y-4.05280
X-2.64700 Y-4.05280
X-2.64700 Y-4.05380
X-2.64900 Y-4.05380
X-2.64900 Y-4.05480
X-2.65100 Y-4.05480
X-2.65100 Y-4.05580
X-2.65200 Y-4.05580
X-2.65200 Y-4.05680
X-2.65400 Y-4.05680
X-2.65400 Y-4.05780
X-2.65600 Y-4.05780
X-2.65600 Y-4.05880
X-2.65800 Y-4.05880
X-2.65800 Y-4.05980
X-2.65900 Y-4.05980
X-2.65900 Y-4.06080
X-2.66100 Y-4.06080
X-2.66100 Y-4.06180
X-2.66300 Y-4.06180
X-2.66300 Y-4.06280
X-2.66500 Y-4.06280
X-2.66500 Y-4.06380
X-2.66600 Y-4.06380
X-2.66600 Y-4.06480
X-2.66800 Y-4.06480
X-2.66800 Y-4.06580
X-2.67000 Y-4.06580
X-2.67000 Y-4.06680
X-2.67200 Y-4.06680
X-2.67200 Y-4.06780
X-2.67300 Y-4.06780
X-2.67300 Y-4.06880
X-2.67500 Y-4.06880
X-2.67500 Y-4.06980
X-2.67700 Y-4.06980
X-2.67700 Y-4.07080
X-2.67900 Y-4.07080
X-2.67900 Y-4.07180
X-2.68000 Y-4.07180
X-2.68000 Y-4.07280
X-2.68200 Y-4.07280
X-2.68200 Y-4.07380
X-2.68400 Y-4.07380
X-2.68400 Y-4.07480
X-2.68600 Y-4.07480
X-2.68600 Y-4.07580
X-2.68700 Y-4.07580
X-2.68700 Y-4.07680
X-2.68900 Y-4.07680
X-2.68900 Y-4.07780
X-2.69100 Y-4.07780
X-2.69100 Y-4.07880
X-2.69300 Y-4.07880
X-2.69300 Y-4.07980
X-2.69400 Y-4.07980
X-2.69400 Y-4.08080
X-2.69600 Y-4.08080
X-2.69600 Y-4.08180
X-2.69800 Y-4.08180
X-2.69800 Y-4.08280
X-2.70000 Y-4.08280
X-2.70000 Y-4.08380
X-2.70100 Y-4.08380
X-2.70100 Y-4.08480
X-2.70300 Y-4.08480
X-2.70300 Y-4.08580
X-2.70500 Y-4.08580
X-2.70500 Y-4.08680
X-2.70700 Y-4.08680
X-2.70700 Y-4.08780
X-2.70800 Y-4.08780
X-2.70800 Y-4.08880
X-2.71000 Y-4.08880
X-2.71000 Y-4.08980
X-2.71200 Y-4.08980
X-2.71200 Y-4.09080
X-2.71400 Y-4.09080
X-2.71400 Y-4.09180
X-2.71500 Y-4.09180
X-2.71500 Y-4.09280
X-2.71700 Y-4.09280
X-2.71700 Y-4.09380
X-2.71900 Y-4.09380
X-2.71900 Y-4.09480
X-2.72100 Y-4.09480
X-2.72100 Y-4.09580
X-2.72200 Y-4.09580
X-2.72200 Y-4.09680
X-2.72400 Y-4.09680
X-2.72400 Y-4.09780
X-2.72600 Y-4.09780
X-2.72600 Y-4.09880
X-2.72800 Y-4.09880
X-2.72800 Y-4.09980
X-2.72900 Y-4.09980
X-2.72900 Y-4.10080
X-2.73100 Y-4.10080
X-2.73100 Y-4.10180
X-2.73300 Y-4.10180
X-2.73300 Y-4.10280
X-2.73500 Y-4.10280
X-2.73500 Y-4.10380
X-2.73600 Y-4.10380
X-2.73600 Y-4.10480
X-2.73800 Y-4.10480
X-2.73800 Y-4.10580
X-2.74000 Y-4.10580
X-2.74000 Y-4.10680
X-2.74200 Y-4.10680
X-2.74200 Y-4.10780
X-2.74300 Y-4.10780
X-2.74300 Y-4.10880
X-2.74500 Y-4.10880
X-2.74500 Y-4.10980
X-2.74700 Y-4.10980
X-2.74700 Y-4.11080
X-2.74900 Y-4.11080
X-2.74900 Y-4.11180
X-2.75000 Y-4.11180
X-2.75000 Y-4.11280
X-2.75200 Y-4.11280
X-2.75200 Y-4.11380
X-2.75400 Y-4.11380
X-2.75400 Y-4.11480
X-2.75600 Y-4.11480
X-2.75600 Y-4.11580
X-2.75700 Y-4.11580
X-2.75700 Y-4.11680
X-2.75900 Y-4.11680
X-2.75900 Y-4.11780
X-2.76100 Y-4.11780
X-2.76100 Y-4.11880
X-2.76300 Y-4.11880
X-2.76300 Y-4.11980
X-2.76400 Y-4.11980
X-2.76400 Y-4.12080
X-2.76600 Y-4.12080
X-2.76600 Y-4.12180
X-2.76800 Y-4.12180
X-2.76800 Y-4.12280
X-2.77000 Y-4.12280
X-2.77000 Y-4.12380
X-2.77100 Y-4.12380
X-2.77100 Y-4.12480
X-2.77300 Y-4.12480
X-2.77300 Y-4.12580
X-2.77500 Y-4.12580
X-2.77500 Y-4.12680
X-2.77600 Y-4.12680
X-2.77600 Y-4.12780
X-2.77700 Y-4.12780
X-2.77700 Y-4.12880
X-2.77900 Y-4.12880
X-2.77900 Y-4.12980
X-2.78000 Y-4.12980
X-2.78000 Y-4.13080
X-2.78100 Y-4.13080
X-2.78100 Y-4.13180
X-2.78200 Y-4.13180
X-2.78200 Y-4.13280
X-2.78300 Y-4.13280
X-2.78300 Y-4.13380
X-2.78400 Y-4.13380
X-2.78400 Y-4.13480
X-2.78500 Y-4.13480
X-2.78500 Y-4.13580
X-2.78600 Y-4.13580
X-2.78600 Y-4.13680
X-2.78700 Y-4.13680
X-2.78700 Y-4.13780
X-2.78800 Y-4.13780
X-2.78800 Y-4.13880
X-2.78900 Y-4.13880
X-2.78900 Y-4.13980
X-2.79000 Y-4.13980
X-2.79000 Y-4.14080
X-2.79200 Y-4.14080
X-2.79200 Y-4.14180
X-2.79300 Y-4.14180
X-2.79300 Y-4.14280
X-2.79400 Y-4.14280
X-2.79400 Y-4.14380
X-2.79500 Y-4.14380
X-2.79500 Y-4.14480
X-2.79600 Y-4.14480
X-2.79600 Y-4.14580
X-2.79700 Y-4.14580
X-2.79700 Y-4.14680
X-2.79800 Y-4.14680
X-2.79800 Y-4.14780
X-2.79900 Y-4.14780
X-2.79900 Y-4.14880
X-2.80000 Y-4.14880
X-2.80000 Y-4.14980
X-2.80100 Y-4.14980
X-2.80100 Y-4.15080
X-2.80200 Y-4.15080
X-2.80200 Y-4.15180
X-2.80300 Y-4.15180
X-2.80300 Y-4.15280
X-2.80400 Y-4.15280
X-2.80400 Y-4.15380
X-2.80500 Y-4.15380
X-2.80500 Y-4.15480
X-2.80600 Y-4.15480
X-2.80600 Y-4.15580
X-2.80700 Y-4.15580
X-2.80700 Y-4.15680
X-2.80800 Y-4.15680
X-2.80800 Y-4.15780
X-2.80900 Y-4.15780
X-2.80900 Y-4.15880
X-2.81000 Y-4.15880
X-2.81000 Y-4.15980
X-2.81100 Y-4.15980
X-2.81100 Y-4.16080
X-2.81200 Y-4.16080
X-2.81200 Y-4.16180
X-2.81300 Y-4.16180
X-2.81300 Y-4.16280
X-2.81400 Y-4.16280
X-2.81400 Y-4.16380
X-2.81500 Y-4.16380
X-2.81500 Y-4.16480
X-2.81600 Y-4.16480
X-2.81600 Y-4.16580
X-2.81700 Y-4.16580
X-2.81700 Y-4.16680
X-2.81800 Y-4.16680
X-2.81800 Y-4.16780
X-2.81900 Y-4.16780
X-2.81900 Y-4.16880
X-2.82000 Y-4.16880
X-2.82000 Y-4.16980
X-2.82100 Y-4.16980
X-2.82100 Y-4.17080
X-2.82200 Y-4.17080
X-2.82200 Y-4.17180
X-2.82400 Y-4.17180
X-2.82400 Y-4.17280
X-2.82500 Y-4.17280
X-2.82500 Y-4.17380
X-2.82600 Y-4.17380
X-2.82600 Y-4.17480
X-2.82700 Y-4.17480
X-2.82700 Y-4.17580
X-2.82800 Y-4.17580
X-2.82800 Y-4.17680
X-2.82900 Y-4.17680
X-2.82900 Y-4.17780
X-2.83000 Y-4.17780
X-2.83000 Y-4.17880
X-2.83100 Y-4.17880
X-2.83100 Y-4.17980
X-2.83200 Y-4.17980
X-2.83200 Y-4.18080
X-2.83300 Y-4.18080
X-2.83300 Y-4.18180
X-2.83400 Y-4.18180
X-2.83400 Y-4.18280
X-2.83500 Y-4.18280
X-2.83500 Y-4.18380
X-2.83600 Y-4.18380
X-2.83600 Y-4.18380
X-2.83700 Y-4.18380
X-2.83700 Y-4.18280
X-2.83900 Y-4.18280
X-2.83900 Y-4.18180
X-2.84000 Y-4.18180
X-2.84000 Y-4.18080
X-2.84200 Y-4.18080
X-2.84200 Y-4.17980
X-2.84400 Y-4.17980
X-2.84400 Y-4.17880
X-2.84500 Y-4.17880
X-2.84500 Y-4.17780
X-2.85100 Y-4.17780
X-2.85100 Y-4.17680
X-2.86300 Y-4.17680
X-2.86300 Y-4.17780
X-2.86800 Y-4.17780
X-2.86800 Y-4.17880
X-2.87000 Y-4.17880
X-2.87000 Y-4.17980
X-2.87200 Y-4.17980
X-2.87200 Y-4.18080
X-2.87400 Y-4.18080
X-2.87400 Y-4.18180
X-2.87500 Y-4.18180
X-2.87500 Y-4.18280
X-2.87700 Y-4.18280
X-2.87700 Y-4.18380
X-2.87800 Y-4.18380
X-2.87800 Y-4.18480
X-2.87900 Y-4.18480
X-2.87900 Y-4.18580
X-2.88000 Y-4.18580
X-2.88000 Y-4.18780
X-2.88100 Y-4.18780
X-2.88100 Y-4.18880
X-2.88200 Y-4.18880
X-2.88200 Y-4.19080
X-2.88300 Y-4.19080
X-2.88300 Y-4.19180
X-2.88400 Y-4.19180
X-2.88400 Y-4.19380
X-2.88500 Y-4.19380
X-2.88500 Y-4.19880
X-2.88600 Y-4.19880
X-2.88600 Y-4.20380
X-2.88700 Y-4.20380
X-2.88700 Y-4.20880
X-2.88600 Y-4.20880
X-2.88600 Y-4.21380
X-2.88500 Y-4.21380
X-2.88500 Y-4.21880
X-2.88400 Y-4.21880
X-2.88400 Y-4.22080
X-2.88300 Y-4.22080
X-2.88300 Y-4.22280
X-2.88200 Y-4.22280
X-2.88200 Y-4.22380
X-2.88100 Y-4.22380
X-2.88100 Y-4.22480
X-2.88000 Y-4.22480
X-2.88000 Y-4.22680
X-2.87900 Y-4.22680
X-2.87900 Y-4.22780
X-2.87800 Y-4.22780
X-2.87800 Y-4.22880
X-2.87700 Y-4.22880
X-2.87700 Y-4.22980
X-2.87600 Y-4.22980
X-2.87600 Y-4.23080
X-2.87400 Y-4.23080
X-2.87400 Y-4.23180
X-2.87200 Y-4.23180
X-2.87200 Y-4.23280
X-2.87000 Y-4.23280
X-2.87000 Y-4.23380
X-2.86900 Y-4.23380
X-2.86900 Y-4.23480
X-2.86400 Y-4.23480
X-2.86400 Y-4.23580
X-2.85800 Y-4.23580
X-2.85800 Y-4.23680
X-2.85600 Y-4.23680
X-2.85600 Y-4.23580
X-2.85000 Y-4.23580
X-2.85000 Y-4.23480
X-2.84500 Y-4.23480
X-2.84500 Y-4.23380
X-2.84300 Y-4.23380
X-2.84300 Y-4.23280
X-2.84200 Y-4.23280
X-2.84200 Y-4.23180
X-2.84000 Y-4.23180
X-2.84000 Y-4.23080
X-2.83800 Y-4.23080
X-2.83800 Y-4.22980
X-2.83700 Y-4.22980
X-2.83700 Y-4.22880
X-2.83600 Y-4.22880
X-2.83600 Y-4.22780
X-2.83500 Y-4.22780
X-2.83500 Y-4.22680
X-2.82700 Y-4.22680
X-2.82700 Y-4.22580
X-2.82200 Y-4.22580
X-2.82200 Y-4.22480
X-2.82100 Y-4.22480
X-2.82100 Y-4.22380
X-2.81900 Y-4.22380
X-2.81900 Y-4.22280
X-2.81700 Y-4.22280
X-2.81700 Y-4.22180
X-2.81600 Y-4.22180
X-2.81600 Y-4.22080
X-2.81400 Y-4.22080
X-2.81400 Y-4.21980
X-2.81300 Y-4.21980
X-2.81300 Y-4.21880
X-2.81200 Y-4.21880
X-2.81200 Y-4.21780
X-2.81100 Y-4.21780
X-2.81100 Y-4.21680
X-2.81000 Y-4.21680
X-2.81000 Y-4.21580
X-2.80900 Y-4.21580
X-2.80900 Y-4.21480
X-2.80800 Y-4.21480
X-2.80800 Y-4.21380
X-2.80700 Y-4.21380
X-2.80700 Y-4.21280
X-2.80600 Y-4.21280
X-2.80600 Y-4.21180
X-2.80500 Y-4.21180
X-2.80500 Y-4.21080
X-2.80400 Y-4.21080
X-2.80400 Y-4.20980
X-2.80300 Y-4.20980
X-2.80300 Y-4.20880
X-2.80200 Y-4.20880
X-2.80200 Y-4.20780
X-2.80100 Y-4.20780
X-2.80100 Y-4.20680
X-2.80000 Y-4.20680
X-2.80000 Y-4.20580
X-2.79900 Y-4.20580
X-2.79900 Y-4.20480
X-2.79800 Y-4.20480
X-2.79800 Y-4.20380
X-2.79700 Y-4.20380
X-2.79700 Y-4.20280
X-2.79600 Y-4.20280
X-2.79600 Y-4.20180
X-2.79500 Y-4.20180
X-2.79500 Y-4.20080
X-2.79400 Y-4.20080
X-2.79400 Y-4.19980
X-2.79300 Y-4.19980
X-2.79300 Y-4.19880
X-2.79200 Y-4.19880
X-2.79200 Y-4.19780
X-2.79100 Y-4.19780
X-2.79100 Y-4.19680
X-2.79000 Y-4.19680
X-2.79000 Y-4.19580
X-2.78900 Y-4.19580
X-2.78900 Y-4.19480
X-2.78800 Y-4.19480
X-2.78800 Y-4.19380
X-2.78700 Y-4.19380
X-2.78700 Y-4.19280
X-2.78600 Y-4.19280
X-2.78600 Y-4.19180
X-2.78500 Y-4.19180
X-2.78500 Y-4.19080
X-2.78300 Y-4.19080
X-2.78300 Y-4.18980
X-2.78200 Y-4.18980
X-2.78200 Y-4.18880
X-2.78100 Y-4.18880
X-2.78100 Y-4.18780
X-2.78000 Y-4.18780
X-2.78000 Y-4.18680
X-2.77900 Y-4.18680
X-2.77900 Y-4.18580
X-2.77800 Y-4.18580
X-2.77800 Y-4.18480
X-2.77700 Y-4.18480
X-2.77700 Y-4.18380
X-2.77600 Y-4.18380
X-2.77600 Y-4.18280
X-2.77500 Y-4.18280
X-2.77500 Y-4.18180
X-2.77400 Y-4.18180
X-2.77400 Y-4.18080
X-2.77300 Y-4.18080
X-2.77300 Y-4.17980
X-2.77200 Y-4.17980
X-2.77200 Y-4.17880
X-2.77100 Y-4.17880
X-2.77100 Y-4.17780
X-2.77000 Y-4.17780
X-2.77000 Y-4.17680
X-2.76900 Y-4.17680
X-2.76900 Y-4.17580
X-2.76800 Y-4.17580
X-2.76800 Y-4.17480
X-2.76700 Y-4.17480
X-2.76700 Y-4.17380
X-2.76600 Y-4.17380
X-2.76600 Y-4.17280
X-2.76500 Y-4.17280
X-2.76500 Y-4.17180
X-2.76400 Y-4.17180
X-2.76400 Y-4.17080
X-2.76300 Y-4.17080
X-2.76300 Y-4.16980
X-2.76200 Y-4.16980
X-2.76200 Y-4.16880
X-2.76100 Y-4.16880
X-2.76100 Y-4.16780
X-2.76000 Y-4.16780
X-2.76000 Y-4.16680
X-2.75900 Y-4.16680
X-2.75900 Y-4.16580
X-2.75800 Y-4.16580
X-2.75800 Y-4.16480
X-2.75700 Y-4.16480
X-2.75700 Y-4.16380
X-2.75600 Y-4.16380
X-2.75600 Y-4.16280
X-2.75500 Y-4.16280
X-2.75500 Y-4.16180
X-2.75400 Y-4.16180
X-2.75400 Y-4.16080
X-2.75200 Y-4.16080
X-2.75200 Y-4.15980
X-2.75000 Y-4.15980
X-2.75000 Y-4.15880
X-2.74900 Y-4.15880
X-2.74900 Y-4.15780
X-2.74700 Y-4.15780
X-2.74700 Y-4.15680
X-2.74500 Y-4.15680
X-2.74500 Y-4.15580
X-2.74300 Y-4.15580
X-2.74300 Y-4.15480
X-2.74200 Y-4.15480
X-2.74200 Y-4.15380
X-2.74000 Y-4.15380
X-2.74000 Y-4.15280
X-2.73800 Y-4.15280
X-2.73800 Y-4.15180
X-2.73600 Y-4.15180
X-2.73600 Y-4.15080
X-2.73500 Y-4.15080
X-2.73500 Y-4.14980
X-2.73300 Y-4.14980
X-2.73300 Y-4.14880
X-2.73100 Y-4.14880
X-2.73100 Y-4.14780
X-2.72900 Y-4.14780
X-2.72900 Y-4.14680
X-2.72800 Y-4.14680
X-2.72800 Y-4.14580
X-2.72600 Y-4.14580
X-2.72600 Y-4.14480
X-2.72400 Y-4.14480
X-2.72400 Y-4.14380
X-2.72200 Y-4.14380
X-2.72200 Y-4.14280
X-2.72100 Y-4.14280
X-2.72100 Y-4.14180
X-2.71900 Y-4.14180
X-2.71900 Y-4.14080
X-2.71700 Y-4.14080
X-2.71700 Y-4.13980
X-2.71500 Y-4.13980
X-2.71500 Y-4.13880
X-2.71400 Y-4.13880
X-2.71400 Y-4.13780
X-2.71200 Y-4.13780
X-2.71200 Y-4.13680
X-2.71000 Y-4.13680
X-2.71000 Y-4.13580
X-2.70800 Y-4.13580
X-2.70800 Y-4.13480
X-2.70700 Y-4.13480
X-2.70700 Y-4.13380
X-2.70500 Y-4.13380
X-2.70500 Y-4.13280
X-2.70300 Y-4.13280
X-2.70300 Y-4.13180
X-2.70200 Y-4.13180
X-2.70200 Y-4.13080
X-2.70000 Y-4.13080
X-2.70000 Y-4.12980
X-2.69800 Y-4.12980
X-2.69800 Y-4.12880
X-2.69600 Y-4.12880
X-2.69600 Y-4.12780
X-2.69500 Y-4.12780
X-2.69500 Y-4.12680
X-2.69300 Y-4.12680
X-2.69300 Y-4.12580
X-2.69100 Y-4.12580
X-2.69100 Y-4.12480
X-2.68900 Y-4.12480
X-2.68900 Y-4.12380
X-2.68800 Y-4.12380
X-2.68800 Y-4.12280
X-2.68600 Y-4.12280
X-2.68600 Y-4.12180
X-2.68400 Y-4.12180
X-2.68400 Y-4.12080
X-2.68200 Y-4.12080
X-2.68200 Y-4.11980
X-2.68100 Y-4.11980
X-2.68100 Y-4.11880
X-2.67900 Y-4.11880
X-2.67900 Y-4.11780
X-2.67700 Y-4.11780
X-2.67700 Y-4.11680
X-2.67500 Y-4.11680
X-2.67500 Y-4.11580
X-2.67400 Y-4.11580
X-2.67400 Y-4.11480
X-2.67200 Y-4.11480
X-2.67200 Y-4.11380
X-2.67000 Y-4.11380
X-2.67000 Y-4.11280
X-2.66800 Y-4.11280
X-2.66800 Y-4.11180
X-2.66700 Y-4.11180
X-2.66700 Y-4.11080
X-2.66500 Y-4.11080
X-2.66500 Y-4.10980
X-2.66300 Y-4.10980
X-2.66300 Y-4.10880
X-2.66100 Y-4.10880
X-2.66100 Y-4.10780
X-2.66000 Y-4.10780
X-2.66000 Y-4.10680
X-2.65800 Y-4.10680
X-2.65800 Y-4.10580
X-2.65600 Y-4.10580
X-2.65600 Y-4.10480
X-2.65400 Y-4.10480
X-2.65400 Y-4.10380
X-2.65300 Y-4.10380
X-2.65300 Y-4.10280
X-2.65100 Y-4.10280
X-2.65100 Y-4.10180
X-2.64900 Y-4.10180
X-2.64900 Y-4.10080
X-2.64700 Y-4.10080
X-2.64700 Y-4.09980
X-2.64600 Y-4.09980
X-2.64600 Y-4.09880
X-2.64400 Y-4.09880
X-2.64400 Y-4.09780
X-2.64200 Y-4.09780
X-2.64200 Y-4.09680
X-2.64000 Y-4.09680
X-2.64000 Y-4.09580
X-2.63900 Y-4.09580
X-2.63900 Y-4.09480
X-2.63700 Y-4.09480
X-2.63700 Y-4.09380
X-2.63500 Y-4.09380
X-2.63500 Y-4.09280
X-2.63300 Y-4.09280
X-2.63300 Y-4.09180
X-2.63200 Y-4.09180
X-2.63200 Y-4.09080
X-2.63000 Y-4.09080
X-2.63000 Y-4.08980
X-2.62800 Y-4.08980
X-2.62800 Y-4.08880
X-2.62600 Y-4.08880
X-2.62600 Y-4.08780
X-2.62500 Y-4.08780
X-2.62500 Y-4.08680
X-2.62300 Y-4.08680
X-2.62300 Y-4.08580
X-2.62100 Y-4.08580
X-2.62100 Y-4.08480
X-2.61900 Y-4.08480
X-2.61900 Y-4.08380
X-2.61800 Y-4.08380
X-2.61800 Y-4.08280
X-2.61600 Y-4.08280
X-2.61600 Y-4.08180
X-2.61400 Y-4.08180
X-2.61400 Y-4.08080
X-2.61200 Y-4.08080
X-2.61200 Y-4.07980
X-2.61100 Y-4.07980
X-2.61100 Y-4.07880
X-2.60900 Y-4.07880
X-2.60900 Y-4.07780
X-2.60700 Y-4.07780
X-2.60700 Y-4.07680
X-2.60500 Y-4.07680
X-2.60500 Y-4.07580
X-2.60400 Y-4.07580
X-2.60400 Y-4.07480
X-2.60200 Y-4.07480
X-2.60200 Y-4.07380
X-2.60000 Y-4.07380
X-2.60000 Y-4.07280
X-2.59800 Y-4.07280
X-2.59800 Y-4.07180
X-2.59700 Y-4.07180
X-2.59700 Y-4.07080
X-2.59500 Y-4.07080
X-2.59500 Y-4.06980
X-2.59300 Y-4.06980
X-2.59300 Y-4.06880
X-2.59100 Y-4.06880
X-2.59100 Y-4.06780
X-2.59000 Y-4.06780
X-2.59000 Y-4.06680
X-2.58800 Y-4.06680
X-2.58800 Y-4.06580
X-2.58600 Y-4.06580
X-2.58600 Y-4.06480
X-2.58400 Y-4.06480
X-2.58400 Y-4.06380
X-2.58300 Y-4.06380
X-2.58300 Y-4.06280
X-2.58100 Y-4.06280
X-2.58100 Y-4.06380
X-2.57100 Y-4.06380
X-2.57100 Y-4.06280
X-2.56500 Y-4.06280
X-2.56500 Y-4.06180
X-2.56400 Y-4.06180
X-2.56400 Y-4.06080
X-2.56200 Y-4.06080
X-2.56200 Y-4.05980
X-2.56000 Y-4.05980
X-2.56000 Y-4.05880
X-2.55900 Y-4.05880
X-2.55900 Y-4.05780
X-2.55700 Y-4.05780
X-2.55700 Y-4.05680
X-2.55600 Y-4.05680
X-2.55600 Y-4.05580
X-2.54900 Y-4.05580
X-2.54900 Y-4.05480
X-2.54700 Y-4.05480
X-2.54700 Y-4.05380
X-2.54600 Y-4.05380
X-2.54600 Y-4.05280
X-2.54400 Y-4.05280
X-2.54400 Y-4.05180
X-2.54300 Y-4.05180
X-2.54300 Y-4.05080
X-2.54100 Y-4.05080
X-2.54100 Y-4.04980
X-2.54000 Y-4.04980
X-2.54000 Y-4.04880
X-2.53900 Y-4.04880
X-2.53900 Y-4.04780
X-2.53800 Y-4.04780
X-2.53800 Y-4.04680
X-2.53700 Y-4.04680
X-2.53700 Y-4.04580
X-2.53600 Y-4.04580
X-2.53600 Y-4.04480
X-2.53500 Y-4.04480
X-2.53500 Y-4.04380
X-2.53400 Y-4.04380
X-2.53400 Y-4.04280
X-2.53300 Y-4.04280
X-2.53300 Y-4.04180
X-2.53200 Y-4.04180
X-2.53200 Y-4.04080
X-2.53100 Y-4.04080
X-2.53100 Y-4.03980
X-2.53000 Y-4.03980
X-2.53000 Y-4.03880
X-2.52900 Y-4.03880
X-2.52900 Y-4.03780
X-2.52800 Y-4.03780
X-2.52800 Y-4.03680
X-2.52700 Y-4.03680
X-2.52700 Y-4.03580
X-2.52600 Y-4.03580
X-2.52600 Y-4.03480
X-2.52500 Y-4.03480
X-2.52500 Y-4.03380
X-2.52400 Y-4.03380
X-2.52400 Y-4.03280
X-2.52300 Y-4.03280
X-2.52300 Y-4.03180
X-2.52200 Y-4.03180
X-2.52200 Y-4.03080
X-2.52100 Y-4.03080
X-2.52100 Y-4.02980
X-2.52000 Y-4.02980
X-2.52000 Y-4.02880
X-2.51900 Y-4.02880
X-2.51900 Y-4.02780
X-2.51800 Y-4.02780
X-2.51800 Y-4.02680
X-2.51700 Y-4.02680
X-2.51700 Y-4.02580
X-2.51600 Y-4.02580
X-2.51600 Y-4.02480
X-2.51500 Y-4.02480
X-2.51500 Y-4.02380
X-2.51400 Y-4.02380
X-2.51400 Y-4.02280
X-2.51300 Y-4.02280
X-2.51300 Y-4.02180
X-2.51200 Y-4.02180
X-2.51200 Y-4.02080
X-2.51100 Y-4.02080
X-2.51100 Y-4.01980
X-2.51000 Y-4.01980
X-2.51000 Y-4.01880
X-2.50900 Y-4.01880
X-2.50900 Y-4.01780
X-2.50800 Y-4.01780
X-2.50800 Y-4.01680
X-2.50700 Y-4.01680
X-2.50700 Y-4.01580
X-2.50600 Y-4.01580
X-2.50600 Y-4.01480
X-2.50500 Y-4.01480
X-2.50500 Y-4.01380
X-2.50400 Y-4.01380
X-2.50400 Y-4.01280
X-2.50300 Y-4.01280
X-2.50300 Y-4.01180
X-2.50200 Y-4.01180
X-2.50200 Y-4.01080
X-2.50100 Y-4.01080
X-2.50100 Y-4.00980
X-2.50000 Y-4.00980
X-2.50000 Y-4.00880
X-2.49900 Y-4.00880
X-2.49900 Y-4.00780
X-2.49800 Y-4.00780
X-2.49800 Y-4.00680
X-2.49700 Y-4.00680
X-2.49700 Y-4.00580
X-2.49600 Y-4.00580
X-2.49600 Y-4.00480
X-2.49500 Y-4.00480
X-2.49500 Y-4.00380
X-2.49400 Y-4.00380
X-2.49400 Y-4.00280
X-2.49300 Y-4.00280
X-2.49300 Y-4.00180
X-2.49200 Y-4.00180
X-2.49200 Y-4.00080
X-2.49100 Y-4.00080
X-2.49100 Y-3.99980
X-2.49000 Y-3.99980
X-2.49000 Y-3.99880
X-2.48900 Y-3.99880
X-2.48900 Y-3.99780
X-2.48800 Y-3.99780
X-2.48800 Y-3.99680
X-2.48700 Y-3.99680
X-2.48700 Y-3.99580
X-2.48600 Y-3.99580
X-2.48600 Y-3.99480
X-2.48500 Y-3.99480
X-2.48500 Y-3.99380
X-2.48400 Y-3.99380
X-2.48400 Y-3.99280
X-2.48300 Y-3.99280
X-2.48300 Y-3.99180
X-2.48200 Y-3.99180
X-2.48200 Y-3.99080
X-2.48100 Y-3.99080
X-2.48100 Y-3.98980
X-2.48000 Y-3.98980
X-2.48000 Y-3.98880
X-2.47900 Y-3.98880
X-2.47900 Y-3.98780
X-2.47800 Y-3.98780
X-2.47800 Y-3.98680
X-2.47700 Y-3.98680
X-2.47700 Y-3.98580
X-2.47600 Y-3.98580
X-2.47600 Y-3.98480
X-2.47500 Y-3.98480
X-2.47500 Y-3.98380
X-2.47400 Y-3.98380
X-2.47400 Y-3.98280
X-2.47300 Y-3.98280
X-2.47300 Y-3.98180
X-2.47200 Y-3.98180
X-2.47200 Y-3.98080
X-2.47100 Y-3.98080
X-2.47100 Y-3.97980
X-2.47000 Y-3.97980
X-2.47000 Y-3.97880
X-2.46900 Y-3.97880
X-2.46900 Y-3.97780
X-2.46800 Y-3.97780
X-2.46800 Y-3.97680
X-2.46700 Y-3.97680
X-2.46700 Y-3.97580
X-2.46600 Y-3.97580
X-2.46600 Y-3.97480
X-2.46500 Y-3.97480
X-2.46500 Y-3.97380
X-2.46400 Y-3.97380
X-2.46400 Y-3.97280
X-2.46300 Y-3.97280
X-2.46300 Y-3.97180
X-2.46200 Y-3.97180
X-2.46200 Y-3.97080
X-2.46100 Y-3.97080
X-2.46100 Y-3.96980
X-2.46000 Y-3.96980
X-2.46000 Y-3.96880
X-2.45900 Y-3.96880
X-2.45900 Y-3.96780
X-2.45800 Y-3.96780
X-2.45800 Y-3.96680
X-2.45700 Y-3.96680
X-2.45700 Y-3.96580
X-2.45600 Y-3.96580
X-2.45600 Y-3.96480
X-2.45500 Y-3.96480
X-2.45500 Y-3.96380
X-2.45400 Y-3.96380
X-2.45400 Y-3.96280
X-2.45300 Y-3.96280
X-2.45300 Y-3.96180
X-2.45200 Y-3.96180
X-2.45200 Y-3.96080
X-2.45100 Y-3.96080
X-2.45100 Y-3.95980
X-2.45000 Y-3.95980
X-2.45000 Y-3.95880
X-2.44900 Y-3.95880
X-2.44900 Y-3.95780
X-2.44800 Y-3.95780
X-2.44800 Y-3.95680
X-2.44700 Y-3.95680
X-2.44700 Y-3.95580
X-2.44600 Y-3.95580
X-2.44600 Y-3.95480
X-2.44500 Y-3.95480
X-2.44500 Y-3.95380
X-2.44400 Y-3.95380
X-2.44400 Y-3.95280
X-2.44300 Y-3.95280
X-2.44300 Y-3.95180
X-2.44200 Y-3.95180
X-2.44200 Y-3.95080
X-2.44100 Y-3.95080
X-2.44100 Y-3.94980
X-2.44000 Y-3.94980
X-2.44000 Y-3.94880
X-2.43900 Y-3.94880
X-2.43900 Y-3.94780
X-2.43800 Y-3.94780
X-2.43800 Y-3.94680
X-2.43700 Y-3.94680
X-2.43700 Y-3.94580
X-2.43600 Y-3.94580
X-2.43600 Y-3.94480
X-2.43500 Y-3.94480
X-2.43500 Y-3.94380
X-2.43400 Y-3.94380
X-2.43400 Y-3.94280
X-2.43300 Y-3.94280
X-2.43300 Y-3.94180
X-2.43200 Y-3.94180
X-2.43200 Y-3.94080
X-2.43100 Y-3.94080
X-2.43100 Y-3.93980
X-2.43000 Y-3.93980
X-2.43000 Y-3.93880
X-2.42900 Y-3.93880
X-2.42900 Y-3.93780
X-2.42800 Y-3.93780
X-2.42800 Y-3.93680
X-2.42700 Y-3.93680
X-2.42700 Y-3.93580
X-2.42600 Y-3.93580
X-2.42600 Y-3.93480
X-2.42500 Y-3.93480
X-2.42500 Y-3.93380
X-2.42400 Y-3.93380
X-2.42400 Y-3.93280
X-2.42300 Y-3.93280
X-2.42300 Y-3.93180
X-2.42200 Y-3.93180
X-2.42200 Y-3.93080
X-2.42100 Y-3.93080
X-2.42100 Y-3.92980
X-2.42000 Y-3.92980
X-2.42000 Y-3.92880
X-2.41900 Y-3.92880
X-2.41900 Y-3.92780
X-2.41800 Y-3.92780
X-2.41800 Y-3.92680
X-2.41700 Y-3.92680
X-2.41700 Y-3.92580
X-2.41600 Y-3.92580
X-2.41600 Y-3.92480
X-2.41500 Y-3.92480
X-2.41500 Y-3.92380
X-2.41400 Y-3.92380
X-2.41400 Y-3.92280
X-2.41300 Y-3.92280
X-2.41300 Y-3.92180
X-2.41200 Y-3.92180
X-2.41200 Y-3.92080
X-2.41100 Y-3.92080
X-2.41100 Y-3.91980
X-2.41000 Y-3.91980
X-2.41000 Y-3.91880
X-2.40900 Y-3.91880
X-2.40900 Y-3.91780
X-2.40800 Y-3.91780
X-2.40800 Y-3.91680
X-2.40700 Y-3.91680
X-2.40700 Y-3.91580
X-2.40600 Y-3.91580
X-2.40600 Y-3.91480
X-2.40500 Y-3.91480
X-2.40500 Y-3.91380
X-2.40400 Y-3.91380
X-2.40400 Y-3.91280
X-2.40300 Y-3.91280
X-2.40300 Y-3.91180
X-2.40200 Y-3.91180
X-2.40200 Y-3.91080
X-2.40100 Y-3.91080
X-2.40100 Y-3.90980
X-2.40000 Y-3.90980
X-2.40000 Y-3.90880
X-2.39900 Y-3.90880
X-2.39900 Y-3.90780
X-2.39800 Y-3.90780
X-2.39800 Y-3.90680
X-2.39700 Y-3.90680
X-2.39700 Y-3.90580
X-2.39600 Y-3.90580
X-2.39600 Y-3.90480
X-2.39500 Y-3.90480
X-2.39500 Y-3.90380
X-2.39400 Y-3.90380
X-2.39400 Y-3.90280
X-2.39300 Y-3.90280
X-2.39300 Y-3.90180
X-2.39200 Y-3.90180
X-2.39200 Y-3.90080
X-2.39100 Y-3.90080
X-2.39100 Y-3.89980
X-2.39000 Y-3.89980
X-2.39000 Y-3.89880
X-2.38900 Y-3.89880
X-2.38900 Y-3.89780
X-2.38800 Y-3.89780
X-2.38800 Y-3.89680
X-2.38700 Y-3.89680
X-2.38700 Y-3.89580
X-2.38600 Y-3.89580
X-2.38600 Y-3.89480
X-2.38500 Y-3.89480
X-2.38500 Y-3.89380
X-2.38400 Y-3.89380
X-2.38400 Y-3.89280
X-2.38300 Y-3.89280
X-2.38300 Y-3.89180
X-2.38200 Y-3.89180
X-2.38200 Y-3.89080
X-2.38100 Y-3.89080
X-2.38100 Y-3.88980
X-2.38000 Y-3.88980
X-2.38000 Y-3.88880
X-2.37900 Y-3.88880
X-2.37900 Y-3.88780
X-2.37800 Y-3.88780
X-2.37800 Y-3.88680
X-2.37700 Y-3.88680
X-2.37700 Y-3.88580
X-2.37600 Y-3.88580
X-2.37600 Y-3.88480
X-2.37500 Y-3.88480
X-2.37500 Y-3.88380
X-2.37400 Y-3.88380
X-2.37400 Y-3.88280
X-2.37300 Y-3.88280
X-2.37300 Y-3.88180
X-2.37200 Y-3.88180
X-2.37200 Y-3.88080
X-2.37100 Y-3.88080
X-2.37100 Y-3.87980
X-2.37000 Y-3.87980
X-2.37000 Y-3.87880
X-2.36900 Y-3.87880
X-2.36900 Y-3.87780
X-2.36800 Y-3.87780
X-2.36800 Y-3.87680
X-2.36700 Y-3.87680
X-2.36700 Y-3.87580
X-2.36600 Y-3.87580
X-2.36600 Y-3.87280
X-2.36500 Y-3.87280
X-2.36500 Y-3.86980
X-2.36400 Y-3.86980
X-2.36400 Y-3.86680
X-2.36300 Y-3.86680
X-2.36300 Y-3.86380
X-2.36200 Y-3.86380
X-2.36200 Y-3.16080
X-2.36100 Y-3.16080
X-2.36100 Y-3.15980
X-2.36000 Y-3.15980
X-2.36000 Y-3.15880
X-2.35900 Y-3.15880
X-2.35900 Y-3.15780
X-2.35800 Y-3.15780
X-2.35800 Y-3.15680
X-2.35700 Y-3.15680
X-2.35700 Y-3.15580
X-2.35600 Y-3.15580
X-2.35600 Y-3.15480
X-2.35500 Y-3.15480
X-2.35500 Y-3.15380
X-2.35400 Y-3.15380
X-2.35400 Y-3.15280
X-2.35300 Y-3.15280
X-2.35300 Y-3.15180
X-2.35200 Y-3.15180
X-2.35200 Y-3.15080
X-2.35100 Y-3.15080
X-2.35100 Y-3.14980
X-2.35000 Y-3.14980
X-2.35000 Y-3.14880
X-2.34900 Y-3.14880
X-2.34900 Y-3.14780
X-2.34800 Y-3.14780
X-2.34800 Y-3.14680
X-2.34700 Y-3.14680
X-2.34700 Y-3.14580
X-2.34600 Y-3.14580
X-2.34600 Y-3.14480
X-2.34500 Y-3.14480
X-2.34500 Y-3.14380
X-2.34400 Y-3.14380
X-2.34400 Y-3.14280
X-2.34300 Y-3.14280
X-2.34300 Y-3.14180
X-2.34200 Y-3.14180
X-2.34200 Y-3.14080
X-2.34100 Y-3.14080
X-2.34100 Y-3.13980
X-2.34000 Y-3.13980
X-2.34000 Y-3.13880
X-2.33900 Y-3.13880
X-2.33900 Y-3.13780
X-2.33800 Y-3.13780
X-2.33800 Y-3.13680
X-2.33700 Y-3.13680
X-2.33700 Y-3.13580
X-2.33600 Y-3.13580
X-2.33600 Y-3.13480
X-2.33500 Y-3.13480
X-2.33500 Y-3.13380
X-2.33400 Y-3.13380
X-2.33400 Y-3.13280
X-2.33300 Y-3.13280
X-2.33300 Y-3.13180
X-2.33200 Y-3.13180
X-2.33200 Y-3.13080
X-2.33100 Y-3.13080
X-2.33100 Y-3.12980
X-2.33000 Y-3.12980
X-2.33000 Y-3.12880
X-2.32900 Y-3.12880
X-2.32900 Y-3.12780
X-2.32800 Y-3.12780
X-2.32800 Y-3.12680
X-2.32700 Y-3.12680
X-2.32700 Y-3.12580
X-2.32600 Y-3.12580
X-2.32600 Y-3.12480
X-2.32500 Y-3.12480
X-2.32500 Y-3.12380
X-2.32400 Y-3.12380
X-2.32400 Y-3.12280
X-2.32300 Y-3.12280
X-2.32300 Y-3.12180
X-2.32200 Y-3.12180
X-2.32200 Y-3.12080
X-2.32100 Y-3.12080
X-2.32100 Y-3.11980
X-2.32000 Y-3.11980
X-2.32000 Y-3.11880
X-2.31900 Y-3.11880
X-2.31900 Y-3.11780
X-2.31800 Y-3.11780
X-2.31800 Y-3.11680
X-2.31700 Y-3.11680
X-2.31700 Y-3.11580
X-2.31600 Y-3.11580
X-2.31600 Y-3.11480
X-2.31500 Y-3.11480
X-2.31500 Y-3.11380
X-2.31400 Y-3.11380
X-2.31400 Y-3.11280
X-2.31300 Y-3.11280
X-2.31300 Y-3.11180
X-2.31200 Y-3.11180
X-2.31200 Y-3.11080
X-2.31100 Y-3.11080
X-2.31100 Y-3.10980
X-2.31000 Y-3.10980
X-2.31000 Y-3.10880
X-2.30900 Y-3.10880
X-2.30900 Y-3.10780
X-2.30800 Y-3.10780
X-2.30800 Y-3.10680
X-2.30700 Y-3.10680
X-2.30700 Y-3.10580
X-2.30600 Y-3.10580
X-2.30600 Y-3.10480
X-2.30500 Y-3.10480
X-2.30500 Y-3.10380
X-2.30400 Y-3.10380
X-2.30400 Y-3.10380
X-2.30300 Y-3.10380
X-2.30300 Y-3.10480
X-2.30200 Y-3.10480
X-2.30200 Y-3.10580
X-2.30100 Y-3.10580
X-2.30100 Y-3.10680
X-2.30000 Y-3.10680
X-2.30000 Y-3.10780
X-2.29900 Y-3.10780
X-2.29900 Y-3.10880
X-2.29800 Y-3.10880
X-2.29800 Y-3.10980
X-2.29700 Y-3.10980
X-2.29700 Y-3.21080
X-2.30500 Y-3.21080
X-2.30500 Y-3.26680
X-2.24900 Y-3.26680
X-2.24900 Y-3.25880
X-2.16000 Y-3.25880
X-2.16000 Y-3.25780
X-2.15400 Y-3.25780
X-2.15400 Y-3.25680
X-2.15300 Y-3.25680
X-2.15300 Y-3.25580
X-2.15100 Y-3.25580
X-2.15100 Y-3.25480
X-2.15000 Y-3.25480
X-2.15000 Y-3.25380
X-2.14800 Y-3.25380
X-2.14800 Y-3.25280
X-2.14700 Y-3.25280
X-2.14700 Y-3.25180
X-2.14600 Y-3.25180
X-2.14600 Y-3.25080
X-2.14500 Y-3.25080
X-2.14500 Y-3.24980
X-2.14400 Y-3.24980
X-2.14400 Y-3.24880
X-2.14300 Y-3.24880
X-2.14300 Y-3.24780
X-2.14200 Y-3.24780
X-2.14200 Y-3.24680
X-2.14100 Y-3.24680
X-2.14100 Y-3.24580
X-2.14000 Y-3.24580
X-2.14000 Y-3.24480
X-2.13900 Y-3.24480
X-2.13900 Y-3.24380
X-2.13800 Y-3.24380
X-2.13800 Y-3.24280
X-2.13700 Y-3.24280
X-2.13700 Y-3.24180
X-2.13600 Y-3.24180
X-2.13600 Y-3.24080
X-2.13500 Y-3.24080
X-2.13500 Y-3.23980
X-2.13400 Y-3.23980
X-2.13400 Y-3.23880
X-2.13300 Y-3.23880
X-2.13300 Y-3.23780
X-2.13200 Y-3.23780
X-2.13200 Y-3.23680
X-2.13100 Y-3.23680
X-2.13100 Y-3.23580
X-2.13000 Y-3.23580
X-2.13000 Y-3.23480
X-2.12900 Y-3.23480
X-2.12900 Y-3.23380
X-2.12800 Y-3.23380
X-2.12800 Y-3.23280
X-2.12700 Y-3.23280
X-2.12700 Y-3.23180
X-2.12600 Y-3.23180
X-2.12600 Y-3.23080
X-2.12500 Y-3.23080
X-2.12500 Y-3.22980
X-2.12400 Y-3.22980
X-2.12400 Y-3.22880
X-2.12300 Y-3.22880
X-2.12300 Y-3.22780
X-2.12200 Y-3.22780
X-2.12200 Y-3.22580
X-2.12100 Y-3.22580
X-2.12100 Y-3.22280
X-2.12000 Y-3.22280
X-2.12000 Y-3.21980
X-2.11900 Y-3.21980
X-2.11900 Y-3.21680
X-2.11800 Y-3.21680
X-2.11800 Y-3.05580
X-2.11900 Y-3.05580
X-2.11900 Y-3.05280
X-2.12000 Y-3.05280
X-2.12000 Y-3.04880
X-2.12100 Y-3.04880
X-2.12100 Y-3.04580
X-2.12200 Y-3.04580
X-2.12200 Y-3.04480
X-2.12300 Y-3.04480
X-2.12300 Y-3.04380
X-2.12400 Y-3.04380
X-2.12400 Y-3.04180
X-2.12500 Y-3.04180
X-2.12500 Y-3.04080
X-2.12600 Y-3.04080
X-2.12600 Y-3.03980
X-2.12700 Y-3.03980
X-2.12700 Y-3.03880
X-2.12800 Y-3.03880
X-2.12800 Y-3.03780
X-2.12900 Y-3.03780
X-2.12900 Y-3.03680
X-2.13000 Y-3.03680
X-2.13000 Y-3.03580
X-2.13100 Y-3.03580
X-2.13100 Y-3.03480
X-2.13200 Y-3.03480
X-2.13200 Y-3.03380
X-2.13300 Y-3.03380
X-2.13300 Y-3.03280
X-2.13400 Y-3.03280
X-2.13400 Y-3.03180
X-2.13500 Y-3.03180
X-2.13500 Y-3.03080
X-2.13600 Y-3.03080
X-2.13600 Y-3.02980
X-2.13700 Y-3.02980
X-2.13700 Y-3.02880
X-2.13800 Y-3.02880
X-2.13800 Y-3.02780
X-2.13900 Y-3.02780
X-2.13900 Y-3.02680
X-2.14000 Y-3.02680
X-2.14000 Y-3.02580
X-2.14100 Y-3.02580
X-2.14100 Y-3.02480
X-2.14200 Y-3.02480
X-2.14200 Y-3.02380
X-2.14300 Y-3.02380
X-2.14300 Y-3.02280
X-2.14400 Y-3.02280
X-2.14400 Y-3.02180
X-2.14500 Y-3.02180
X-2.14500 Y-3.02080
X-2.14600 Y-3.02080
X-2.14600 Y-3.01980
X-2.14700 Y-3.01980
X-2.14700 Y-3.01880
X-2.14800 Y-3.01880
X-2.14800 Y-3.01780
X-2.14900 Y-3.01780
X-2.14900 Y-3.01680
X-2.15000 Y-3.01680
X-2.15000 Y-3.01580
X-2.15100 Y-3.01580
X-2.15100 Y-3.01480
X-2.15200 Y-3.01480
X-2.15200 Y-3.01380
X-2.15300 Y-3.01380
X-2.15300 Y-3.01280
X-2.15400 Y-3.01280
X-2.15400 Y-3.01180
X-2.15500 Y-3.01180
X-2.15500 Y-3.01080
X-2.15600 Y-3.01080
X-2.15600 Y-3.00980
X-2.15700 Y-3.00980
X-2.15700 Y-3.00880
X-2.15800 Y-3.00880
X-2.15800 Y-3.00780
X-2.15900 Y-3.00780
X-2.15900 Y-3.00680
X-2.16000 Y-3.00680
X-2.16000 Y-3.00580
X-2.16100 Y-3.00580
X-2.16100 Y-3.00480
X-2.16200 Y-3.00480
X-2.16200 Y-3.00380
X-2.16300 Y-3.00380
X-2.16300 Y-3.00280
X-2.16400 Y-3.00280
X-2.16400 Y-3.00180
X-2.16500 Y-3.00180
X-2.16500 Y-3.00080
X-2.16600 Y-3.00080
X-2.16600 Y-2.99980
X-2.16700 Y-2.99980
X-2.16700 Y-2.99880
X-2.16800 Y-2.99880
X-2.16800 Y-2.99780
X-2.16900 Y-2.99780
X-2.16900 Y-2.99680
X-2.17000 Y-2.99680
X-2.17000 Y-2.99580
X-2.17100 Y-2.99580
X-2.17100 Y-2.99480
X-2.17200 Y-2.99480
X-2.17200 Y-2.99380
X-2.17300 Y-2.99380
X-2.17300 Y-2.99280
X-2.17400 Y-2.99280
X-2.17400 Y-2.99180
X-2.17500 Y-2.99180
X-2.17500 Y-2.99080
X-2.17600 Y-2.99080
X-2.17600 Y-2.98980
X-2.17700 Y-2.98980
X-2.17700 Y-2.98880
X-2.17800 Y-2.98880
X-2.17800 Y-2.98780
X-2.17900 Y-2.98780
X-2.17900 Y-2.98680
X-2.18000 Y-2.98680
X-2.18000 Y-2.98580
X-2.18100 Y-2.98580
X-2.18100 Y-2.98480
X-2.18200 Y-2.98480
X-2.18200 Y-2.98380
X-2.18300 Y-2.98380
X-2.18300 Y-2.98280
X-2.18400 Y-2.98280
X-2.18400 Y-2.98180
X-2.18500 Y-2.98180
X-2.18500 Y-2.98080
X-2.18600 Y-2.98080
X-2.18600 Y-2.97980
X-2.18700 Y-2.97980
X-2.18700 Y-2.97880
X-2.18800 Y-2.97880
X-2.18800 Y-2.97780
X-2.18900 Y-2.97780
X-2.18900 Y-2.97680
X-2.19000 Y-2.97680
X-2.19000 Y-2.97580
X-2.19100 Y-2.97580
X-2.19100 Y-2.97480
X-2.19200 Y-2.97480
X-2.19200 Y-2.97380
X-2.19300 Y-2.97380
X-2.19300 Y-2.97280
X-2.19400 Y-2.97280
X-2.19400 Y-2.97180
X-2.19500 Y-2.97180
X-2.19500 Y-2.97080
X-2.19600 Y-2.97080
X-2.19600 Y-2.96980
X-2.19700 Y-2.96980
X-2.19700 Y-2.96880
X-2.19800 Y-2.96880
X-2.19800 Y-2.96780
X-2.19900 Y-2.96780
X-2.19900 Y-2.96680
X-2.20000 Y-2.96680
X-2.20000 Y-2.96580
X-2.20100 Y-2.96580
X-2.20100 Y-2.96480
X-2.20200 Y-2.96480
X-2.20200 Y-2.96380
X-2.20300 Y-2.96380
X-2.20300 Y-2.96280
X-2.20400 Y-2.96280
X-2.20400 Y-2.96180
X-2.20500 Y-2.96180
X-2.20500 Y-2.96080
X-2.20600 Y-2.96080
X-2.20600 Y-2.95980
X-2.20700 Y-2.95980
X-2.20700 Y-2.95880
X-2.20800 Y-2.95880
X-2.20800 Y-2.95780
X-2.20900 Y-2.95780
X-2.20900 Y-2.95680
X-2.21000 Y-2.95680
X-2.21000 Y-2.95580
X-2.21100 Y-2.95580
X-2.21100 Y-2.95480
X-2.21200 Y-2.95480
X-2.21200 Y-2.95380
X-2.21300 Y-2.95380
X-2.21300 Y-2.95280
X-2.21400 Y-2.95280
X-2.21400 Y-2.95180
X-2.21500 Y-2.95180
X-2.21500 Y-2.95080
X-2.21600 Y-2.95080
X-2.21600 Y-2.94980
X-2.21700 Y-2.94980
X-2.21700 Y-2.94880
X-2.21800 Y-2.94880
X-2.21800 Y-2.94780
X-2.21900 Y-2.94780
X-2.21900 Y-2.94680
X-2.22000 Y-2.94680
X-2.22000 Y-2.94580
X-2.22100 Y-2.94580
X-2.22100 Y-2.94480
X-2.22200 Y-2.94480
X-2.22200 Y-2.94380
X-2.22300 Y-2.94380
X-2.22300 Y-2.94280
X-2.22400 Y-2.94280
X-2.22400 Y-2.94180
X-2.22500 Y-2.94180
X-2.22500 Y-2.94080
X-2.22600 Y-2.94080
X-2.22600 Y-2.93980
X-2.22700 Y-2.93980
X-2.22700 Y-2.93880
X-2.22800 Y-2.93880
X-2.22800 Y-2.93780
X-2.22900 Y-2.93780
X-2.22900 Y-2.93680
X-2.23000 Y-2.93680
X-2.23000 Y-2.93580
X-2.23100 Y-2.93580
X-2.23100 Y-2.93480
X-2.23200 Y-2.93480
X-2.23200 Y-2.93380
X-2.23300 Y-2.93380
X-2.23300 Y-2.93280
X-2.23400 Y-2.93280
X-2.23400 Y-2.93180
X-2.23500 Y-2.93180
X-2.23500 Y-2.93080
X-2.23600 Y-2.93080
X-2.23600 Y-2.92980
X-2.23700 Y-2.92980
X-2.23700 Y-2.92880
X-2.23900 Y-2.92880
X-2.23900 Y-2.92780
X-2.24100 Y-2.92780
X-2.24100 Y-2.92680
X-2.24200 Y-2.92680
X-2.24200 Y-2.92580
X-2.24400 Y-2.92580
X-2.24400 Y-2.92480
X-2.24500 Y-2.92480
X-2.24500 Y-2.92380
X-2.24700 Y-2.92380
X-2.24700 Y-2.92280
X-2.63700 Y-2.92280
X-2.63700 Y-2.92380
X-2.63900 Y-2.92380
X-2.63900 Y-2.92480
X-2.64100 Y-2.92480
X-2.64100 Y-2.92580
X-2.64300 Y-2.92580
X-2.64300 Y-2.92680
X-2.64400 Y-2.92680
X-2.64400 Y-2.92780
X-2.64600 Y-2.92780
X-2.64600 Y-2.92880
X-2.64700 Y-2.92880
X-2.64700 Y-2.92980
X-2.64800 Y-2.92980
X-2.64800 Y-2.93080
X-2.64900 Y-2.93080
X-2.64900 Y-2.93180
X-2.65000 Y-2.93180
X-2.65000 Y-2.93280
X-2.65100 Y-2.93280
X-2.65100 Y-2.93380
X-2.65200 Y-2.93380
X-2.65200 Y-2.93480
X-2.65300 Y-2.93480
X-2.65300 Y-2.93580
X-2.65400 Y-2.93580
X-2.65400 Y-2.93680
X-2.65500 Y-2.93680
X-2.65500 Y-2.93780
X-2.65600 Y-2.93780
X-2.65600 Y-2.93880
X-2.65700 Y-2.93880
X-2.65700 Y-2.93980
X-2.65800 Y-2.93980
X-2.65800 Y-2.94080
X-2.65900 Y-2.94080
X-2.65900 Y-2.94180
X-2.66000 Y-2.94180
X-2.66000 Y-2.94280
X-2.66100 Y-2.94280
X-2.66100 Y-2.94380
X-2.66200 Y-2.94380
X-2.66200 Y-2.94480
X-2.66300 Y-2.94480
X-2.66300 Y-2.94580
X-2.66400 Y-2.94580
X-2.66400 Y-2.94680
X-2.66500 Y-2.94680
X-2.66500 Y-2.94780
X-2.66600 Y-2.94780
X-2.66600 Y-2.94880
X-2.66700 Y-2.94880
X-2.66700 Y-2.94980
X-2.66800 Y-2.94980
X-2.66800 Y-2.95080
X-2.66900 Y-2.95080
X-2.66900 Y-2.95180
X-2.67000 Y-2.95180
X-2.67000 Y-2.95280
X-2.67100 Y-2.95280
X-2.67100 Y-2.95380
X-2.67200 Y-2.95380
X-2.67200 Y-2.95480
X-2.67300 Y-2.95480
X-2.67300 Y-2.95580
X-2.67400 Y-2.95580
X-2.67400 Y-2.95680
X-2.67500 Y-2.95680
X-2.67500 Y-2.95780
X-2.67600 Y-2.95780
X-2.67600 Y-2.95880
X-2.67700 Y-2.95880
X-2.67700 Y-2.95980
X-2.67800 Y-2.95980
X-2.67800 Y-2.96080
X-2.67900 Y-2.96080
X-2.67900 Y-2.96180
X-2.68000 Y-2.96180
X-2.68000 Y-2.96280
X-2.68100 Y-2.96280
X-2.68100 Y-2.96380
X-2.68200 Y-2.96380
X-2.68200 Y-2.96480
X-2.68300 Y-2.96480
X-2.68300 Y-2.96580
X-2.68400 Y-2.96580
X-2.68400 Y-2.96680
X-2.68500 Y-2.96680
X-2.68500 Y-2.96780
X-2.68600 Y-2.96780
X-2.68600 Y-2.96880
X-2.68700 Y-2.96880
X-2.68700 Y-2.96980
X-2.68800 Y-2.96980
X-2.68800 Y-2.97080
X-2.68900 Y-2.97080
X-2.68900 Y-2.97180
X-2.69000 Y-2.97180
X-2.69000 Y-2.97280
X-2.69100 Y-2.97280
X-2.69100 Y-2.97380
X-2.69200 Y-2.97380
X-2.69200 Y-2.97480
X-2.69300 Y-2.97480
X-2.69300 Y-2.97580
X-2.69400 Y-2.97580
X-2.69400 Y-2.97680
X-2.69500 Y-2.97680
X-2.69500 Y-2.97780
X-2.69600 Y-2.97780
X-2.69600 Y-2.97880
X-2.69700 Y-2.97880
X-2.69700 Y-2.97980
X-2.69800 Y-2.97980
X-2.69800 Y-2.98080
X-2.69900 Y-2.98080
X-2.69900 Y-2.98180
X-2.70000 Y-2.98180
X-2.70000 Y-2.98280
X-2.70100 Y-2.98280
X-2.70100 Y-2.98380
X-2.70200 Y-2.98380
X-2.70200 Y-2.98480
X-2.70300 Y-2.98480
X-2.70300 Y-2.98580
X-2.70400 Y-2.98580
X-2.70400 Y-2.98680
X-2.70500 Y-2.98680
X-2.70500 Y-2.98780
X-2.70600 Y-2.98780
X-2.70600 Y-2.98880
X-2.70700 Y-2.98880
X-2.70700 Y-2.98980
X-2.70800 Y-2.98980
X-2.70800 Y-2.99180
X-2.70900 Y-2.99180
X-2.70900 Y-2.99480
X-2.71000 Y-2.99480
X-2.71000 Y-2.99780
X-2.71100 Y-2.99780
X-2.71100 Y-3.00180
X-2.71200 Y-3.00180
X-2.71200 Y-3.00280
X-2.71600 Y-3.00280
X-2.71600 Y-3.00180
X-2.72200 Y-3.00180
X-2.72200 Y-3.00080
X-2.72700 Y-3.00080
X-2.72700 Y-2.99980
X-2.73300 Y-2.99980
X-2.73300 Y-2.99880
X-2.73900 Y-2.99880
X-2.73900 Y-2.99780
X-2.74500 Y-2.99780
X-2.74500 Y-2.99680
X-2.75000 Y-2.99680
X-2.75000 Y-2.99580
X-2.75600 Y-2.99580
X-2.75600 Y-2.99480
X-2.76200 Y-2.99480
X-2.76200 Y-2.99380
X-2.76800 Y-2.99380
X-2.76800 Y-2.99280
X-2.77300 Y-2.99280
X-2.77300 Y-2.99180
X-2.77900 Y-2.99180
X-2.77900 Y-2.99080
X-2.78500 Y-2.99080
X-2.78500 Y-2.98980
X-2.79100 Y-2.98980
X-2.79100 Y-2.98880
X-2.79700 Y-2.98880
X-2.79700 Y-2.98780
X-2.80200 Y-2.98780
X-2.80200 Y-2.98680
X-2.80800 Y-2.98680
X-2.80800 Y-2.98580
X-2.81400 Y-2.98580
X-2.81400 Y-2.98480
X-2.82000 Y-2.98480
X-2.82000 Y-2.98380
X-2.82500 Y-2.98380
X-2.82500 Y-2.98280
X-2.83100 Y-2.98280
X-2.83100 Y-2.98180
X-2.83700 Y-2.98180
X-2.83700 Y-2.98080
X-2.84300 Y-2.98080
X-2.84300 Y-2.97980
X-2.84800 Y-2.97980
X-2.84800 Y-2.97880
X-2.85400 Y-2.97880
X-2.85400 Y-2.97780
X-2.86000 Y-2.97780
X-2.86000 Y-2.97680
X-2.86400 Y-2.97680
X-2.86400 Y-2.96480
X-2.87200 Y-2.96480
X-2.87200 Y-2.92380
X-2.87100 Y-2.92380
X-2.87100 Y-2.92280
X-2.87000 Y-2.92280
X-2.87000 Y-2.92180
X-2.86900 Y-2.92180
X-2.86900 Y-2.92080
X-2.86800 Y-2.92080
X-2.86800 Y-2.91980
X-2.86700 Y-2.91980
X-2.86700 Y-2.91880
X-2.86600 Y-2.91880
X-2.86600 Y-2.91780
X-2.86500 Y-2.91780
X-2.86500 Y-2.91680
X-2.86400 Y-2.91680
X-2.86400 Y-2.91580
X-2.86300 Y-2.91580
X-2.86300 Y-2.91480
X-2.86200 Y-2.91480
X-2.86200 Y-2.91380
X-2.86100 Y-2.91380
X-2.86100 Y-2.91280
X-2.86000 Y-2.91280
X-2.86000 Y-2.91180
X-2.85900 Y-2.91180
X-2.85900 Y-2.91080
X-2.85800 Y-2.91080
X-2.85800 Y-2.90980
X-2.85700 Y-2.90980
X-2.85700 Y-2.90880
X-2.85600 Y-2.90880
X-2.85600 Y-2.90780
X-2.85500 Y-2.90780
X-2.85500 Y-2.90680
X-2.85400 Y-2.90680
X-2.85400 Y-2.90380
X-2.85300 Y-2.90380
X-2.85300 Y-2.90080
X-2.85200 Y-2.90080
X-2.85200 Y-2.89780
X-2.85100 Y-2.89780
X-2.85100 Y-2.89080
X-2.85200 Y-2.89080
X-2.85200 Y-2.88780
X-2.85300 Y-2.88780
X-2.85300 Y-2.88480
X-2.85400 Y-2.88480
X-2.85400 Y-2.88180
X-2.85600 Y-2.88180
X-2.85600 Y-2.88080
X-2.85700 Y-2.88080
X-2.85700 Y-2.87980
X-2.85800 Y-2.87980
X-2.85800 Y-2.87880
X-2.86000 Y-2.87880
X-2.86000 Y-2.87780
X-2.86100 Y-2.87780
X-2.86100 Y-2.87680
X-2.86300 Y-2.87680
X-2.86300 Y-2.87580
X-2.86400 Y-2.87580
X-2.86400 Y-2.87480
X-2.87700 Y-2.87480
X-2.87700 Y-2.87580
G04 P0 ( dwell for no time -- G64 should not smooth over this point )
G00 Z0.19685 ( retract )

G00 X-2.13800 Y-2.89980 ( rapid move to begin. )
G01 Z-0.00591 F39.37008 ( plunge. )
G04 P0 ( dwell for no time -- G64 should not smooth over this point )
X-2.13800 Y-2.89980
X-2.13900 Y-2.89980
X-2.13900 Y-2.90080
X-2.14000 Y-2.90080
X-2.14000 Y-2.90180
X-2.14200 Y-2.90180
X-2.14200 Y-2.90280
X-2.14300 Y-2.90280
X-2.14300 Y-2.90380
X-2.14500 Y-2.90380
X-2.14500 Y-2.90480
X-2.14600 Y-2.90480
X-2.14600 Y-2.90580
X-2.14700 Y-2.90580
X-2.14700 Y-2.90780
X-2.14800 Y-2.90780
X-2.14800 Y-2.91080
X-2.14900 Y-2.91080
X-2.14900 Y-2.91380
X-2.15000 Y-2.91380
X-2.15000 Y-2.91680
X-2.15100 Y-2.91680
X-2.15100 Y-2.91880
X-2.15000 Y-2.91880
X-2.15000 Y-2.92180
X-2.14900 Y-2.92180
X-2.14900 Y-2.92380
X-2.14800 Y-2.92380
X-2.14800 Y-2.92580
X-2.14700 Y-2.92580
X-2.14700 Y-2.92880
X-2.14600 Y-2.92880
X-2.14600 Y-2.93080
X-2.14500 Y-2.93080
X-2.14500 Y-2.93280
X-2.14400 Y-2.93280
X-2.14400 Y-2.93380
X-2.14300 Y-2.93380
X-2.14300 Y-2.93480
X-2.14200 Y-2.93480
X-2.14200 Y-2.93580
X-2.14100 Y-2.93580
X-2.14100 Y-2.93680
X-2.14000 Y-2.93680
X-2.14000 Y-2.93780
X-2.13900 Y-2.93780
X-2.13900 Y-2.93880
X-2.13800 Y-2.93880
X-2.13800 Y-2.93980
X-2.13700 Y-2.93980
X-2.13700 Y-2.94080
X-2.13600 Y-2.94080
X-2.13600 Y-2.94180
X-2.13500 Y-2.94180
X-2.13500 Y-2.94280
X-2.13400 Y-2.94280
X-2.13400 Y-2.94380
X-2.13300 Y-2.94380
X-2.13300 Y-2.94480
X-2.13200 Y-2.94480
X-2.13200 Y-2.94580
X-2.13100 Y-2.94580
X-2.13100 Y-2.94680
X-2.13000 Y-2.94680
X-2.13000 Y-2.94780
X-2.12900 Y-2.94780
X-2.12900 Y-2.94880
X-2.12800 Y-2.94880
X-2.12800 Y-2.94980
X-2.12700 Y-2.94980
X-2.12700 Y-2.95080
X-2.12600 Y-2.95080
X-2.12600 Y-2.95180
X-2.12500 Y-2.95180
X-2.12500 Y-2.95280
X-2.12400 Y-2.95280
X-2.12400 Y-2.95380
X-2.12300 Y-2.95380
X-2.12300 Y-2.95480
X-2.12200 Y-2.95480
X-2.12200 Y-2.95580
X-2.12100 Y-2.95580
X-2.12100 Y-2.95680
X-2.12000 Y-2.95680
X-2.12000 Y-2.95780
X-2.11900 Y-2.95780
X-2.11900 Y-2.95880
X-2.11800 Y-2.95880
X-2.11800 Y-2.95980
X-2.11700 Y-2.95980
X-2.11700 Y-2.96080
X-2.11600 Y-2.96080
X-2.11600 Y-2.96180
X-2.11500 Y-2.96180
X-2.11500 Y-2.96280
X-2.11400 Y-2.96280
X-2.11400 Y-2.96380
X-2.11300 Y-2.96380
X-2.11300 Y-2.96480
X-2.11200 Y-2.96480
X-2.11200 Y-2.96580
X-2.11100 Y-2.96580
X-2.11100 Y-2.96680
X-2.11000 Y-2.96680
X-2.11000 Y-2.96780
X-2.10900 Y-2.96780
X-2.10900 Y-2.96880
X-2.10800 Y-2.96880
X-2.10800 Y-2.96980
X-2.10700 Y-2.96980
X-2.10700 Y-2.97080
X-2.10600 Y-2.97080
X-2.10600 Y-2.97180
X-2.10500 Y-2.97180
X-2.10500 Y-2.97280
X-2.10400 Y-2.97280
X-2.10400 Y-2.97380
X-2.10300 Y-2.97380
X-2.10300 Y-2.97480
X-2.10200 Y-2.97480
X-2.10200 Y-2.97580
X-2.10100 Y-2.97580
X-2.10100 Y-2.97680
X-2.10000 Y-2.97680
X-2.10000 Y-2.97780
X-2.09900 Y-2.97780
X-2.09900 Y-2.97880
X-2.09800 Y-2.97880
X-2.09800 Y-2.97980
X-2.09700 Y-2.97980
X-2.09700 Y-2.98080
X-2.09600 Y-2.98080
X-2.09600 Y-2.98180
X-2.09500 Y-2.98180
X-2.09500 Y-2.98280
X-2.09400 Y-2.98280
X-2.09400 Y-2.98380
X-2.09300 Y-2.98380
X-2.09300 Y-2.98480
X-2.09200 Y-2.98480
X-2.09200 Y-2.98580
X-2.09100 Y-2.98580
X-2.09100 Y-2.98680
X-2.09000 Y-2.98680
X-2.09000 Y-2.98780
X-2.08900 Y-2.98780
X-2.08900 Y-2.98880
X-2.08800 Y-2.98880
X-2.08800 Y-2.98980
X-2.08700 Y-2.98980
X-2.08700 Y-2.99080
X-2.08600 Y-2.99080
X-2.08600 Y-2.99180
X-2.08500 Y-2.99180
X-2.08500 Y-2.99280
X-2.08400 Y-2.99280
X-2.08400 Y-2.99380
X-2.08300 Y-2.99380
X-2.08300 Y-2.99480
X-2.08200 Y-2.99480
X-2.08200 Y-2.99580
X-2.08100 Y-2.99580
X-2.08100 Y-2.99680
X-2.08000 Y-2.99680
X-2.08000 Y-2.99780
X-2.07900 Y-2.99780
X-2.07900 Y-2.99880
X-2.07800 Y-2.99880
X-2.07800 Y-2.99980
X-2.07700 Y-2.99980
X-2.07700 Y-3.00080
X-2.07600 Y-3.00080
X-2.07600 Y-3.00180
X-2.07500 Y-3.00180
X-2.07500 Y-3.00280
X-2.07400 Y-3.00280
X-2.07400 Y-3.00380
X-2.07300 Y-3.00380
X-2.07300 Y-3.00480
X-2.07200 Y-3.00480
X-2.07200 Y-3.00580
X-2.07100 Y-3.00580
X-2.07100 Y-3.00680
X-2.07000 Y-3.00680
X-2.07000 Y-3.00780
X-2.06900 Y-3.00780
X-2.06900 Y-3.00880
X-2.06800 Y-3.00880
X-2.06800 Y-3.00980
X-2.06700 Y-3.00980
X-2.06700 Y-3.01080
X-2.06600 Y-3.01080
X-2.06600 Y-3.01180
X-2.06500 Y-3.01180
X-2.06500 Y-3.01280
X-2.06400 Y-3.01280
X-2.06400 Y-3.01380
X-2.06300 Y-3.01380
X-2.06300 Y-3.01480
X-2.06200 Y-3.01480
X-2.06200 Y-3.01580
X-2.06100 Y-3.01580
X-2.06100 Y-3.01680
X-2.06000 Y-3.01680
X-2.06000 Y-3.01780
X-2.05900 Y-3.01780
X-2.05900 Y-3.01880
X-2.05800 Y-3.01880
X-2.05800 Y-3.01980
X-2.05700 Y-3.01980
X-2.05700 Y-3.02080
X-2.05600 Y-3.02080
X-2.05600 Y-3.02180
X-2.05500 Y-3.02180
X-2.05500 Y-3.02280
X-2.05400 Y-3.02280
X-2.05400 Y-3.02380
X-2.05300 Y-3.02380
X-2.05300 Y-3.02480
X-2.05200 Y-3.02480
X-2.05200 Y-3.02580
X-2.05100 Y-3.02580
X-2.05100 Y-3.02680
X-2.05000 Y-3.02680
X-2.05000 Y-3.02780
X-2.04900 Y-3.02780
X-2.04900 Y-3.02880
X-2.04800 Y-3.02880
X-2.04800 Y-3.02980
X-2.04700 Y-3.02980
X-2.04700 Y-3.03080
X-2.04600 Y-3.03080
X-2.04600 Y-3.03180
X-2.04500 Y-3.03180
X-2.04500 Y-3.03280
X-2.04400 Y-3.03280
X-2.04400 Y-3.03380
X-2.04300 Y-3.03380
X-2.04300 Y-3.03480
X-2.04200 Y-3.03480
X-2.04200 Y-3.03580
X-2.04100 Y-3.03580
X-2.04100 Y-3.03680
X-2.04000 Y-3.03680
X-2.04000 Y-3.03780
X-2.03900 Y-3.03780
X-2.03900 Y-3.03880
X-2.03800 Y-3.03880
X-2.03800 Y-3.03980
X-2.03700 Y-3.03980
X-2.03700 Y-3.04080
X-2.03600 Y-3.04080
X-2.03600 Y-3.04180
X-2.03500 Y-3.04180
X-2.03500 Y-3.04280
X-2.03400 Y-3.04280
X-2.03400 Y-3.04380
X-2.03300 Y-3.04380
X-2.03300 Y-3.04480
X-2.03200 Y-3.04480
X-2.03200 Y-3.04580
X-2.03100 Y-3.04580
X-2.03100 Y-3.04680
X-2.03000 Y-3.04680
X-2.03000 Y-3.04780
X-2.02900 Y-3.04780
X-2.02900 Y-3.04880
X-2.02800 Y-3.04880
X-2.02800 Y-3.04980
X-2.02700 Y-3.04980
X-2.02700 Y-3.05080
X-2.02600 Y-3.05080
X-2.02600 Y-3.05180
X-2.02500 Y-3.05180
X-2.02500 Y-3.05280
X-2.02400 Y-3.05280
X-2.02400 Y-3.24280
X-2.02800 Y-3.24280
X-2.02800 Y-3.24380
X-2.03100 Y-3.24380
X-2.03100 Y-3.24480
X-2.03400 Y-3.24480
X-2.03400 Y-3.24580
X-2.03700 Y-3.24580
X-2.03700 Y-3.24680
X-2.04000 Y-3.24680
X-2.04000 Y-3.24780
X-2.04200 Y-3.24780
X-2.04200 Y-3.24880
X-2.04400 Y-3.24880
X-2.04400 Y-3.24980
X-2.04600 Y-3.24980
X-2.04600 Y-3.25080
X-2.04800 Y-3.25080
X-2.04800 Y-3.25180
X-2.04900 Y-3.25180
X-2.04900 Y-3.25280
X-2.05100 Y-3.25280
X-2.05100 Y-3.25380
X-2.05300 Y-3.25380
X-2.05300 Y-3.25480
X-2.05500 Y-3.25480
X-2.05500 Y-3.25580
X-2.05600 Y-3.25580
X-2.05600 Y-3.25680
X-2.05700 Y-3.25680
X-2.05700 Y-3.25780
X-2.05900 Y-3.25780
X-2.05900 Y-3.25880
X-2.06000 Y-3.25880
X-2.06000 Y-3.25980
X-2.06100 Y-3.25980
X-2.06100 Y-3.26080
X-2.06200 Y-3.26080
X-2.06200 Y-3.26180
X-2.06300 Y-3.26180
X-2.06300 Y-3.26280
X-2.06500 Y-3.26280
X-2.06500 Y-3.26380
X-2.06600 Y-3.26380
X-2.06600 Y-3.26480
X-2.06700 Y-3.26480
X-2.06700 Y-3.26580
X-2.06800 Y-3.26580
X-2.06800 Y-3.26680
X-2.06900 Y-3.26680
X-2.06900 Y-3.26780
X-2.07000 Y-3.26780
X-2.07000 Y-3.26880
X-2.07100 Y-3.26880
X-2.07100 Y-3.26980
X-2.07200 Y-3.26980
X-2.07200 Y-3.27180
X-2.07300 Y-3.27180
X-2.07300 Y-3.27280
X-2.07400 Y-3.27280
X-2.07400 Y-3.27380
X-2.07500 Y-3.27380
X-2.07500 Y-3.27480
X-2.07600 Y-3.27480
X-2.07600 Y-3.27580
X-2.07700 Y-3.27580
X-2.07700 Y-3.27780
X-2.07800 Y-3.27780
X-2.07800 Y-3.27880
X-2.07900 Y-3.27880
X-2.07900 Y-3.27980
X-2.08000 Y-3.27980
X-2.08000 Y-3.28180
X-2.08100 Y-3.28180
X-2.08100 Y-3.28380
X-2.08200 Y-3.28380
X-2.08200 Y-3.28580
X-2.08300 Y-3.28580
X-2.08300 Y-3.28780
X-2.08400 Y-3.28780
X-2.08400 Y-3.28880
X-2.08500 Y-3.28880
X-2.08500 Y-3.29080
X-2.08600 Y-3.29080
X-2.08600 Y-3.29280
X-2.08700 Y-3.29280
X-2.08700 Y-3.29480
X-2.08800 Y-3.29480
X-2.08800 Y-3.29780
X-2.08900 Y-3.29780
X-2.08900 Y-3.30080
X-2.09000 Y-3.30080
X-2.09000 Y-3.30380
X-2.09100 Y-3.30380
X-2.09100 Y-3.30780
X-2.09200 Y-3.30780
X-2.09200 Y-3.31080
X-2.09300 Y-3.31080
X-2.09300 Y-3.31780
X-2.09400 Y-3.31780
X-2.09400 Y-3.32780
X-2.09500 Y-3.32780
X-2.09500 Y-3.33280
X-2.09400 Y-3.33280
X-2.09400 Y-3.34280
X-2.09300 Y-3.34280
X-2.09300 Y-3.35080
X-2.09200 Y-3.35080
X-2.09200 Y-3.35380
X-2.09100 Y-3.35380
X-2.09100 Y-3.35680
X-2.09000 Y-3.35680
X-2.09000 Y-3.35980
X-2.08900 Y-3.35980
X-2.08900 Y-3.36280
X-2.08800 Y-3.36280
X-2.08800 Y-3.36580
X-2.08700 Y-3.36580
X-2.08700 Y-3.36780
X-2.08600 Y-3.36780
X-2.08600 Y-3.36980
X-2.08500 Y-3.36980
X-2.08500 Y-3.37180
X-2.08400 Y-3.37180
X-2.08400 Y-3.37380
X-2.08300 Y-3.37380
X-2.08300 Y-3.37580
X-2.08200 Y-3.37580
X-2.08200 Y-3.37780
X-2.08100 Y-3.37780
X-2.08100 Y-3.37880
X-2.08000 Y-3.37880
X-2.08000 Y-3.38080
X-2.07900 Y-3.38080
X-2.07900 Y-3.38280
X-2.07800 Y-3.38280
X-2.07800 Y-3.38380
X-2.07700 Y-3.38380
X-2.07700 Y-3.38480
X-2.07600 Y-3.38480
X-2.07600 Y-3.38580
X-2.07500 Y-3.38580
X-2.07500 Y-3.38680
X-2.07400 Y-3.38680
X-2.07400 Y-3.38880
X-2.07300 Y-3.38880
X-2.07300 Y-3.38980
X-2.07200 Y-3.38980
X-2.07200 Y-3.39080
X-2.07100 Y-3.39080
X-2.07100 Y-3.39180
X-2.07000 Y-3.39180
X-2.07000 Y-3.39280
X-2.06900 Y-3.39280
X-2.06900 Y-3.39480
X-2.06800 Y-3.39480
X-2.06800 Y-3.39580
X-2.06600 Y-3.39580
X-2.06600 Y-3.39680
X-2.06500 Y-3.39680
X-2.06500 Y-3.39780
X-2.06400 Y-3.39780
X-2.06400 Y-3.39880
X-2.06300 Y-3.39880
X-2.06300 Y-3.39980
X-2.06100 Y-3.39980
X-2.06100 Y-3.40080
X-2.06000 Y-3.40080
X-2.06000 Y-3.40180
X-2.05900 Y-3.40180
X-2.05900 Y-3.40280
X-2.05800 Y-3.40280
X-2.05800 Y-3.40380
X-2.05700 Y-3.40380
X-2.05700 Y-3.40480
X-2.05500 Y-3.40480
X-2.05500 Y-3.40580
X-2.05400 Y-3.40580
X-2.05400 Y-3.40680
X-2.05200 Y-3.40680
X-2.05200 Y-3.40780
X-2.05000 Y-3.40780
X-2.05000 Y-3.40880
X-2.04800 Y-3.40880
X-2.04800 Y-3.40980
X-2.04600 Y-3.40980
X-2.04600 Y-3.41080
X-2.04500 Y-3.41080
X-2.04500 Y-3.41180
X-2.04300 Y-3.41180
X-2.04300 Y-3.41280
X-2.04100 Y-3.41280
X-2.04100 Y-3.41380
X-2.03900 Y-3.41380
X-2.03900 Y-3.41480
X-2.03500 Y-3.41480
X-2.03500 Y-3.41580
X-2.03200 Y-3.41580
X-2.03200 Y-3.41680
X-2.02900 Y-3.41680
X-2.02900 Y-3.41780
X-2.02600 Y-3.41780
X-2.02600 Y-3.41880
X-2.02200 Y-3.41880
X-2.02200 Y-3.41980
X-2.01200 Y-3.41980
X-2.01200 Y-3.42080
X-1.99700 Y-3.42080
X-1.99700 Y-3.41980
X-1.98700 Y-3.41980
X-1.98700 Y-3.41880
X-1.98300 Y-3.41880
X-1.98300 Y-3.41780
X-1.98000 Y-3.41780
X-1.98000 Y-3.41680
X-1.97600 Y-3.41680
X-1.97600 Y-3.41580
X-1.97300 Y-3.41580
X-1.97300 Y-3.41480
X-1.97000 Y-3.41480
X-1.97000 Y-3.41380
X-1.96800 Y-3.41380
X-1.96800 Y-3.41280
X-1.96600 Y-3.41280
X-1.96600 Y-3.41180
X-1.96400 Y-3.41180
X-1.96400 Y-3.41080
X-1.96200 Y-3.41080
X-1.96200 Y-3.40980
X-1.96000 Y-3.40980
X-1.96000 Y-3.40880
X-1.95800 Y-3.40880
X-1.95800 Y-3.40780
X-1.95600 Y-3.40780
X-1.95600 Y-3.40680
X-1.95500 Y-3.40680
X-1.95500 Y-3.40580
X-1.95300 Y-3.40580
X-1.95300 Y-3.40480
X-1.95200 Y-3.40480
X-1.95200 Y-3.40380
X-1.95100 Y-3.40380
X-1.95100 Y-3.40280
X-1.94900 Y-3.40280
X-1.94900 Y-3.40180
X-1.94800 Y-3.40180
X-1.94800 Y-3.40080
X-1.94700 Y-3.40080
X-1.94700 Y-3.39980
X-1.94600 Y-3.39980
X-1.94600 Y-3.39880
X-1.94400 Y-3.39880
X-1.94400 Y-3.39780
X-1.94300 Y-3.39780
X-1.94300 Y-3.39680
X-1.94200 Y-3.39680
X-1.94200 Y-3.39580
X-1.94100 Y-3.39580
X-1.94100 Y-3.39480
X-1.94000 Y-3.39480
X-1.94000 Y-3.39380
X-1.93900 Y-3.39380
X-1.93900 Y-3.39280
X-1.93800 Y-3.39280
X-1.93800 Y-3.39180
X-1.93700 Y-3.39180
X-1.93700 Y-3.39080
X-1.93600 Y-3.39080
X-1.93600 Y-3.38880
X-1.93500 Y-3.38880
X-1.93500 Y-3.38780
X-1.93400 Y-3.38780
X-1.93400 Y-3.38680
X-1.93300 Y-3.38680
X-1.93300 Y-3.38580
X-1.93200 Y-3.38580
X-1.93200 Y-3.38380
X-1.93100 Y-3.38380
X-1.93100 Y-3.38280
X-1.93000 Y-3.38280
X-1.93000 Y-3.38180
X-1.92900 Y-3.38180
X-1.92900 Y-3.37980
X-1.92800 Y-3.37980
X-1.92800 Y-3.37880
X-1.92700 Y-3.37880
X-1.92700 Y-3.37680
X-1.92600 Y-3.37680
X-1.92600 Y-3.37480
X-1.92500 Y-3.37480
X-1.92500 Y-3.37280
X-1.92400 Y-3.37280
X-1.92400 Y-3.37080
X-1.92300 Y-3.37080
X-1.92300 Y-3.36880
X-1.92200 Y-3.36880
X-1.92200 Y-3.36780
X-1.92100 Y-3.36780
X-1.92100 Y-3.36480
X-1.92000 Y-3.36480
X-1.92000 Y-3.36180
X-1.91900 Y-3.36180
X-1.91900 Y-3.35880
X-1.91800 Y-3.35880
X-1.91800 Y-3.35580
X-1.91700 Y-3.35580
X-1.91700 Y-3.35180
X-1.91600 Y-3.35180
X-1.91600 Y-3.34880
X-1.91500 Y-3.34880
X-1.91500 Y-3.33880
X-1.91400 Y-3.33880
X-1.91400 Y-3.32180
X-1.91500 Y-3.32180
X-1.91500 Y-3.31180
X-1.91600 Y-3.31180
X-1.91600 Y-3.30880
X-1.91700 Y-3.30880
X-1.91700 Y-3.30580
X-1.91800 Y-3.30580
X-1.91800 Y-3.30180
X-1.91900 Y-3.30180
X-1.91900 Y-3.29880
X-1.92000 Y-3.29880
X-1.92000 Y-3.29580
X-1.92100 Y-3.29580
X-1.92100 Y-3.29380
X-1.92200 Y-3.29380
X-1.92200 Y-3.29180
X-1.92300 Y-3.29180
X-1.92300 Y-3.28980
X-1.92400 Y-3.28980
X-1.92400 Y-3.28780
X-1.92500 Y-3.28780
X-1.92500 Y-3.28580
X-1.92600 Y-3.28580
X-1.92600 Y-3.28480
X-1.92700 Y-3.28480
X-1.92700 Y-3.28280
X-1.92800 Y-3.28280
X-1.92800 Y-3.28080
X-1.92900 Y-3.28080
X-1.92900 Y-3.27880
X-1.93000 Y-3.27880
X-1.93000 Y-3.27780
X-1.93100 Y-3.27780
X-1.93100 Y-3.27680
X-1.93200 Y-3.27680
X-1.93200 Y-3.27580
X-1.93300 Y-3.27580
X-1.93300 Y-3.27480
X-1.93400 Y-3.27480
X-1.93400 Y-3.27280
X-1.93500 Y-3.27280
X-1.93500 Y-3.27180
X-1.93600 Y-3.27180
X-1.93600 Y-3.27080
X-1.93700 Y-3.27080
X-1.93700 Y-3.26980
X-1.93800 Y-3.26980
X-1.93800 Y-3.26780
X-1.93900 Y-3.26780
X-1.93900 Y-3.26680
X-1.94000 Y-3.26680
X-1.94000 Y-3.26580
X-1.94100 Y-3.26580
X-1.94100 Y-3.26480
X-1.94300 Y-3.26480
X-1.94300 Y-3.26380
X-1.94400 Y-3.26380
X-1.94400 Y-3.26280
X-1.94500 Y-3.26280
X-1.94500 Y-3.26180
X-1.94600 Y-3.26180
X-1.94600 Y-3.26080
X-1.94700 Y-3.26080
X-1.94700 Y-3.25980
X-1.94900 Y-3.25980
X-1.94900 Y-3.25880
X-1.95000 Y-3.25880
X-1.95000 Y-3.25780
X-1.95100 Y-3.25780
X-1.95100 Y-3.25680
X-1.95200 Y-3.25680
X-1.95200 Y-3.25580
X-1.95300 Y-3.25580
X-1.95300 Y-3.25480
X-1.95500 Y-3.25480
X-1.95500 Y-3.25380
X-1.95700 Y-3.25380
X-1.95700 Y-3.25280
X-1.95900 Y-3.25280
X-1.95900 Y-3.25180
X-1.96100 Y-3.25180
X-1.96100 Y-3.25080
X-1.96300 Y-3.25080
X-1.96300 Y-3.24980
X-1.96500 Y-3.24980
X-1.96500 Y-3.24880
X-1.96600 Y-3.24880
X-1.96600 Y-3.24780
X-1.96800 Y-3.24780
X-1.96800 Y-3.24680
X-1.97100 Y-3.24680
X-1.97100 Y-3.24580
X-1.97400 Y-3.24580
X-1.97400 Y-3.24480
X-1.97800 Y-3.24480
X-1.97800 Y-3.24380
X-1.98100 Y-3.24380
X-1.98100 Y-3.24280
X-1.98400 Y-3.24280
X-1.98400 Y-3.04280
X-1.98500 Y-3.04280
X-1.98500 Y-3.03980
X-1.98600 Y-3.03980
X-1.98600 Y-3.03580
X-1.98700 Y-3.03580
X-1.98700 Y-3.03280
X-1.98800 Y-3.03280
X-1.98800 Y-3.03180
X-1.98900 Y-3.03180
X-1.98900 Y-3.03080
X-1.99000 Y-3.03080
X-1.99000 Y-3.02880
X-1.99100 Y-3.02880
X-1.99100 Y-3.02780
X-1.99200 Y-3.02780
X-1.99200 Y-3.02680
X-1.99300 Y-3.02680
