( pcb2gcode 1.1.4 )

( This file uses 7 drill bit sizes. )

G94     ( Inches per minute feed rate. )
G20     ( Units == INCHES.             )
G90     ( Absolute coordinates.        )
S5000  ( RPM spindle speed.           )

G00 Z0.78740 ( Retract )
T1
M5      ( Spindle stop.                )
M6      ( Tool change.                 )
(MSG, CHANGE TOOL BIT: to drill size 0.60000 mm)
M0      ( Temporary machine stop.      )
M3      ( Spindle on clockwise.        )

G81 R0.19685 Z-0.15748 F39.37008 X-2.24803 Y-5.09055
X-2.24803 Y-5.20866
X-2.57480 Y-3.02362
X-2.69291 Y-3.02362
X-3.09449 Y-4.69685
X-3.09449 Y-4.81496
X-3.14961 Y-3.84646
X-3.14961 Y-3.96457


G00 Z0.78740 ( Retract )
T2
M5      ( Spindle stop.                )
M6      ( Tool change.                 )
(MSG, CHANGE TOOL BIT: to drill size 0.63500 mm)
M0      ( Temporary machine stop.      )
M3      ( Spindle on clockwise.        )

G81 R0.19685 Z-0.15748 F39.37008 X-1.69685 Y-3.71654
X-1.94488 Y-4.46457
X-1.94882 Y-3.71654
X-2.07185 Y-4.99016
X-2.13189 Y-2.91831
X-2.30512 Y-3.07480
X-2.40551 Y-3.03346
X-2.67343 Y-4.91610
X-2.67343 Y-4.99409
X-2.70079 Y-3.59449
X-2.74213 Y-3.25394
X-2.77264 Y-3.68504
X-2.77539 Y-4.91610
X-2.77539 Y-4.99409
X-2.79724 Y-3.61220
X-2.87205 Y-2.89469
X-2.98917 Y-3.95374
X-3.05709 Y-5.44685
X-3.08760 Y-4.49705
X-3.16339 Y-4.92224
X-3.18406 Y-4.10236
X-3.19685 Y-4.32874
X-3.19980 Y-4.23228
X-3.22146 Y-5.42913
X-3.22736 Y-5.32480
X-3.23130 Y-3.89272
X-3.25689 Y-3.62795
X-3.25787 Y-4.55807
X-3.25886 Y-4.82480
X-3.25984 Y-3.01969
X-3.26378 Y-3.25787
X-3.26673 Y-3.09547
X-3.39764 Y-3.08858
X-3.45472 Y-3.66732
X-3.58661 Y-3.02362
X-3.61417 Y-3.73031
X-3.66831 Y-4.18012
X-3.67520 Y-3.34843
X-3.68504 Y-4.82677
X-3.69094 Y-5.23031
X-3.70571 Y-5.32579
X-3.71457 Y-3.93898
X-3.72146 Y-3.63091
X-3.72736 Y-5.41634
X-3.81594 Y-4.52756
X-3.81693 Y-3.81398
X-3.86614 Y-4.91043


G00 Z0.78740 ( Retract )
T3
M5      ( Spindle stop.                )
M6      ( Tool change.                 )
(MSG, CHANGE TOOL BIT: to drill size 0.80000 mm)
M0      ( Temporary machine stop.      )
M3      ( Spindle on clockwise.        )

G81 R0.19685 Z-0.15748 F39.37008 X-2.27815 Y-3.23854
X-2.27815 Y-3.33854
X-2.27815 Y-3.43854
X-2.27815 Y-3.53854
X-2.27815 Y-3.63854
X-2.27815 Y-3.73854
X-2.27815 Y-3.83854
X-2.27815 Y-3.93854
X-2.27815 Y-4.03854
X-2.27815 Y-4.13795
X-2.27815 Y-4.23795
X-2.27815 Y-4.33795
X-2.27815 Y-4.43795
X-2.27815 Y-4.53795
X-2.57717 Y-3.23594
X-2.57756 Y-3.33634
X-2.57756 Y-3.43634
X-2.57756 Y-3.53634
X-2.57756 Y-3.63634
X-2.57756 Y-3.73634
X-2.57756 Y-3.83634
X-2.57756 Y-3.93634
X-2.57756 Y-4.03634
X-2.57756 Y-4.13575
X-2.57756 Y-4.23575
X-2.57756 Y-4.33575
X-2.57756 Y-4.43575
X-2.57756 Y-4.53575


G00 Z0.78740 ( Retract )
T4
M5      ( Spindle stop.                )
M6      ( Tool change.                 )
(MSG, CHANGE TOOL BIT: to drill size 0.81300 mm)
M0      ( Temporary machine stop.      )
M3      ( Spindle on clockwise.        )

G81 R0.19685 Z-0.15748 F39.37008 X-2.89331 Y-2.99252
X-2.89331 Y-3.09252
X-2.89331 Y-3.19252
X-2.89331 Y-3.29252
X-2.89331 Y-3.39252
X-2.89331 Y-3.49252
X-2.89331 Y-3.59252
X-2.89331 Y-3.69252
X-3.19331 Y-2.99252
X-3.19331 Y-3.09252
X-3.19331 Y-3.19252
X-3.19331 Y-3.29252
X-3.19331 Y-3.39252
X-3.19331 Y-3.49252
X-3.19331 Y-3.59252
X-3.19331 Y-3.69252
X-3.30276 Y-3.82323
X-3.30276 Y-3.92323
X-3.30276 Y-4.02323
X-3.30276 Y-4.12323
X-3.30276 Y-4.22323
X-3.30276 Y-4.32323
X-3.30276 Y-4.42323
X-3.30276 Y-4.52323
X-3.31850 Y-4.72087
X-3.31850 Y-4.82087
X-3.31850 Y-4.92087
X-3.31850 Y-5.02087
X-3.31850 Y-5.12087
X-3.31850 Y-5.22087
X-3.31850 Y-5.32087
X-3.31850 Y-5.42087
X-3.48150 Y-3.12677
X-3.48150 Y-3.22677
X-3.48150 Y-3.32677
X-3.48150 Y-3.42677
X-3.48150 Y-3.52677
X-3.58150 Y-3.12677
X-3.58150 Y-3.22677
X-3.58150 Y-3.32677
X-3.58150 Y-3.42677
X-3.58150 Y-3.52677
X-3.60276 Y-3.82323
X-3.60276 Y-3.92323
X-3.60276 Y-4.02323
X-3.60276 Y-4.12323
X-3.60276 Y-4.22323
X-3.60276 Y-4.32323
X-3.60276 Y-4.42323
X-3.60276 Y-4.52323
X-3.61850 Y-4.72087
X-3.61850 Y-4.82087
X-3.61850 Y-4.92087
X-3.61850 Y-5.02087
X-3.61850 Y-5.12087
X-3.61850 Y-5.22087
X-3.61850 Y-5.32087
X-3.61850 Y-5.42087


G00 Z0.78740 ( Retract )
T5
M5      ( Spindle stop.                )
M6      ( Tool change.                 )
(MSG, CHANGE TOOL BIT: to drill size 1.00000 mm)
M0      ( Temporary machine stop.      )
M3      ( Spindle on clockwise.        )

G81 R0.19685 Z-0.15748 F39.37008 X-1.79134 Y-4.68110
X-1.79134 Y-4.79921
X-1.80709 Y-5.13386
X-1.80709 Y-5.25197
X-2.85827 Y-4.20669
X-2.85827 Y-4.32480


G00 Z0.78740 ( Retract )
T6
M5      ( Spindle stop.                )
M6      ( Tool change.                 )
(MSG, CHANGE TOOL BIT: to drill size 2.03200 mm)
M0      ( Temporary machine stop.      )
M3      ( Spindle on clockwise.        )

G81 R0.19685 Z-0.15748 F39.37008 X-2.48539 Y-5.09811
X-2.96343 Y-5.09811


G00 Z0.78740 ( Retract )
T7
M5      ( Spindle stop.                )
M6      ( Tool change.                 )
(MSG, CHANGE TOOL BIT: to drill size 2.80000 mm)
M0      ( Temporary machine stop.      )
M3      ( Spindle on clockwise.        )

G81 R0.19685 Z-0.15748 F39.37008 X-1.75559 Y-3.33071
X-1.88059 Y-3.51571
X-2.00559 Y-3.33071


G00 Z0.78740 ( All done -- retract )

M9 ( Coolant off. )
M2 ( Program end. )

