( pcb2gcode 1.1.4 )

G94     ( Inches per minute feed rate. )
G20     ( Units == INCHES.             )
G90     ( Absolute coordinates.        )
S30000  ( RPM spindle speed.           )
M3      ( Spindle on clockwise.        )

G64 P0.00500 ( set maximum deviation from commanded toolpath )

G04 P0 ( dwell for no time -- G64 should not smooth over this point )
G00 Z0.19685 ( retract )

G00 X1.69600 Y-2.75165 ( rapid move to begin. )
G01 Z-0.00591 F39.37008 ( plunge. )
G04 P0 ( dwell for no time -- G64 should not smooth over this point )
X1.69600 Y-2.75165
X1.69600 Y-2.75265
X1.69700 Y-2.75265
X1.69700 Y-2.75365
X1.69800 Y-2.75365
X1.69800 Y-2.75565
X1.69700 Y-2.75565
X1.69700 Y-2.75865
X1.69600 Y-2.75865
X1.69600 Y-2.75965
X1.69500 Y-2.75965
X1.69500 Y-2.76165
X1.69400 Y-2.76165
X1.69400 Y-2.76265
X1.69300 Y-2.76265
X1.69300 Y-2.76465
X1.69200 Y-2.76465
X1.69200 Y-2.76565
X1.69100 Y-2.76565
X1.69100 Y-2.76765
X1.69000 Y-2.76765
X1.69000 Y-2.76865
X1.68900 Y-2.76865
X1.68900 Y-2.77065
X1.68800 Y-2.77065
X1.68800 Y-2.77165
X1.68700 Y-2.77165
X1.68700 Y-2.77365
X1.68600 Y-2.77365
X1.68600 Y-2.77465
X1.68500 Y-2.77465
X1.68500 Y-2.77665
X1.68400 Y-2.77665
X1.68400 Y-2.77765
X1.68300 Y-2.77765
X1.68300 Y-2.77965
X1.68200 Y-2.77965
X1.68200 Y-2.78065
X1.68100 Y-2.78065
X1.68100 Y-2.78265
X1.68000 Y-2.78265
X1.68000 Y-2.78365
X1.67900 Y-2.78365
X1.67900 Y-2.78565
X1.67800 Y-2.78565
X1.67800 Y-2.78665
X1.67700 Y-2.78665
X1.67700 Y-2.78865
X1.67600 Y-2.78865
X1.67600 Y-2.78965
X1.67500 Y-2.78965
X1.67500 Y-2.79165
X1.67400 Y-2.79165
X1.67400 Y-2.79265
X1.67300 Y-2.79265
X1.67300 Y-2.79465
X1.67200 Y-2.79465
X1.67200 Y-2.79565
X1.67100 Y-2.79565
X1.67100 Y-2.79765
X1.67000 Y-2.79765
X1.67000 Y-2.79865
X1.66900 Y-2.79865
X1.66900 Y-2.80065
X1.66800 Y-2.80065
X1.66800 Y-2.80165
X1.66700 Y-2.80165
X1.66700 Y-2.80365
X1.66600 Y-2.80365
X1.66600 Y-2.80465
X1.66500 Y-2.80465
X1.66500 Y-2.80665
X1.66400 Y-2.80665
X1.66400 Y-2.80765
X1.66300 Y-2.80765
X1.66300 Y-2.80865
X1.66200 Y-2.80865
X1.66200 Y-2.80965
X1.65700 Y-2.80965
X1.65700 Y-2.80865
X1.65600 Y-2.80865
X1.65600 Y-2.80665
X1.65500 Y-2.80665
X1.65500 Y-2.80365
X1.65600 Y-2.80365
X1.65600 Y-2.80165
X1.65700 Y-2.80165
X1.65700 Y-2.79965
X1.65800 Y-2.79965
X1.65800 Y-2.79865
X1.65900 Y-2.79865
X1.65900 Y-2.79665
X1.66000 Y-2.79665
X1.66000 Y-2.79565
X1.66100 Y-2.79565
X1.66100 Y-2.79365
X1.66200 Y-2.79365
X1.66200 Y-2.79265
X1.66300 Y-2.79265
X1.66300 Y-2.79065
X1.66400 Y-2.79065
X1.66400 Y-2.78965
X1.66500 Y-2.78965
X1.66500 Y-2.78765
X1.66600 Y-2.78765
X1.66600 Y-2.78665
X1.66700 Y-2.78665
X1.66700 Y-2.78465
X1.66800 Y-2.78465
X1.66800 Y-2.78365
X1.66900 Y-2.78365
X1.66900 Y-2.78165
X1.67000 Y-2.78165
X1.67000 Y-2.78065
X1.67100 Y-2.78065
X1.67100 Y-2.77865
X1.67200 Y-2.77865
X1.67200 Y-2.77765
X1.67300 Y-2.77765
X1.67300 Y-2.77565
X1.67400 Y-2.77565
X1.67400 Y-2.77465
X1.67500 Y-2.77465
X1.67500 Y-2.77265
X1.67600 Y-2.77265
X1.67600 Y-2.77165
X1.67700 Y-2.77165
X1.67700 Y-2.76965
X1.67800 Y-2.76965
X1.67800 Y-2.76865
X1.67900 Y-2.76865
X1.67900 Y-2.76665
X1.68000 Y-2.76665
X1.68000 Y-2.76565
X1.68100 Y-2.76565
X1.68100 Y-2.76365
X1.68200 Y-2.76365
X1.68200 Y-2.76265
X1.68300 Y-2.76265
X1.68300 Y-2.76065
X1.68400 Y-2.76065
X1.68400 Y-2.75965
X1.68500 Y-2.75965
X1.68500 Y-2.75765
X1.68600 Y-2.75765
X1.68600 Y-2.75665
X1.68700 Y-2.75665
X1.68700 Y-2.75465
X1.68800 Y-2.75465
X1.68800 Y-2.75365
X1.68900 Y-2.75365
X1.68900 Y-2.75165
X1.69000 Y-2.75165
X1.69000 Y-2.75065
X1.69600 Y-2.75065
X1.69600 Y-2.75165
G04 P0 ( dwell for no time -- G64 should not smooth over this point )
G00 Z0.19685 ( retract )

G00 X1.77500 Y-2.75165 ( rapid move to begin. )
G01 Z-0.00591 F39.37008 ( plunge. )
G04 P0 ( dwell for no time -- G64 should not smooth over this point )
X1.77500 Y-2.75165
X1.77500 Y-2.75265
X1.77600 Y-2.75265
X1.77600 Y-2.75765
X1.77500 Y-2.75765
X1.77500 Y-2.75965
X1.77400 Y-2.75965
X1.77400 Y-2.76065
X1.77300 Y-2.76065
X1.77300 Y-2.76265
X1.77200 Y-2.76265
X1.77200 Y-2.76365
X1.77100 Y-2.76365
X1.77100 Y-2.76565
X1.77000 Y-2.76565
X1.77000 Y-2.76665
X1.76900 Y-2.76665
X1.76900 Y-2.76865
X1.76800 Y-2.76865
X1.76800 Y-2.76965
X1.76700 Y-2.76965
X1.76700 Y-2.77165
X1.76600 Y-2.77165
X1.76600 Y-2.77265
X1.76500 Y-2.77265
X1.76500 Y-2.77465
X1.76400 Y-2.77465
X1.76400 Y-2.77565
X1.76300 Y-2.77565
X1.76300 Y-2.77765
X1.76200 Y-2.77765
X1.76200 Y-2.77865
X1.76100 Y-2.77865
X1.76100 Y-2.78065
X1.76000 Y-2.78065
X1.76000 Y-2.78165
X1.75900 Y-2.78165
X1.75900 Y-2.78365
X1.75800 Y-2.78365
X1.75800 Y-2.78465
X1.75700 Y-2.78465
X1.75700 Y-2.78665
X1.75600 Y-2.78665
X1.75600 Y-2.78765
X1.75500 Y-2.78765
X1.75500 Y-2.78965
X1.75400 Y-2.78965
X1.75400 Y-2.79065
X1.75300 Y-2.79065
X1.75300 Y-2.79265
X1.75200 Y-2.79265
X1.75200 Y-2.79365
X1.75100 Y-2.79365
X1.75100 Y-2.79565
X1.75000 Y-2.79565
X1.75000 Y-2.79665
X1.74900 Y-2.79665
X1.74900 Y-2.79865
X1.74800 Y-2.79865
X1.74800 Y-2.79965
X1.74700 Y-2.79965
X1.74700 Y-2.80165
X1.74600 Y-2.80165
X1.74600 Y-2.80265
X1.74500 Y-2.80265
X1.74500 Y-2.80465
X1.74400 Y-2.80465
X1.74400 Y-2.80565
X1.74300 Y-2.80565
X1.74300 Y-2.80765
X1.74200 Y-2.80765
X1.74200 Y-2.80865
X1.74100 Y-2.80865
X1.74100 Y-2.80965
X1.73600 Y-2.80965
X1.73600 Y-2.80865
X1.73500 Y-2.80865
X1.73500 Y-2.80665
X1.73400 Y-2.80665
X1.73400 Y-2.80265
X1.73500 Y-2.80265
X1.73500 Y-2.80065
X1.73600 Y-2.80065
X1.73600 Y-2.79965
X1.73700 Y-2.79965
X1.73700 Y-2.79765
X1.73800 Y-2.79765
X1.73800 Y-2.79665
X1.73900 Y-2.79665
X1.73900 Y-2.79465
X1.74000 Y-2.79465
X1.74000 Y-2.79365
X1.74100 Y-2.79365
X1.74100 Y-2.79165
X1.74200 Y-2.79165
X1.74200 Y-2.79065
X1.74300 Y-2.79065
X1.74300 Y-2.78865
X1.74400 Y-2.78865
X1.74400 Y-2.78765
X1.74500 Y-2.78765
X1.74500 Y-2.78565
X1.74600 Y-2.78565
X1.74600 Y-2.78465
X1.74700 Y-2.78465
X1.74700 Y-2.78265
X1.74800 Y-2.78265
X1.74800 Y-2.78165
X1.74900 Y-2.78165
X1.74900 Y-2.77965
X1.75000 Y-2.77965
X1.75000 Y-2.77865
X1.75100 Y-2.77865
X1.75100 Y-2.77665
X1.75200 Y-2.77665
X1.75200 Y-2.77565
X1.75300 Y-2.77565
X1.75300 Y-2.77365
X1.75400 Y-2.77365
X1.75400 Y-2.77265
X1.75500 Y-2.77265
X1.75500 Y-2.77065
X1.75600 Y-2.77065
X1.75600 Y-2.76965
X1.75700 Y-2.76965
X1.75700 Y-2.76765
X1.75800 Y-2.76765
X1.75800 Y-2.76665
X1.75900 Y-2.76665
X1.75900 Y-2.76465
X1.76000 Y-2.76465
X1.76000 Y-2.76365
X1.76100 Y-2.76365
X1.76100 Y-2.76165
X1.76200 Y-2.76165
X1.76200 Y-2.76065
X1.76300 Y-2.76065
X1.76300 Y-2.75865
X1.76400 Y-2.75865
X1.76400 Y-2.75765
X1.76500 Y-2.75765
X1.76500 Y-2.75565
X1.76600 Y-2.75565
X1.76600 Y-2.75465
X1.76700 Y-2.75465
X1.76700 Y-2.75265
X1.76800 Y-2.75265
X1.76800 Y-2.75165
X1.76900 Y-2.75165
X1.76900 Y-2.75065
X1.77500 Y-2.75065
X1.77500 Y-2.75165
G04 P0 ( dwell for no time -- G64 should not smooth over this point )
G00 Z0.19685 ( retract )

G00 X1.64100 Y-2.75265 ( rapid move to begin. )
G01 Z-0.00591 F39.37008 ( plunge. )
G04 P0 ( dwell for no time -- G64 should not smooth over this point )
X1.64100 Y-2.75265
X1.64400 Y-2.75265
X1.64400 Y-2.75365
X1.64600 Y-2.75365
X1.64600 Y-2.75465
X1.64700 Y-2.75465
X1.64700 Y-2.75565
X1.64900 Y-2.75565
X1.64900 Y-2.75665
X1.65000 Y-2.75665
X1.65000 Y-2.75865
X1.65100 Y-2.75865
X1.65100 Y-2.76065
X1.65200 Y-2.76065
X1.65200 Y-2.76265
X1.65300 Y-2.76265
X1.65300 Y-2.77965
X1.65200 Y-2.77965
X1.65200 Y-2.78465
X1.65100 Y-2.78465
X1.65100 Y-2.78765
X1.65000 Y-2.78765
X1.65000 Y-2.79065
X1.64900 Y-2.79065
X1.64900 Y-2.79165
X1.64800 Y-2.79165
X1.64800 Y-2.79365
X1.64700 Y-2.79365
X1.64700 Y-2.79465
X1.64600 Y-2.79465
X1.64600 Y-2.79565
X1.64500 Y-2.79565
X1.64500 Y-2.79665
X1.64400 Y-2.79665
X1.64400 Y-2.79765
X1.64300 Y-2.79765
X1.64300 Y-2.79865
X1.64100 Y-2.79865
X1.64100 Y-2.79965
X1.63800 Y-2.79965
X1.63800 Y-2.80065
X1.62800 Y-2.80065
X1.62800 Y-2.79965
X1.62700 Y-2.79965
X1.62700 Y-2.79865
X1.62600 Y-2.79865
X1.62600 Y-2.79765
X1.62500 Y-2.79765
X1.62500 Y-2.79465
X1.62600 Y-2.79465
X1.62600 Y-2.79265
X1.62700 Y-2.79265
X1.62700 Y-2.79165
X1.63600 Y-2.79165
X1.63600 Y-2.79065
X1.63800 Y-2.79065
X1.63800 Y-2.78965
X1.63900 Y-2.78965
X1.63900 Y-2.78865
X1.64000 Y-2.78865
X1.64000 Y-2.78665
X1.64100 Y-2.78665
X1.64100 Y-2.78565
X1.64200 Y-2.78565
X1.64200 Y-2.78565
X1.63200 Y-2.78565
X1.63200 Y-2.78465
X1.62900 Y-2.78465
X1.62900 Y-2.78365
X1.62700 Y-2.78365
X1.62700 Y-2.78265
X1.62600 Y-2.78265
X1.62600 Y-2.78165
X1.62500 Y-2.78165
X1.62500 Y-2.78065
X1.62400 Y-2.78065
X1.62400 Y-2.77965
X1.62300 Y-2.77965
X1.62300 Y-2.77765
X1.62200 Y-2.77765
X1.62200 Y-2.77465
X1.62100 Y-2.77465
X1.62100 Y-2.76365
X1.62200 Y-2.76365
X1.62200 Y-2.76065
X1.62300 Y-2.76065
X1.62300 Y-2.75865
X1.62400 Y-2.75865
X1.62400 Y-2.75665
X1.62500 Y-2.75665
X1.62500 Y-2.75565
X1.62600 Y-2.75565
X1.62600 Y-2.75465
X1.62800 Y-2.75465
X1.62800 Y-2.75365
X1.63000 Y-2.75365
X1.63000 Y-2.75265
X1.63300 Y-2.75265
X1.63300 Y-2.75165
X1.64100 Y-2.75165
X1.64100 Y-2.75265
G04 P0 ( dwell for no time -- G64 should not smooth over this point )
G00 Z0.19685 ( retract )

G00 X1.72000 Y-2.75265 ( rapid move to begin. )
G01 Z-0.00591 F39.37008 ( plunge. )
G04 P0 ( dwell for no time -- G64 should not smooth over this point )
X1.72000 Y-2.75265
X1.72300 Y-2.75265
X1.72300 Y-2.75365
X1.72500 Y-2.75365
X1.72500 Y-2.75465
X1.72600 Y-2.75465
X1.72600 Y-2.75565
X1.72700 Y-2.75565
X1.72700 Y-2.75665
X1.72800 Y-2.75665
X1.72800 Y-2.75765
X1.72900 Y-2.75765
X1.72900 Y-2.75865
X1.73000 Y-2.75865
X1.73000 Y-2.76065
X1.73100 Y-2.76065
X1.73100 Y-2.78365
X1.73000 Y-2.78365
X1.73000 Y-2.78765
X1.72900 Y-2.78765
X1.72900 Y-2.78965
X1.72800 Y-2.78965
X1.72800 Y-2.79165
X1.72700 Y-2.79165
X1.72700 Y-2.79265
X1.72600 Y-2.79265
X1.72600 Y-2.79465
X1.72500 Y-2.79465
X1.72500 Y-2.79565
X1.72400 Y-2.79565
X1.72400 Y-2.79665
X1.72300 Y-2.79665
X1.72300 Y-2.79765
X1.72200 Y-2.79765
X1.72200 Y-2.79865
X1.72000 Y-2.79865
X1.72000 Y-2.79965
X1.71700 Y-2.79965
X1.71700 Y-2.80065
X1.70700 Y-2.80065
X1.70700 Y-2.79965
X1.70500 Y-2.79965
X1.70500 Y-2.79765
X1.70400 Y-2.79765
X1.70400 Y-2.79465
X1.70500 Y-2.79465
X1.70500 Y-2.79265
X1.70600 Y-2.79265
X1.70600 Y-2.79165
X1.71500 Y-2.79165
X1.71500 Y-2.79065
X1.71700 Y-2.79065
X1.71700 Y-2.78965
X1.71800 Y-2.78965
X1.71800 Y-2.78865
X1.71900 Y-2.78865
X1.71900 Y-2.78665
X1.72000 Y-2.78665
X1.72000 Y-2.78565
X1.72100 Y-2.78565
X1.72100 Y-2.78565
X1.71000 Y-2.78565
X1.71000 Y-2.78465
X1.70800 Y-2.78465
X1.70800 Y-2.78365
X1.70600 Y-2.78365
X1.70600 Y-2.78265
X1.70500 Y-2.78265
X1.70500 Y-2.78165
X1.70400 Y-2.78165
X1.70400 Y-2.78065
X1.70300 Y-2.78065
X1.70300 Y-2.77965
X1.70200 Y-2.77965
X1.70200 Y-2.77765
X1.70100 Y-2.77765
X1.70100 Y-2.77565
X1.70000 Y-2.77565
X1.70000 Y-2.76265
X1.70100 Y-2.76265
X1.70100 Y-2.75965
X1.70200 Y-2.75965
X1.70200 Y-2.75865
X1.70300 Y-2.75865
X1.70300 Y-2.75665
X1.70400 Y-2.75665
X1.70400 Y-2.75565
X1.70500 Y-2.75565
X1.70500 Y-2.75465
X1.70700 Y-2.75465
X1.70700 Y-2.75365
X1.70800 Y-2.75365
X1.70800 Y-2.75265
X1.71100 Y-2.75265
X1.71100 Y-2.75165
X1.72000 Y-2.75165
X1.72000 Y-2.75265
G04 P0 ( dwell for no time -- G64 should not smooth over this point )
G00 Z0.19685 ( retract )

G00 X1.79900 Y-2.75265 ( rapid move to begin. )
G01 Z-0.00591 F39.37008 ( plunge. )
G04 P0 ( dwell for no time -- G64 should not smooth over this point )
X1.79900 Y-2.75265
X1.80200 Y-2.75265
X1.80200 Y-2.75365
X1.80400 Y-2.75365
X1.80400 Y-2.75465
X1.80500 Y-2.75465
X1.80500 Y-2.75565
X1.80600 Y-2.75565
X1.80600 Y-2.75665
X1.80700 Y-2.75665
X1.80700 Y-2.75765
X1.80800 Y-2.75765
X1.80800 Y-2.75965
X1.80900 Y-2.75965
X1.80900 Y-2.76165
X1.81000 Y-2.76165
X1.81000 Y-2.77065
X1.80900 Y-2.77065
X1.80900 Y-2.77365
X1.80800 Y-2.77365
X1.80800 Y-2.77565
X1.80700 Y-2.77565
X1.80700 Y-2.77765
X1.80600 Y-2.77765
X1.80600 Y-2.77865
X1.80500 Y-2.77865
X1.80500 Y-2.77965
X1.80400 Y-2.77965
X1.80400 Y-2.78065
X1.80300 Y-2.78065
X1.80300 Y-2.78165
X1.80200 Y-2.78165
X1.80200 Y-2.78265
X1.80100 Y-2.78265
X1.80100 Y-2.78365
X1.80000 Y-2.78365
X1.80000 Y-2.78465
X1.79900 Y-2.78465
X1.79900 Y-2.78565
X1.79800 Y-2.78565
X1.79800 Y-2.78665
X1.79700 Y-2.78665
X1.79700 Y-2.78765
X1.79600 Y-2.78765
X1.79600 Y-2.78865
X1.79500 Y-2.78865
X1.79500 Y-2.78965
X1.79400 Y-2.78965
X1.79400 Y-2.79065
X1.79300 Y-2.79065
X1.79300 Y-2.79165
X1.80800 Y-2.79165
X1.80800 Y-2.79265
X1.80900 Y-2.79265
X1.80900 Y-2.79465
X1.81000 Y-2.79465
X1.81000 Y-2.79765
X1.80900 Y-2.79765
X1.80900 Y-2.79965
X1.80700 Y-2.79965
X1.80700 Y-2.80065
X1.78000 Y-2.80065
X1.78000 Y-2.79965
X1.77800 Y-2.79965
X1.77800 Y-2.79765
X1.77700 Y-2.79765
X1.77700 Y-2.79365
X1.77800 Y-2.79365
X1.77800 Y-2.79265
X1.77900 Y-2.79265
X1.77900 Y-2.79165
X1.78000 Y-2.79165
X1.78000 Y-2.79065
X1.78100 Y-2.79065
X1.78100 Y-2.78965
X1.78200 Y-2.78965
X1.78200 Y-2.78865
X1.78300 Y-2.78865
X1.78300 Y-2.78765
X1.78400 Y-2.78765
X1.78400 Y-2.78665
X1.78500 Y-2.78665
X1.78500 Y-2.78565
X1.78600 Y-2.78565
X1.78600 Y-2.78465
X1.78700 Y-2.78465
X1.78700 Y-2.78365
X1.78800 Y-2.78365
X1.78800 Y-2.78265
X1.78900 Y-2.78265
X1.78900 Y-2.78165
X1.79000 Y-2.78165
X1.79000 Y-2.78065
X1.79100 Y-2.78065
X1.79100 Y-2.77965
X1.79200 Y-2.77965
X1.79200 Y-2.77865
X1.79300 Y-2.77865
X1.79300 Y-2.77765
X1.79400 Y-2.77765
X1.79400 Y-2.77665
X1.79500 Y-2.77665
X1.79500 Y-2.77565
X1.79600 Y-2.77565
X1.79600 Y-2.77465
X1.79700 Y-2.77465
X1.79700 Y-2.77365
X1.79800 Y-2.77365
X1.79800 Y-2.77265
X1.79900 Y-2.77265
X1.79900 Y-2.77165
X1.80000 Y-2.77165
X1.80000 Y-2.76865
X1.80100 Y-2.76865
X1.80100 Y-2.76365
X1.80000 Y-2.76365
X1.80000 Y-2.76265
X1.79900 Y-2.76265
X1.79900 Y-2.76165
X1.79700 Y-2.76165
X1.79700 Y-2.76065
X1.79000 Y-2.76065
X1.79000 Y-2.76165
X1.78800 Y-2.76165
X1.78800 Y-2.76265
X1.78700 Y-2.76265
X1.78700 Y-2.76365
X1.78600 Y-2.76365
X1.78600 Y-2.76465
X1.78100 Y-2.76465
X1.78100 Y-2.76365
X1.78000 Y-2.76365
X1.78000 Y-2.76165
X1.77900 Y-2.76165
X1.77900 Y-2.75865
X1.78000 Y-2.75865
X1.78000 Y-2.75665
X1.78100 Y-2.75665
X1.78100 Y-2.75565
X1.78200 Y-2.75565
X1.78200 Y-2.75465
X1.78300 Y-2.75465
X1.78300 Y-2.75365
X1.78500 Y-2.75365
X1.78500 Y-2.75265
X1.78800 Y-2.75265
X1.78800 Y-2.75165
X1.79900 Y-2.75165
X1.79900 Y-2.75265
G04 P0 ( dwell for no time -- G64 should not smooth over this point )
G00 Z0.19685 ( retract )

G00 X1.83400 Y-2.75265 ( rapid move to begin. )
G01 Z-0.00591 F39.37008 ( plunge. )
G04 P0 ( dwell for no time -- G64 should not smooth over this point )
X1.83400 Y-2.75265
X1.83700 Y-2.75265
X1.83700 Y-2.75365
X1.83900 Y-2.75365
X1.83900 Y-2.75465
X1.84000 Y-2.75465
X1.84000 Y-2.75565
X1.84200 Y-2.75565
X1.84200 Y-2.75665
X1.84300 Y-2.75665
X1.84300 Y-2.75865
X1.84400 Y-2.75865
X1.84400 Y-2.75965
X1.84500 Y-2.75965
X1.84500 Y-2.76265
X1.84600 Y-2.76265
X1.84600 Y-2.76565
X1.84700 Y-2.76565
X1.84700 Y-2.76965
X1.84800 Y-2.76965
X1.84800 Y-2.78165
X1.84700 Y-2.78165
X1.84700 Y-2.78665
X1.84600 Y-2.78665
X1.84600 Y-2.78965
X1.84500 Y-2.78965
X1.84500 Y-2.79265
X1.84400 Y-2.79265
X1.84400 Y-2.79465
X1.84300 Y-2.79465
X1.84300 Y-2.79565
X1.84200 Y-2.79565
X1.84200 Y-2.79665
X1.84100 Y-2.79665
X1.84100 Y-2.79765
X1.84000 Y-2.79765
X1.84000 Y-2.79865
X1.83800 Y-2.79865
X1.83800 Y-2.79965
X1.83500 Y-2.79965
X1.83500 Y-2.80065
X1.82900 Y-2.80065
X1.82900 Y-2.79965
X1.82600 Y-2.79965
X1.82600 Y-2.79865
X1.82400 Y-2.79865
X1.82400 Y-2.79765
X1.82300 Y-2.79765
X1.82300 Y-2.79665
X1.82200 Y-2.79665
X1.82200 Y-2.79565
X1.82100 Y-2.79565
X1.82100 Y-2.79465
X1.82000 Y-2.79465
X1.82000 Y-2.79265
X1.81900 Y-2.79265
X1.81900 Y-2.79065
X1.81800 Y-2.79065
X1.81800 Y-2.78665
X1.81700 Y-2.78665
X1.81700 Y-2.78265
X1.81600 Y-2.78265
X1.81600 Y-2.76965
X1.81700 Y-2.76965
X1.81700 Y-2.76565
X1.81800 Y-2.76565
X1.81800 Y-2.76265
X1.81900 Y-2.76265
X1.81900 Y-2.75965
X1.82000 Y-2.75965
X1.82000 Y-2.75865
X1.82100 Y-2.75865
X1.82100 Y-2.75665
X1.82200 Y-2.75665
X1.82200 Y-2.75565
X1.82300 Y-2.75565
X1.82300 Y-2.75465
X1.82500 Y-2.75465
X1.82500 Y-2.75365
X1.82700 Y-2.75365
X1.82700 Y-2.75265
X1.83000 Y-2.75265
X1.83000 Y-2.75165
X1.83400 Y-2.75165
X1.83400 Y-2.75265
G04 P0 ( dwell for no time -- G64 should not smooth over this point )
G00 Z0.19685 ( retract )

G00 X1.91900 Y-2.75265 ( rapid move to begin. )
G01 Z-0.00591 F39.37008 ( plunge. )
G04 P0 ( dwell for no time -- G64 should not smooth over this point )
X1.91900 Y-2.75265
X1.92100 Y-2.75265
X1.92100 Y-2.75365
X1.92200 Y-2.75365
X1.92200 Y-2.75565
X1.92300 Y-2.75565
X1.92300 Y-2.75765
X1.92200 Y-2.75765
X1.92200 Y-2.75965
X1.92100 Y-2.75965
X1.92100 Y-2.76065
X1.92000 Y-2.76065
X1.92000 Y-2.76265
X1.91900 Y-2.76265
X1.91900 Y-2.76365
X1.91800 Y-2.76365
X1.91800 Y-2.76465
X1.91700 Y-2.76465
X1.91700 Y-2.76565
X1.91600 Y-2.76565
X1.91600 Y-2.76665
X1.91500 Y-2.76665
X1.91500 Y-2.76765
X1.91400 Y-2.76765
X1.91400 Y-2.76865
X1.91600 Y-2.76865
X1.91600 Y-2.76965
X1.91700 Y-2.76965
X1.91700 Y-2.77065
X1.91900 Y-2.77065
X1.91900 Y-2.77165
X1.92000 Y-2.77165
X1.92000 Y-2.77365
X1.92100 Y-2.77365
X1.92100 Y-2.77565
X1.92200 Y-2.77565
X1.92200 Y-2.77765
X1.92300 Y-2.77765
X1.92300 Y-2.78965
X1.92200 Y-2.78965
X1.92200 Y-2.79265
X1.92100 Y-2.79265
X1.92100 Y-2.79465
X1.92000 Y-2.79465
X1.92000 Y-2.79565
X1.91900 Y-2.79565
X1.91900 Y-2.79665
X1.91800 Y-2.79665
X1.91800 Y-2.79765
X1.91700 Y-2.79765
X1.91700 Y-2.79865
X1.91500 Y-2.79865
X1.91500 Y-2.79965
X1.91200 Y-2.79965
X1.91200 Y-2.80065
X1.89800 Y-2.80065
X1.89800 Y-2.79965
X1.89600 Y-2.79965
X1.89600 Y-2.79865
X1.89400 Y-2.79865
X1.89400 Y-2.79765
X1.89200 Y-2.79765
X1.89200 Y-2.79665
X1.89100 Y-2.79665
X1.89100 Y-2.79465
X1.89000 Y-2.79465
X1.89000 Y-2.78965
X1.89100 Y-2.78965
X1.89100 Y-2.78865
X1.89700 Y-2.78865
X1.89700 Y-2.78965
X1.89800 Y-2.78965
X1.89800 Y-2.79065
X1.90000 Y-2.79065
X1.90000 Y-2.79165
X1.91000 Y-2.79165
X1.91000 Y-2.79065
X1.91200 Y-2.79065
X1.91200 Y-2.78965
X1.91300 Y-2.78965
X1.91300 Y-2.78765
X1.91400 Y-2.78765
X1.91400 Y-2.77965
X1.91300 Y-2.77965
X1.91300 Y-2.77765
X1.91200 Y-2.77765
X1.91200 Y-2.77665
X1.91000 Y-2.77665
X1.91000 Y-2.77565
X1.90200 Y-2.77565
X1.90200 Y-2.77365
X1.90100 Y-2.77365
X1.90100 Y-2.76865
X1.90200 Y-2.76865
X1.90200 Y-2.76765
X1.90300 Y-2.76765
X1.90300 Y-2.76665
X1.90400 Y-2.76665
X1.90400 Y-2.76465
X1.90500 Y-2.76465
X1.90500 Y-2.76365
X1.90600 Y-2.76365
X1.90600 Y-2.76265
X1.90700 Y-2.76265
X1.90700 Y-2.76165
X1.90800 Y-2.76165
X1.90800 Y-2.76065
X1.89100 Y-2.76065
X1.89100 Y-2.75865
X1.89000 Y-2.75865
X1.89000 Y-2.75765
X1.88900 Y-2.75765
X1.88900 Y-2.75565
X1.89000 Y-2.75565
X1.89000 Y-2.75465
X1.89100 Y-2.75465
X1.89100 Y-2.75265
X1.89300 Y-2.75265
X1.89300 Y-2.75165
X1.91900 Y-2.75165
X1.91900 Y-2.75265
G04 P0 ( dwell for no time -- G64 should not smooth over this point )
G00 Z0.19685 ( retract )

G00 X1.87200 Y-2.75365 ( rapid move to begin. )
G01 Z-0.00591 F39.37008 ( plunge. )
G04 P0 ( dwell for no time -- G64 should not smooth over this point )
X1.87200 Y-2.75365
X1.87300 Y-2.75365
X1.87300 Y-2.75565
X1.87400 Y-2.75565
X1.87400 Y-2.79165
X1.88300 Y-2.79165
X1.88300 Y-2.79265
X1.88400 Y-2.79265
X1.88400 Y-2.79465
X1.88500 Y-2.79465
X1.88500 Y-2.79765
X1.88400 Y-2.79765
X1.88400 Y-2.79965
X1.88200 Y-2.79965
X1.88200 Y-2.80065
X1.85700 Y-2.80065
X1.85700 Y-2.79965
X1.85500 Y-2.79965
X1.85500 Y-2.79765
X1.85400 Y-2.79765
X1.85400 Y-2.79465
X1.85500 Y-2.79465
X1.85500 Y-2.79265
X1.85600 Y-2.79265
X1.85600 Y-2.79165
X1.86500 Y-2.79165
X1.86500 Y-2.76965
X1.86400 Y-2.76965
X1.86400 Y-2.77065
X1.86200 Y-2.77065
X1.86200 Y-2.77165
X1.85500 Y-2.77165
X1.85500 Y-2.76965
X1.85400 Y-2.76965
X1.85400 Y-2.76665
X1.85500 Y-2.76665
X1.85500 Y-2.76465
X1.85600 Y-2.76465
X1.85600 Y-2.76365
X1.85700 Y-2.76365
X1.85700 Y-2.76265
X1.85900 Y-2.76265
X1.85900 Y-2.76165
X1.86000 Y-2.76165
X1.86000 Y-2.76065
X1.86100 Y-2.76065
X1.86100 Y-2.75965
X1.86200 Y-2.75965
X1.86200 Y-2.75865
X1.86300 Y-2.75865
X1.86300 Y-2.75765
X1.86400 Y-2.75765
X1.86400 Y-2.75565
X1.86500 Y-2.75565
X1.86500 Y-2.75365
X1.86600 Y-2.75365
X1.86600 Y-2.75265
X1.87200 Y-2.75265
X1.87200 Y-2.75365
G04 P0 ( dwell for no time -- G64 should not smooth over this point )
G00 Z0.19685 ( retract )

G00 X3.22300 Y-2.79665 ( rapid move to begin. )
G01 Z-0.00591 F39.37008 ( plunge. )
G04 P0 ( dwell for no time -- G64 should not smooth over this point )
X3.22300 Y-2.79665
X3.22500 Y-2.79665
X3.22500 Y-2.79765
X3.22700 Y-2.79765
X3.22700 Y-2.79865
X3.22800 Y-2.79865
X3.22800 Y-2.79965
X3.23000 Y-2.79965
X3.23000 Y-2.80065
X3.23200 Y-2.80065
X3.23200 Y-2.80165
X3.23300 Y-2.80165
X3.23300 Y-2.80265
X3.23400 Y-2.80265
X3.23400 Y-2.80365
X3.23500 Y-2.80365
X3.23500 Y-2.80465
X3.23600 Y-2.80465
X3.23600 Y-2.80565
X3.23700 Y-2.80565
X3.23700 Y-2.80665
X3.23800 Y-2.80665
X3.23800 Y-2.80765
X3.23900 Y-2.80765
X3.23900 Y-2.80965
X3.24000 Y-2.80965
X3.24000 Y-2.81065
X3.24100 Y-2.81065
X3.24100 Y-2.81165
X3.24200 Y-2.81165
X3.24200 Y-2.81265
X3.24300 Y-2.81265
X3.24300 Y-2.81365
X3.24400 Y-2.81365
X3.24400 Y-2.81465
X3.24500 Y-2.81465
X3.24500 Y-2.81565
X3.24600 Y-2.81565
X3.24600 Y-2.81665
X3.24700 Y-2.81665
X3.24700 Y-2.81765
X3.24800 Y-2.81765
X3.24800 Y-2.81865
X3.24900 Y-2.81865
X3.24900 Y-2.81965
X3.25000 Y-2.81965
X3.25000 Y-2.82065
X3.25100 Y-2.82065
X3.25100 Y-2.82165
X3.25200 Y-2.82165
X3.25200 Y-2.82265
X3.25300 Y-2.82265
X3.25300 Y-2.82365
X3.25400 Y-2.82365
X3.25400 Y-2.82465
X3.25500 Y-2.82465
X3.25500 Y-2.82565
X3.25600 Y-2.82565
X3.25600 Y-2.82665
X3.25700 Y-2.82665
X3.25700 Y-2.82765
X3.25800 Y-2.82765
X3.25800 Y-2.82865
X3.25900 Y-2.82865
X3.25900 Y-2.82965
X3.26000 Y-2.82965
X3.26000 Y-2.83065
X3.26100 Y-2.83065
X3.26100 Y-2.83165
X3.26200 Y-2.83165
X3.26200 Y-2.83265
X3.26300 Y-2.83265
X3.26300 Y-2.83365
X3.26400 Y-2.83365
X3.26400 Y-2.83465
X3.26500 Y-2.83465
X3.26500 Y-2.83565
X3.26600 Y-2.83565
X3.26600 Y-2.83665
X3.26700 Y-2.83665
X3.26700 Y-2.83765
X3.26800 Y-2.83765
X3.26800 Y-2.83865
X3.26900 Y-2.83865
X3.26900 Y-2.83965
X3.27000 Y-2.83965
X3.27000 Y-2.84065
X3.27100 Y-2.84065
X3.27100 Y-2.84165
X3.27200 Y-2.84165
X3.27200 Y-2.84265
X3.27300 Y-2.84265
X3.27300 Y-2.84365
X3.27400 Y-2.84365
X3.27400 Y-2.84465
X3.27500 Y-2.84465
X3.27500 Y-2.84565
X3.27600 Y-2.84565
X3.27600 Y-2.84665
X3.27700 Y-2.84665
X3.27700 Y-2.84765
X3.27800 Y-2.84765
X3.27800 Y-2.84865
X3.27900 Y-2.84865
X3.27900 Y-2.84965
X3.28000 Y-2.84965
X3.28000 Y-2.85065
X3.28100 Y-2.85065
X3.28100 Y-2.85165
X3.28200 Y-2.85165
X3.28200 Y-2.85265
X3.28300 Y-2.85265
X3.28300 Y-2.85365
X3.28400 Y-2.85365
X3.28400 Y-2.85465
X3.28500 Y-2.85465
X3.28500 Y-2.85565
X3.28600 Y-2.85565
X3.28600 Y-2.85665
X3.28700 Y-2.85665
X3.28700 Y-2.85765
X3.28800 Y-2.85765
X3.28800 Y-2.85865
X3.28900 Y-2.85865
X3.28900 Y-2.85965
X3.29000 Y-2.85965
X3.29000 Y-2.86065
X3.29100 Y-2.86065
X3.29100 Y-2.86165
X3.29200 Y-2.86165
X3.29200 Y-2.86265
X3.29300 Y-2.86265
X3.29300 Y-2.86365
X3.29400 Y-2.86365
X3.29400 Y-2.86465
X3.29500 Y-2.86465
X3.29500 Y-2.86565
X3.29600 Y-2.86565
X3.29600 Y-2.86665
X3.29700 Y-2.86665
X3.29700 Y-2.86765
X3.29800 Y-2.86765
X3.29800 Y-2.86865
X3.29900 Y-2.86865
X3.29900 Y-2.86965
X3.30000 Y-2.86965
X3.30000 Y-2.87065
X3.30100 Y-2.87065
X3.30100 Y-2.87165
X3.30200 Y-2.87165
X3.30200 Y-2.87265
X3.30300 Y-2.87265
X3.30300 Y-2.87365
X3.30400 Y-2.87365
X3.30400 Y-2.87465
X3.30500 Y-2.87465
X3.30500 Y-2.87565
X3.30600 Y-2.87565
X3.30600 Y-2.87665
X3.30700 Y-2.87665
X3.30700 Y-2.87765
X3.30800 Y-2.87765
X3.30800 Y-2.87865
X3.30900 Y-2.87865
X3.30900 Y-2.87965
X3.31000 Y-2.87965
X3.31000 Y-2.88065
X3.31100 Y-2.88065
X3.31100 Y-2.88165
X3.31200 Y-2.88165
X3.31200 Y-2.88265
X3.31300 Y-2.88265
X3.31300 Y-2.88365
X3.31400 Y-2.88365
X3.31400 Y-2.88465
X3.31500 Y-2.88465
X3.31500 Y-2.88565
X3.31600 Y-2.88565
X3.31600 Y-2.88665
X3.31700 Y-2.88665
X3.31700 Y-2.88765
X3.31800 Y-2.88765
X3.31800 Y-2.88865
X3.31900 Y-2.88865
X3.31900 Y-2.88965
X3.32000 Y-2.88965
X3.32000 Y-2.89065
X3.32100 Y-2.89065
X3.32100 Y-2.89165
X3.32200 Y-2.89165
X3.32200 Y-2.89265
X3.32300 Y-2.89265
X3.32300 Y-2.89365
X3.32400 Y-2.89365
X3.32400 Y-2.89465
X3.32500 Y-2.89465
X3.32500 Y-2.89565
X3.32600 Y-2.89565
X3.32600 Y-2.89665
X3.32700 Y-2.89665
X3.32700 Y-2.89765
X3.32800 Y-2.89765
X3.32800 Y-2.89865
X3.32900 Y-2.89865
X3.32900 Y-2.89965
X3.33000 Y-2.89965
X3.33000 Y-2.90065
X3.33100 Y-2.90065
X3.33100 Y-2.90165
X3.33200 Y-2.90165
X3.33200 Y-2.90265
X3.33300 Y-2.90265
X3.33300 Y-2.90365
X3.33400 Y-2.90365
X3.33400 Y-2.90465
X3.33500 Y-2.90465
X3.33500 Y-2.90565
X3.33600 Y-2.90565
X3.33600 Y-2.90665
X3.33700 Y-2.90665
X3.33700 Y-2.90765
X3.33800 Y-2.90765
X3.33800 Y-2.90865
X3.33900 Y-2.90865
X3.33900 Y-2.90965
X3.34000 Y-2.90965
X3.34000 Y-2.91065
X3.34100 Y-2.91065
X3.34100 Y-2.91165
X3.34200 Y-2.91165
X3.34200 Y-2.91265
X3.34300 Y-2.91265
X3.34300 Y-2.91365
X3.34400 Y-2.91365
X3.34400 Y-2.91465
X3.34500 Y-2.91465
X3.34500 Y-2.91565
X3.34600 Y-2.91565
X3.34600 Y-2.91665
X3.34700 Y-2.91665
X3.34700 Y-2.91765
X3.34800 Y-2.91765
X3.34800 Y-2.91965
X3.34900 Y-2.91965
X3.34900 Y-2.92065
X3.35000 Y-2.92065
X3.35000 Y-2.92265
X3.35100 Y-2.92265
X3.35100 Y-2.92565
X3.35200 Y-2.92565
X3.35200 Y-2.92765
X3.35300 Y-2.92765
X3.35300 Y-2.93165
X3.35400 Y-2.93165
X3.35400 Y-2.94265
X3.35500 Y-2.94265
X3.35500 Y-2.95365
X3.35600 Y-2.95365
X3.35600 Y-2.96465
X3.35700 Y-2.96465
X3.35700 Y-2.97565
X3.35800 Y-2.97565
X3.35800 Y-2.98665
X3.35900 Y-2.98665
X3.35900 Y-2.99765
X3.36000 Y-2.99765
X3.36000 Y-3.00865
X3.36100 Y-3.00865
X3.36100 Y-3.01965
X3.36200 Y-3.01965
X3.36200 Y-3.03065
X3.36300 Y-3.03065
X3.36300 Y-3.04165
X3.36400 Y-3.04165
X3.36400 Y-3.05265
X3.36500 Y-3.05265
X3.36500 Y-3.06365
X3.36600 Y-3.06365
X3.36600 Y-3.07465
X3.36700 Y-3.07465
X3.36700 Y-3.08565
X3.36800 Y-3.08565
X3.36800 Y-3.09665
X3.36900 Y-3.09665
X3.36900 Y-3.10765
X3.37000 Y-3.10765
X3.37000 Y-3.11865
X3.37100 Y-3.11865
X3.37100 Y-3.12965
X3.37200 Y-3.12965
X3.37200 Y-3.14065
X3.37300 Y-3.14065
X3.37300 Y-3.15165
X3.37400 Y-3.15165
X3.37400 Y-3.16265
X3.37500 Y-3.16265
X3.37500 Y-3.20365
X3.37400 Y-3.20365
X3.37400 Y-3.26665
X3.37300 Y-3.26665
X3.37300 Y-3.33065
X3.37200 Y-3.33065
X3.37200 Y-3.39365
X3.37100 Y-3.39365
X3.37100 Y-3.45765
X3.37000 Y-3.45765
X3.37000 Y-3.52065
X3.36900 Y-3.52065
X3.36900 Y-3.58365
X3.36800 Y-3.58365
X3.36800 Y-3.60365
X3.36700 Y-3.60365
X3.36700 Y-3.60665
X3.36600 Y-3.60665
X3.36600 Y-3.60965
X3.36500 Y-3.60965
X3.36500 Y-3.61265
X3.36400 Y-3.61265
X3.36400 Y-3.61465
X3.36300 Y-3.61465
X3.36300 Y-3.61565
X3.36200 Y-3.61565
X3.36200 Y-3.61665
X3.36100 Y-3.61665
X3.36100 Y-3.61865
X3.36000 Y-3.61865
X3.36000 Y-3.61965
X3.35900 Y-3.61965
X3.35900 Y-3.62065
X3.35800 Y-3.62065
X3.35800 Y-3.62265
X3.35700 Y-3.62265
X3.35700 Y-3.62365
X3.35600 Y-3.62365
X3.35600 Y-3.62465
X3.35500 Y-3.62465
X3.35500 Y-3.62665
X3.35400 Y-3.62665
X3.35400 Y-3.62765
X3.35300 Y-3.62765
X3.35300 Y-3.62865
X3.35200 Y-3.62865
X3.35200 Y-3.63065
X3.35100 Y-3.63065
X3.35100 Y-3.63165
X3.35000 Y-3.63165
X3.35000 Y-3.63265
X3.34900 Y-3.63265
X3.34900 Y-3.63465
X3.34800 Y-3.63465
X3.34800 Y-3.63565
X3.34700 Y-3.63565
X3.34700 Y-3.63665
X3.34600 Y-3.63665
X3.34600 Y-3.63865
X3.34500 Y-3.63865
X3.34500 Y-3.63965
X3.34400 Y-3.63965
X3.34400 Y-3.64065
X3.34300 Y-3.64065
X3.34300 Y-3.64265
X3.34200 Y-3.64265
X3.34200 Y-3.64365
X3.34100 Y-3.64365
X3.34100 Y-3.64465
X3.34000 Y-3.64465
X3.34000 Y-3.64665
X3.33900 Y-3.64665
X3.33900 Y-3.64765
X3.33800 Y-3.64765
X3.33800 Y-3.64865
X3.33700 Y-3.64865
X3.33700 Y-3.65065
X3.33600 Y-3.65065
X3.33600 Y-3.65165
X3.33500 Y-3.65165
X3.33500 Y-3.65265
X3.33400 Y-3.65265
X3.33400 Y-3.65465
X3.33300 Y-3.65465
X3.33300 Y-3.65565
X3.33200 Y-3.65565
X3.33200 Y-3.65665
X3.33100 Y-3.65665
X3.33100 Y-3.65865
X3.33000 Y-3.65865
X3.33000 Y-3.65965
X3.32900 Y-3.65965
X3.32900 Y-3.66065
X3.32800 Y-3.66065
X3.32800 Y-3.66265
X3.32700 Y-3.66265
X3.32700 Y-3.66365
X3.32600 Y-3.66365
X3.32600 Y-3.66465
X3.32500 Y-3.66465
X3.32500 Y-3.66665
X3.32400 Y-3.66665
X3.32400 Y-3.66765
X3.32300 Y-3.66765
X3.32300 Y-3.66865
X3.32200 Y-3.66865
X3.32200 Y-3.67065
X3.32100 Y-3.67065
X3.32100 Y-3.67165
X3.32000 Y-3.67165
X3.32000 Y-3.67265
X3.31900 Y-3.67265
X3.31900 Y-3.67465
X3.31800 Y-3.67465
X3.31800 Y-3.67565
X3.31700 Y-3.67565
X3.31700 Y-3.67665
X3.31600 Y-3.67665
X3.31600 Y-3.67765
X3.31500 Y-3.67765
X3.31500 Y-3.67965
X3.31400 Y-3.67965
X3.31400 Y-3.68065
X3.31300 Y-3.68065
X3.31300 Y-3.68165
X3.31200 Y-3.68165
X3.31200 Y-3.68365
X3.31100 Y-3.68365
X3.31100 Y-3.68465
X3.31000 Y-3.68465
X3.31000 Y-3.68565
X3.30900 Y-3.68565
X3.30900 Y-3.68765
X3.30800 Y-3.68765
X3.30800 Y-3.68865
X3.30700 Y-3.68865
X3.30700 Y-3.68965
X3.30600 Y-3.68965
X3.30600 Y-3.69165
X3.30500 Y-3.69165
X3.30500 Y-3.69265
X3.30400 Y-3.69265
X3.30400 Y-3.69365
X3.30300 Y-3.69365
X3.30300 Y-3.69565
X3.30200 Y-3.69565
X3.30200 Y-3.69665
X3.30100 Y-3.69665
X3.30100 Y-3.69765
X3.30000 Y-3.69765
X3.30000 Y-3.69965
X3.29900 Y-3.69965
X3.29900 Y-3.70065
X3.29800 Y-3.70065
X3.29800 Y-3.70165
X3.29700 Y-3.70165
X3.29700 Y-3.70365
X3.29600 Y-3.70365
X3.29600 Y-3.70465
X3.29500 Y-3.70465
X3.29500 Y-3.70565
X3.29400 Y-3.70565
X3.29400 Y-3.70765
X3.29300 Y-3.70765
X3.29300 Y-3.70865
X3.29200 Y-3.70865
X3.29200 Y-3.70965
X3.29100 Y-3.70965
X3.29100 Y-3.71165
X3.29000 Y-3.71165
X3.29000 Y-3.71265
X3.28900 Y-3.71265
X3.28900 Y-3.71365
X3.28800 Y-3.71365
X3.28800 Y-3.71565
X3.28700 Y-3.71565
X3.28700 Y-3.71665
X3.28600 Y-3.71665
X3.28600 Y-3.71765
X3.28500 Y-3.71765
X3.28500 Y-3.71965
X3.28400 Y-3.71965
X3.28400 Y-3.72065
X3.28300 Y-3.72065
X3.28300 Y-3.72165
X3.28200 Y-3.72165
X3.28200 Y-3.72365
X3.28100 Y-3.72365
X3.28100 Y-3.72465
X3.28000 Y-3.72465
X3.28000 Y-3.72565
X3.27900 Y-3.72565
X3.27900 Y-3.72765
X3.27800 Y-3.72765
X3.27800 Y-3.72865
X3.27700 Y-3.72865
X3.27700 Y-3.72965
X3.27600 Y-3.72965
X3.27600 Y-3.73165
X3.27500 Y-3.73165
X3.27500 Y-3.73265
X3.27400 Y-3.73265
X3.27400 Y-3.73365
X3.27300 Y-3.73365
X3.27300 Y-3.73565
X3.27200 Y-3.73565
X3.27200 Y-3.73665
X3.27100 Y-3.73665
X3.27100 Y-3.73765
X3.27000 Y-3.73765
X3.27000 Y-3.73965
X3.26900 Y-3.73965
X3.26900 Y-3.74065
X3.26800 Y-3.74065
X3.26800 Y-3.74165
X3.26700 Y-3.74165
X3.26700 Y-3.74365
X3.26600 Y-3.74365
X3.26600 Y-3.74465
X3.26500 Y-3.74465
X3.26500 Y-3.74565
X3.26400 Y-3.74565
X3.26400 Y-3.74765
X3.26300 Y-3.74765
X3.26300 Y-3.74865
X3.26200 Y-3.74865
X3.26200 Y-3.74965
X3.26100 Y-3.74965
X3.26100 Y-3.75165
X3.26000 Y-3.75165
X3.26000 Y-3.75265
X3.25900 Y-3.75265
X3.25900 Y-3.75365
X3.25800 Y-3.75365
X3.25800 Y-3.75565
X3.25700 Y-3.75565
X3.25700 Y-3.75665
X3.25600 Y-3.75665
X3.25600 Y-3.75765
X3.25500 Y-3.75765
X3.25500 Y-3.75965
X3.25400 Y-3.75965
X3.25400 Y-3.76065
X3.25300 Y-3.76065
X3.25300 Y-3.76165
X3.25200 Y-3.76165
X3.25200 Y-3.76365
X3.25100 Y-3.76365
X3.25100 Y-3.76465
X3.25000 Y-3.76465
X3.25000 Y-3.76565
X3.24900 Y-3.76565
X3.24900 Y-3.76765
X3.24800 Y-3.76765
X3.24800 Y-3.76865
X3.24700 Y-3.76865
X3.24700 Y-3.76965
X3.24600 Y-3.76965
X3.24600 Y-3.77165
X3.24500 Y-3.77165
X3.24500 Y-3.77265
X3.24400 Y-3.77265
X3.24400 Y-3.77365
X3.24300 Y-3.77365
X3.24300 Y-3.77465
X3.24200 Y-3.77465
X3.24200 Y-3.77565
X3.24000 Y-3.77565
X3.24000 Y-3.77665
X3.23900 Y-3.77665
X3.23900 Y-3.77765
X3.23700 Y-3.77765
X3.23700 Y-3.77865
X3.23600 Y-3.77865
X3.23600 Y-3.77965
X3.23500 Y-3.77965
X3.23500 Y-3.78065
X3.23000 Y-3.78065
X3.23000 Y-3.78165
X3.21900 Y-3.78165
X3.21900 Y-3.78265
X3.20000 Y-3.78265
X3.20000 Y-3.78365
X3.18100 Y-3.78365
X3.18100 Y-3.78465
X3.16200 Y-3.78465
X3.16200 Y-3.78565
X3.14400 Y-3.78565
X3.14400 Y-3.78665
X3.12500 Y-3.78665
X3.12500 Y-3.78765
X3.10600 Y-3.78765
X3.10600 Y-3.78865
X3.08700 Y-3.78865
X3.08700 Y-3.78965
X3.06800 Y-3.78965
X3.06800 Y-3.79065
X3.04900 Y-3.79065
X3.04900 Y-3.79165
X3.03000 Y-3.79165
X3.03000 Y-3.79265
X3.01200 Y-3.79265
X3.01200 Y-3.79365
X2.99300 Y-3.79365
X2.99300 Y-3.79465
X2.97400 Y-3.79465
X2.97400 Y-3.79565
X2.95500 Y-3.79565
X2.95500 Y-3.79665
X2.93600 Y-3.79665
X2.93600 Y-3.79765
X2.91700 Y-3.79765
X2.91700 Y-3.79865
X2.89800 Y-3.79865
X2.89800 Y-3.79965
X2.88000 Y-3.79965
X2.88000 Y-3.80065
X2.87800 Y-3.80065
X2.87800 Y-3.90965
X2.87900 Y-3.90965
X2.87900 Y-3.91065
X2.88000 Y-3.91065
X2.88000 Y-3.91165
X2.88100 Y-3.91165
X2.88100 Y-3.91265
X2.88200 Y-3.91265
X2.88200 Y-3.91365
X2.88300 Y-3.91365
X2.88300 Y-3.91465
X2.88400 Y-3.91465
X2.88400 Y-3.91565
X2.88500 Y-3.91565
X2.88500 Y-3.91665
X2.88600 Y-3.91665
X2.88600 Y-3.91765
X2.88700 Y-3.91765
X2.88700 Y-3.91865
X2.88800 Y-3.91865
X2.88800 Y-3.91965
X2.88900 Y-3.91965
X2.88900 Y-3.92065
X2.89000 Y-3.92065
X2.89000 Y-3.92165
X2.89100 Y-3.92165
X2.89100 Y-3.92265
X2.89200 Y-3.92265
X2.89200 Y-3.92365
X2.89300 Y-3.92365
X2.89300 Y-3.92465
X2.89400 Y-3.92465
X2.89400 Y-3.92565
X2.89500 Y-3.92565
X2.89500 Y-3.92665
X2.89600 Y-3.92665
X2.89600 Y-3.92765
X2.89700 Y-3.92765
X2.89700 Y-3.92865
X2.89800 Y-3.92865
X2.89800 Y-3.92965
X2.89900 Y-3.92965
X2.89900 Y-3.93065
X2.90000 Y-3.93065
X2.90000 Y-3.93165
X2.90100 Y-3.93165
X2.90100 Y-3.93265
X2.90200 Y-3.93265
X2.90200 Y-3.93365
X2.90300 Y-3.93365
X2.90300 Y-3.93465
X2.90400 Y-3.93465
X2.90400 Y-3.93565
X2.90500 Y-3.93565
X2.90500 Y-3.93665
X2.90600 Y-3.93665
X2.90600 Y-3.93765
X2.90700 Y-3.93765
X2.90700 Y-3.93865
X2.90800 Y-3.93865
X2.90800 Y-3.93965
X2.90900 Y-3.93965
X2.90900 Y-3.94065
X2.91000 Y-3.94065
X2.91000 Y-3.94165
X2.91100 Y-3.94165
X2.91100 Y-3.94265
X2.91200 Y-3.94265
X2.91200 Y-3.94365
X2.91300 Y-3.94365
X2.91300 Y-3.94465
X2.91400 Y-3.94465
X2.91400 Y-3.94565
X2.91500 Y-3.94565
X2.91500 Y-3.94665
X2.91600 Y-3.94665
X2.91600 Y-3.94765
X2.91700 Y-3.94765
X2.91700 Y-3.94865
X2.91800 Y-3.94865
X2.91800 Y-3.94965
X2.91900 Y-3.94965
X2.91900 Y-3.95065
X2.92000 Y-3.95065
X2.92000 Y-3.95165
X2.92100 Y-3.95165
X2.92100 Y-3.95265
X2.92200 Y-3.95265
X2.92200 Y-3.95365
X2.92300 Y-3.95365
X2.92300 Y-3.95465
X2.92400 Y-3.95465
X2.92400 Y-3.95565
X2.92500 Y-3.95565
X2.92500 Y-3.95665
X2.92600 Y-3.95665
X2.92600 Y-3.95765
X2.92700 Y-3.95765
X2.92700 Y-3.95865
X2.92800 Y-3.95865
X2.92800 Y-3.95965
X2.92900 Y-3.95965
X2.92900 Y-3.96065
X2.93000 Y-3.96065
X2.93000 Y-3.96165
X2.93100 Y-3.96165
X2.93100 Y-3.96265
X2.93200 Y-3.96265
X2.93200 Y-3.96365
X2.93300 Y-3.96365
X2.93300 Y-3.96465
X2.93400 Y-3.96465
X2.93400 Y-3.96565
X2.93500 Y-3.96565
X2.93500 Y-3.96665
X2.93600 Y-3.96665
X2.93600 Y-3.96765
X2.93700 Y-3.96765
X2.93700 Y-3.96865
X2.93800 Y-3.96865
X2.93800 Y-3.96965
X2.93900 Y-3.96965
X2.93900 Y-3.97065
X2.94000 Y-3.97065
X2.94000 Y-3.97165
X2.94100 Y-3.97165
X2.94100 Y-3.97265
X2.94200 Y-3.97265
X2.94200 Y-3.97365
X2.94300 Y-3.97365
X2.94300 Y-3.97465
X2.94400 Y-3.97465
X2.94400 Y-3.97565
X2.94500 Y-3.97565
X2.94500 Y-3.97665
X2.94600 Y-3.97665
X2.94600 Y-3.97765
X2.94700 Y-3.97765
X2.94700 Y-3.97865
X2.94800 Y-3.97865
X2.94800 Y-3.97965
X2.94900 Y-3.97965
X2.94900 Y-3.98065
X2.95000 Y-3.98065
X2.95000 Y-3.98165
X2.95100 Y-3.98165
X2.95100 Y-3.98265
X2.95200 Y-3.98265
X2.95200 Y-3.98365
X2.95300 Y-3.98365
X2.95300 Y-3.98465
X2.95400 Y-3.98465
X2.95400 Y-3.98565
X2.95500 Y-3.98565
X2.95500 Y-3.98665
X2.95600 Y-3.98665
X2.95600 Y-3.98765
X2.95700 Y-3.98765
X2.95700 Y-3.98865
X2.95800 Y-3.98865
X2.95800 Y-3.98965
X2.95900 Y-3.98965
X2.95900 Y-3.99065
X2.96000 Y-3.99065
X2.96000 Y-3.99165
X2.96100 Y-3.99165
X2.96100 Y-3.99265
X2.96200 Y-3.99265
X2.96200 Y-3.99365
X2.96300 Y-3.99365
X2.96300 Y-3.99465
X2.96400 Y-3.99465
X2.96400 Y-3.99565
X2.96500 Y-3.99565
X2.96500 Y-3.99665
X2.96600 Y-3.99665
X2.96600 Y-3.99765
X2.96700 Y-3.99765
X2.96700 Y-3.99865
X2.96800 Y-3.99865
X2.96800 Y-3.99965
X2.96900 Y-3.99965
X2.96900 Y-4.00065
X2.97000 Y-4.00065
X2.97000 Y-4.00165
X2.97100 Y-4.00165
X2.97100 Y-4.00265
X2.97200 Y-4.00265
X2.97200 Y-4.00365
X2.97300 Y-4.00365
X2.97300 Y-4.00465
X2.97400 Y-4.00465
X2.97400 Y-4.00565
X2.97500 Y-4.00565
X2.97500 Y-4.00665
X2.97600 Y-4.00665
X2.97600 Y-4.00765
X2.97700 Y-4.00765
X2.97700 Y-4.00865
X2.97800 Y-4.00865
X2.97800 Y-4.00965
X2.97900 Y-4.00965
X2.97900 Y-4.01065
X2.98000 Y-4.01065
X2.98000 Y-4.01165
X2.98100 Y-4.01165
X2.98100 Y-4.01265
X2.98200 Y-4.01265
X2.98200 Y-4.01365
X2.98300 Y-4.01365
X2.98300 Y-4.01465
X2.98400 Y-4.01465
X2.98400 Y-4.01565
X2.98500 Y-4.01565
X2.98500 Y-4.01665
X2.98600 Y-4.01665
X2.98600 Y-4.01765
X2.98700 Y-4.01765
X2.98700 Y-4.01865
X2.98800 Y-4.01865
X2.98800 Y-4.01965
X2.98900 Y-4.01965
X2.98900 Y-4.02065
X2.99000 Y-4.02065
X2.99000 Y-4.02165
X2.99100 Y-4.02165
X2.99100 Y-4.02265
X2.99200 Y-4.02265
X2.99200 Y-4.02365
X2.99300 Y-4.02365
X2.99300 Y-4.02465
X2.99400 Y-4.02465
X2.99400 Y-4.02565
X2.99500 Y-4.02565
X2.99500 Y-4.02665
X2.99600 Y-4.02665
X2.99600 Y-4.02765
X2.99700 Y-4.02765
X2.99700 Y-4.02865
X2.99800 Y-4.02865
X2.99800 Y-4.02965
X2.99900 Y-4.02965
X2.99900 Y-4.03065
X3.00000 Y-4.03065
X3.00000 Y-4.03165
X3.00100 Y-4.03165
X3.00100 Y-4.03265
X3.00200 Y-4.03265
X3.00200 Y-4.03365
X3.00300 Y-4.03365
X3.00300 Y-4.03465
X3.00400 Y-4.03465
X3.00400 Y-4.03565
X3.00500 Y-4.03565
X3.00500 Y-4.03665
X3.00600 Y-4.03665
X3.00600 Y-4.03765
X3.00700 Y-4.03765
X3.00700 Y-4.03865
X3.00800 Y-4.03865
X3.00800 Y-4.03965
X3.00900 Y-4.03965
X3.00900 Y-4.04065
X3.01000 Y-4.04065
X3.01000 Y-4.04165
X3.01100 Y-4.04165
X3.01100 Y-4.04265
X3.01200 Y-4.04265
X3.01200 Y-4.04365
X3.01300 Y-4.04365
X3.01300 Y-4.04465
X3.01400 Y-4.04465
X3.01400 Y-4.04565
X3.01500 Y-4.04565
X3.01500 Y-4.04765
X3.01600 Y-4.04765
X3.01600 Y-4.05065
X3.01700 Y-4.05065
X3.01700 Y-4.05365
X3.01800 Y-4.05365
X3.01800 Y-4.05765
X3.01900 Y-4.05765
X3.01900 Y-4.52265
X3.02000 Y-4.52265
X3.02000 Y-4.52365
X3.02100 Y-4.52365
X3.02100 Y-4.52465
X3.02200 Y-4.52465
X3.02200 Y-4.52565
X3.02300 Y-4.52565
X3.02300 Y-4.52665
X3.02400 Y-4.52665
X3.02400 Y-4.52765
X3.02500 Y-4.52765
X3.02500 Y-4.52865
X3.02600 Y-4.52865
X3.02600 Y-4.52965
X3.02700 Y-4.52965
X3.02700 Y-4.53065
X3.02800 Y-4.53065
X3.02800 Y-4.53165
X3.02900 Y-4.53165
X3.02900 Y-4.53265
X3.03000 Y-4.53265
X3.03000 Y-4.53365
X3.03100 Y-4.53365
X3.03100 Y-4.53465
X3.03200 Y-4.53465
X3.03200 Y-4.53565
X3.03300 Y-4.53565
X3.03300 Y-4.53665
X3.03400 Y-4.53665
X3.03400 Y-4.53765
X3.03500 Y-4.53765
X3.03500 Y-4.53865
X3.03600 Y-4.53865
X3.03600 Y-4.53965
X3.03700 Y-4.53965
X3.03700 Y-4.54065
X3.03800 Y-4.54065
X3.03800 Y-4.54165
X3.03900 Y-4.54165
X3.03900 Y-4.54265
X3.04000 Y-4.54265
X3.04000 Y-4.54365
X3.04100 Y-4.54365
X3.04100 Y-4.54465
X3.04200 Y-4.54465
X3.04200 Y-4.54565
X3.04300 Y-4.54565
X3.04300 Y-4.54665
X3.04400 Y-4.54665
X3.04400 Y-4.54765
X3.04500 Y-4.54765
X3.04500 Y-4.54865
X3.17800 Y-4.54865
X3.17800 Y-4.54765
X3.18500 Y-4.54765
X3.18500 Y-4.54665
X3.19200 Y-4.54665
X3.19200 Y-4.54565
X3.19900 Y-4.54565
X3.19900 Y-4.54465
X3.20700 Y-4.54465
X3.20700 Y-4.54365
X3.21400 Y-4.54365
X3.21400 Y-4.54265
X3.22100 Y-4.54265
X3.22100 Y-4.54165
X3.22800 Y-4.54165
X3.22800 Y-4.54065
X3.23500 Y-4.54065
X3.23500 Y-4.53965
X3.24300 Y-4.53965
X3.24300 Y-4.53865
X3.25000 Y-4.53865
X3.25000 Y-4.53765
X3.25400 Y-4.53765
X3.25400 Y-4.53865
X3.26400 Y-4.53865
X3.26400 Y-4.53965
X3.26500 Y-4.53965
X3.26500 Y-4.54065
X3.26700 Y-4.54065
X3.26700 Y-4.54165
X3.26800 Y-4.54165
X3.26800 Y-4.54265
X3.26900 Y-4.54265
X3.26900 Y-4.54365
X3.27100 Y-4.54365
X3.27100 Y-4.54465
X3.27200 Y-4.54465
X3.27200 Y-4.54565
X3.27300 Y-4.54565
X3.27300 Y-4.54765
X3.27400 Y-4.54765
X3.27400 Y-4.55065
X3.27500 Y-4.55065
X3.27500 Y-4.55365
X3.27600 Y-4.55365
X3.27600 Y-4.55665
X3.27700 Y-4.55665
X3.27700 Y-4.55865
X3.27600 Y-4.55865
X3.27600 Y-4.56165
X3.27500 Y-4.56165
X3.27500 Y-4.56465
X3.27400 Y-4.56465
X3.27400 Y-4.56765
X3.27300 Y-4.56765
X3.27300 Y-4.56965
X3.27200 Y-4.56965
X3.27200 Y-4.57065
X3.27100 Y-4.57065
X3.27100 Y-4.57165
X3.26900 Y-4.57165
X3.26900 Y-4.57265
X3.26700 Y-4.57265
X3.26700 Y-4.57365
X3.26600 Y-4.57365
X3.26600 Y-4.57465
X3.26400 Y-4.57465
X3.26400 Y-4.57565
X3.26200 Y-4.57565
X3.26200 Y-4.57665
X3.26100 Y-4.57665
X3.26100 Y-4.57765
X3.25600 Y-4.57765
X3.25600 Y-4.57865
X3.24900 Y-4.57865
X3.24900 Y-4.57965
X3.24200 Y-4.57965
X3.24200 Y-4.58065
X3.23500 Y-4.58065
X3.23500 Y-4.58165
X3.22700 Y-4.58165
X3.22700 Y-4.58265
X3.22000 Y-4.58265
X3.22000 Y-4.58365
X3.21300 Y-4.58365
X3.21300 Y-4.58465
X3.20600 Y-4.58465
X3.20600 Y-4.58565
X3.19900 Y-4.58565
X3.19900 Y-4.58665
X3.19100 Y-4.58665
X3.19100 Y-4.58765
X3.18400 Y-4.58765
X3.18400 Y-4.58865
X3.03300 Y-4.58865
X3.03300 Y-4.58765
X3.02900 Y-4.58765
X3.02900 Y-4.58665
X3.02800 Y-4.58665
X3.02800 Y-4.58565
X3.02600 Y-4.58565
X3.02600 Y-4.58465
X3.02500 Y-4.58465
X3.02500 Y-4.58365
X3.02300 Y-4.58365
X3.02300 Y-4.58265
X3.02200 Y-4.58265
X3.02200 Y-4.58165
X3.02100 Y-4.58165
X3.02100 Y-4.58065
X3.02000 Y-4.58065
X3.02000 Y-4.91365
X3.02100 Y-4.91365
X3.02100 Y-4.91465
X3.02200 Y-4.91465
X3.02200 Y-4.91565
X3.02300 Y-4.91565
X3.02300 Y-4.91665
X3.02400 Y-4.91665
X3.02400 Y-4.91765
X3.02500 Y-4.91765
X3.02500 Y-4.91865
X3.02600 Y-4.91865
X3.02600 Y-4.91965
X3.02700 Y-4.91965
X3.02700 Y-4.92065
X3.02800 Y-4.92065
X3.02800 Y-4.92165
X3.02900 Y-4.92165
X3.02900 Y-4.92265
X3.03000 Y-4.92265
X3.03000 Y-4.92365
X3.03100 Y-4.92365
X3.03100 Y-4.92465
X3.03200 Y-4.92465
X3.03200 Y-4.92565
X3.03300 Y-4.92565
X3.03300 Y-4.92665
X3.03400 Y-4.92665
X3.03400 Y-4.92765
X3.03500 Y-4.92765
X3.03500 Y-4.92865
X3.03600 Y-4.92865
X3.03600 Y-4.92965
X3.03700 Y-4.92965
X3.03700 Y-4.93065
X3.03800 Y-4.93065
X3.03800 Y-4.93165
X3.03900 Y-4.93165
X3.03900 Y-4.93265
X3.04000 Y-4.93265
X3.04000 Y-4.93365
X3.04100 Y-4.93365
X3.04100 Y-4.93465
X3.04200 Y-4.93465
X3.04200 Y-4.93565
X3.04300 Y-4.93565
X3.04300 Y-4.93665
X3.04400 Y-4.93665
X3.04400 Y-4.93765
X3.04500 Y-4.93765
X3.04500 Y-4.93865
X3.04600 Y-4.93865
X3.04600 Y-4.93965
X3.04700 Y-4.93965
X3.04700 Y-4.94065
X3.04800 Y-4.94065
X3.04800 Y-4.94165
X3.04900 Y-4.94165
X3.04900 Y-4.94265
X3.05000 Y-4.94265
X3.05000 Y-4.94365
X3.05100 Y-4.94365
X3.05100 Y-4.94465
X3.05200 Y-4.94465
X3.05200 Y-4.94565
X3.05300 Y-4.94565
X3.05300 Y-4.94665
X3.05400 Y-4.94665
X3.05400 Y-4.94765
X3.05500 Y-4.94765
X3.05500 Y-4.94865
X3.05600 Y-4.94865
X3.05600 Y-4.94965
X3.05700 Y-4.94965
X3.05700 Y-4.95065
X3.05800 Y-4.95065
X3.05800 Y-4.95165
X3.05900 Y-4.95165
X3.05900 Y-4.95265
X3.06000 Y-4.95265
X3.06000 Y-4.95365
X3.06100 Y-4.95365
X3.06100 Y-4.95465
X3.06200 Y-4.95465
X3.06200 Y-4.95565
X3.06300 Y-4.95565
X3.06300 Y-4.95665
X3.06400 Y-4.95665
X3.06400 Y-4.95765
X3.06500 Y-4.95765
X3.06500 Y-4.95865
X3.06600 Y-4.95865
X3.06600 Y-4.95965
X3.06700 Y-4.95965
X3.06700 Y-4.96065
X3.06800 Y-4.96065
X3.06800 Y-4.96165
X3.06900 Y-4.96165
X3.06900 Y-4.96265
X3.07000 Y-4.96265
X3.07000 Y-4.96365
X3.07100 Y-4.96365
X3.07100 Y-4.96465
X3.07200 Y-4.96465
X3.07200 Y-4.96565
X3.07300 Y-4.96565
X3.07300 Y-4.96665
X3.07400 Y-4.96665
X3.07400 Y-4.96765
X3.07500 Y-4.96765
X3.07500 Y-4.96865
X3.07600 Y-4.96865
X3.07600 Y-4.96965
X3.07700 Y-4.96965
X3.07700 Y-4.97065
X3.07800 Y-4.97065
X3.07800 Y-4.97165
X3.07900 Y-4.97165
X3.07900 Y-4.97265
X3.08000 Y-4.97265
X3.08000 Y-4.97365
X3.08100 Y-4.97365
X3.08100 Y-4.97465
X3.08200 Y-4.97465
X3.08200 Y-4.97565
X3.08300 Y-4.97565
X3.08300 Y-4.97665
X3.08400 Y-4.97665
X3.08400 Y-4.97765
X3.08500 Y-4.97765
X3.08500 Y-4.97865
X3.08600 Y-4.97865
X3.08600 Y-4.97965
X3.08700 Y-4.97965
X3.08700 Y-4.98065
X3.08800 Y-4.98065
X3.08800 Y-4.98165
X3.08900 Y-4.98165
X3.08900 Y-4.98265
X3.09000 Y-4.98265
X3.09000 Y-4.98365
X3.09100 Y-4.98365
X3.09100 Y-4.98465
X3.09200 Y-4.98465
X3.09200 Y-4.98565
X3.09300 Y-4.98565
X3.09300 Y-4.98665
X3.09400 Y-4.98665
X3.09400 Y-4.98765
X3.09500 Y-4.98765
X3.09500 Y-4.98865
X3.09600 Y-4.98865
X3.09600 Y-4.98965
X3.09700 Y-4.98965
X3.09700 Y-4.99065
X3.09800 Y-4.99065
X3.09800 Y-4.99165
X3.09900 Y-4.99165
X3.09900 Y-4.99265
X3.10000 Y-4.99265
X3.10000 Y-4.99365
X3.10100 Y-4.99365
X3.10100 Y-4.99465
X3.10200 Y-4.99465
X3.10200 Y-4.99565
X3.10300 Y-4.99565
X3.10300 Y-4.99665
X3.10400 Y-4.99665
X3.10400 Y-4.99765
X3.10500 Y-4.99765
X3.10500 Y-4.99865
X3.10600 Y-4.99865
X3.10600 Y-4.99965
X3.10700 Y-4.99965
X3.10700 Y-5.00065
X3.10800 Y-5.00065
X3.10800 Y-5.00165
X3.10900 Y-5.00165
X3.10900 Y-5.00265
X3.11000 Y-5.00265
X3.11000 Y-5.00365
X3.11100 Y-5.00365
X3.11100 Y-5.00465
X3.11200 Y-5.00465
X3.11200 Y-5.00565
X3.11300 Y-5.00565
X3.11300 Y-5.00665
X3.11400 Y-5.00665
X3.11400 Y-5.00865
X3.11500 Y-5.00865
X3.11500 Y-5.00965
X3.11600 Y-5.00965
X3.11600 Y-5.01265
X3.11700 Y-5.01265
X3.11700 Y-5.01565
X3.11800 Y-5.01565
X3.11800 Y-5.01865
X3.11900 Y-5.01865
X3.11900 Y-5.32765
X3.12000 Y-5.32765
X3.12000 Y-5.32865
X3.12100 Y-5.32865
X3.12100 Y-5.32965
X3.12200 Y-5.32965
X3.12200 Y-5.33065
X3.12300 Y-5.33065
X3.12300 Y-5.33165
X3.12400 Y-5.33165
X3.12400 Y-5.33265
X3.12500 Y-5.33265
X3.12500 Y-5.33365
X3.12600 Y-5.33365
X3.12600 Y-5.33465
X3.12700 Y-5.33465
X3.12700 Y-5.33565
X3.12800 Y-5.33565
X3.12800 Y-5.33665
X3.12900 Y-5.33665
X3.12900 Y-5.33765
X3.13000 Y-5.33765
X3.13000 Y-5.33865
X3.13100 Y-5.33865
X3.13100 Y-5.33965
X3.13200 Y-5.33965
X3.13200 Y-5.34065
X3.13300 Y-5.34065
X3.13300 Y-5.34165
X3.13400 Y-5.34165
X3.13400 Y-5.34265
X3.13500 Y-5.34265
X3.13500 Y-5.34365
X3.13600 Y-5.34365
X3.13600 Y-5.34465
X3.13700 Y-5.34465
X3.13700 Y-5.34565
X3.13800 Y-5.34565
X3.13800 Y-5.34665
X3.13900 Y-5.34665
X3.13900 Y-5.34765
X3.14000 Y-5.34765
X3.14000 Y-5.34865
X3.14100 Y-5.34865
X3.14100 Y-5.34965
X3.14200 Y-5.34965
X3.14200 Y-5.35065
X3.14300 Y-5.35065
X3.14300 Y-5.35165
X3.14400 Y-5.35165
X3.14400 Y-5.35265
X3.14500 Y-5.35265
X3.14500 Y-5.35365
X3.14600 Y-5.35365
X3.14600 Y-5.35465
X3.14700 Y-5.35465
X3.14700 Y-5.35565
X3.14800 Y-5.35565
X3.14800 Y-5.35665
X3.14900 Y-5.35665
X3.14900 Y-5.35765
X3.15000 Y-5.35765
X3.15000 Y-5.35865
X3.15100 Y-5.35865
X3.15100 Y-5.35965
X3.15200 Y-5.35965
X3.15200 Y-5.36065
X3.15300 Y-5.36065
X3.15300 Y-5.36165
X3.15400 Y-5.36165
X3.15400 Y-5.36265
X3.15500 Y-5.36265
X3.15500 Y-5.36365
X3.15600 Y-5.36365
X3.15600 Y-5.36465
X3.15700 Y-5.36465
X3.15700 Y-5.36565
X3.15800 Y-5.36565
X3.15800 Y-5.36665
X3.15900 Y-5.36665
X3.15900 Y-5.36765
X3.16000 Y-5.36765
X3.16000 Y-5.36865
X3.16100 Y-5.36865
X3.16100 Y-5.36965
X3.16200 Y-5.36965
X3.16200 Y-5.37065
X3.16300 Y-5.37065
X3.16300 Y-5.37165
X3.16400 Y-5.37165
X3.16400 Y-5.37265
X3.16500 Y-5.37265
X3.16500 Y-5.37365
X3.16600 Y-5.37365
X3.16600 Y-5.37465
X3.16700 Y-5.37465
X3.16700 Y-5.37565
X3.16800 Y-5.37565
X3.16800 Y-5.37665
X3.16900 Y-5.37665
X3.16900 Y-5.37765
X3.17000 Y-5.37765
X3.17000 Y-5.37865
X3.17100 Y-5.37865
X3.17100 Y-5.37965
X3.17200 Y-5.37965
X3.17200 Y-5.38065
X3.17300 Y-5.38065
X3.17300 Y-5.38165
X3.17400 Y-5.38165
X3.17400 Y-5.38265
X3.17500 Y-5.38265
X3.17500 Y-5.38365
X3.17600 Y-5.38365
X3.17600 Y-5.38465
X3.17700 Y-5.38465
X3.17700 Y-5.38565
X3.17800 Y-5.38565
X3.17800 Y-5.38665
X3.17900 Y-5.38665
X3.17900 Y-5.38765
X3.18000 Y-5.38765
X3.18000 Y-5.38865
X3.18100 Y-5.38865
X3.18100 Y-5.38965
X3.18200 Y-5.38965
X3.18200 Y-5.39065
X3.18300 Y-5.39065
X3.18300 Y-5.39165
X3.18400 Y-5.39165
X3.18400 Y-5.39265
X3.18500 Y-5.39265
X3.18500 Y-5.39365
X3.18600 Y-5.39365
X3.18600 Y-5.39465
X3.18700 Y-5.39465
X3.18700 Y-5.39565
X3.18800 Y-5.39565
X3.18800 Y-5.39665
X3.18900 Y-5.39665
X3.18900 Y-5.39765
X3.19000 Y-5.39765
X3.19000 Y-5.39865
X3.19100 Y-5.39865
X3.19100 Y-5.39965
X3.19200 Y-5.39965
X3.19200 Y-5.40065
X3.19300 Y-5.40065
X3.19300 Y-5.40165
X3.19400 Y-5.40165
X3.19400 Y-5.40265
X3.19500 Y-5.40265
X3.19500 Y-5.40365
X3.19600 Y-5.40365
X3.19600 Y-5.40465
X3.19700 Y-5.40465
X3.19700 Y-5.40565
X3.19800 Y-5.40565
X3.19800 Y-5.40665
X3.19900 Y-5.40665
X3.19900 Y-5.40765
X3.20000 Y-5.40765
X3.20000 Y-5.40865
X3.22400 Y-5.40865
X3.22400 Y-5.40965
X3.22700 Y-5.40965
X3.22700 Y-5.41065
X3.22900 Y-5.41065
X3.22900 Y-5.41165
X3.23000 Y-5.41165
X3.23000 Y-5.41265
X3.23200 Y-5.41265
X3.23200 Y-5.41365
X3.23300 Y-5.41365
X3.23300 Y-5.41465
X3.23400 Y-5.41465
X3.23400 Y-5.41565
X3.23600 Y-5.41565
X3.23600 Y-5.41665
X3.23700 Y-5.41665
X3.23700 Y-5.41965
X3.23800 Y-5.41965
X3.23800 Y-5.42265
X3.23900 Y-5.42265
X3.23900 Y-5.42565
X3.24000 Y-5.42565
X3.24000 Y-5.43165
X3.23900 Y-5.43165
X3.23900 Y-5.43465
X3.23800 Y-5.43465
X3.23800 Y-5.43765
X3.23700 Y-5.43765
X3.23700 Y-5.44065
X3.23600 Y-5.44065
X3.23600 Y-5.44165
X3.23500 Y-5.44165
X3.23500 Y-5.44265
X3.23300 Y-5.44265
X3.23300 Y-5.44365
X3.23200 Y-5.44365
X3.23200 Y-5.44465
X3.23100 Y-5.44465
X3.23100 Y-5.44565
X3.22900 Y-5.44565
X3.22900 Y-5.44665
X3.22800 Y-5.44665
X3.22800 Y-5.44765
X3.22600 Y-5.44765
X3.22600 Y-5.44865
X3.18600 Y-5.44865
X3.18600 Y-5.44765
X3.18400 Y-5.44765
X3.18400 Y-5.44665
X3.18200 Y-5.44665
X3.18200 Y-5.44565
X3.18000 Y-5.44565
X3.18000 Y-5.44465
X3.17900 Y-5.44465
X3.17900 Y-5.44365
X3.17700 Y-5.44365
X3.17700 Y-5.44265
X3.17600 Y-5.44265
X3.17600 Y-5.44165
X3.17500 Y-5.44165
X3.17500 Y-5.44065
X3.17400 Y-5.44065
X3.17400 Y-5.43965
X3.17300 Y-5.43965
X3.17300 Y-5.43865
X3.17200 Y-5.43865
X3.17200 Y-5.43765
X3.17100 Y-5.43765
X3.17100 Y-5.43665
X3.17000 Y-5.43665
X3.17000 Y-5.43565
X3.16900 Y-5.43565
X3.16900 Y-5.43465
X3.16800 Y-5.43465
X3.16800 Y-5.43365
X3.16700 Y-5.43365
X3.16700 Y-5.43265
X3.16600 Y-5.43265
X3.16600 Y-5.43165
X3.16500 Y-5.43165
X3.16500 Y-5.43065
X3.16400 Y-5.43065
X3.16400 Y-5.42965
X3.16300 Y-5.42965
X3.16300 Y-5.42865
X3.16200 Y-5.42865
X3.16200 Y-5.42765
X3.16100 Y-5.42765
X3.16100 Y-5.42665
X3.16000 Y-5.42665
X3.16000 Y-5.42565
X3.15900 Y-5.42565
X3.15900 Y-5.42465
X3.15800 Y-5.42465
X3.15800 Y-5.42365
X3.15700 Y-5.42365
X3.15700 Y-5.42265
X3.15600 Y-5.42265
X3.15600 Y-5.42165
X3.15500 Y-5.42165
X3.15500 Y-5.42065
X3.15400 Y-5.42065
X3.15400 Y-5.41965
X3.15300 Y-5.41965
X3.15300 Y-5.41865
X3.15200 Y-5.41865
X3.15200 Y-5.41765
X3.15100 Y-5.41765
X3.15100 Y-5.41665
X3.15000 Y-5.41665
X3.15000 Y-5.41565
X3.14900 Y-5.41565
X3.14900 Y-5.41465
X3.14800 Y-5.41465
X3.14800 Y-5.41365
X3.14700 Y-5.41365
X3.14700 Y-5.41265
X3.14600 Y-5.41265
X3.14600 Y-5.41165
X3.14500 Y-5.41165
X3.14500 Y-5.41065
X3.14400 Y-5.41065
X3.14400 Y-5.40965
X3.14300 Y-5.40965
X3.14300 Y-5.40865
X3.14200 Y-5.40865
X3.14200 Y-5.40765
X3.14100 Y-5.40765
X3.14100 Y-5.40665
X3.14000 Y-5.40665
X3.14000 Y-5.40565
X3.13900 Y-5.40565
X3.13900 Y-5.40465
X3.13800 Y-5.40465
X3.13800 Y-5.40365
X3.13700 Y-5.40365
X3.13700 Y-5.40265
X3.13600 Y-5.40265
X3.13600 Y-5.40165
X3.13500 Y-5.40165
X3.13500 Y-5.40065
X3.13400 Y-5.40065
X3.13400 Y-5.39965
X3.13300 Y-5.39965
X3.13300 Y-5.39865
X3.13200 Y-5.39865
X3.13200 Y-5.39765
X3.13100 Y-5.39765
X3.13100 Y-5.39665
X3.13000 Y-5.39665
X3.13000 Y-5.39565
X3.12900 Y-5.39565
X3.12900 Y-5.39465
X3.12800 Y-5.39465
X3.12800 Y-5.39365
X3.12700 Y-5.39365
X3.12700 Y-5.39265
X3.12600 Y-5.39265
X3.12600 Y-5.39165
X3.12500 Y-5.39165
X3.12500 Y-5.39065
X3.12400 Y-5.39065
X3.12400 Y-5.38965
X3.12300 Y-5.38965
X3.12300 Y-5.38865
X3.12200 Y-5.38865
X3.12200 Y-5.38765
X3.12100 Y-5.38765
X3.12100 Y-5.38665
X3.12000 Y-5.38665
X3.12000 Y-5.38565
X3.11900 Y-5.38565
X3.11900 Y-5.38465
X3.11800 Y-5.38465
X3.11800 Y-5.38365
X3.11700 Y-5.38365
X3.11700 Y-5.38265
X3.11600 Y-5.38265
X3.11600 Y-5.38165
X3.11500 Y-5.38165
X3.11500 Y-5.38065
X3.11400 Y-5.38065
X3.11400 Y-5.37965
X3.11300 Y-5.37965
X3.11300 Y-5.37865
X3.11200 Y-5.37865
X3.11200 Y-5.37765
X3.11100 Y-5.37765
X3.11100 Y-5.37665
X3.11000 Y-5.37665
X3.11000 Y-5.37565
X3.10900 Y-5.37565
X3.10900 Y-5.37465
X3.10800 Y-5.37465
X3.10800 Y-5.37365
X3.10700 Y-5.37365
X3.10700 Y-5.37265
X3.10600 Y-5.37265
X3.10600 Y-5.37165
X3.10500 Y-5.37165
X3.10500 Y-5.37065
X3.10400 Y-5.37065
X3.10400 Y-5.36965
X3.10300 Y-5.36965
X3.10300 Y-5.36865
X3.10200 Y-5.36865
X3.10200 Y-5.36765
X3.10100 Y-5.36765
X3.10100 Y-5.36665
X3.10000 Y-5.36665
X3.10000 Y-5.36565
X3.09900 Y-5.36565
X3.09900 Y-5.36465
X3.09800 Y-5.36465
X3.09800 Y-5.36365
X3.09700 Y-5.36365
X3.09700 Y-5.36265
X3.09600 Y-5.36265
X3.09600 Y-5.36165
X3.09500 Y-5.36165
X3.09500 Y-5.36065
X3.09400 Y-5.36065
X3.09400 Y-5.35965
X3.09300 Y-5.35965
X3.09300 Y-5.35865
X3.09200 Y-5.35865
X3.09200 Y-5.35765
X3.09100 Y-5.35765
X3.09100 Y-5.35665
X3.09000 Y-5.35665
X3.09000 Y-5.35565
X3.08900 Y-5.35565
X3.08900 Y-5.35465
X3.08800 Y-5.35465
X3.08800 Y-5.35365
X3.08700 Y-5.35365
X3.08700 Y-5.35265
X3.08600 Y-5.35265
X3.08600 Y-5.35165
X3.08500 Y-5.35165
X3.08500 Y-5.35065
X3.08400 Y-5.35065
X3.08400 Y-5.34965
X3.08300 Y-5.34965
X3.08300 Y-5.34865
X3.08200 Y-5.34865
X3.08200 Y-5.34565
X3.08100 Y-5.34565
X3.08100 Y-5.34165
X3.08000 Y-5.34165
X3.08000 Y-5.33865
X3.07900 Y-5.33865
X3.07900 Y-5.02965
X3.07800 Y-5.02965
X3.07800 Y-5.02865
X3.07700 Y-5.02865
X3.07700 Y-5.02765
X3.07600 Y-5.02765
X3.07600 Y-5.02665
X3.07500 Y-5.02665
X3.07500 Y-5.02565
X3.07400 Y-5.02565
X3.07400 Y-5.02465
X3.07300 Y-5.02465
X3.07300 Y-5.02365
X3.07200 Y-5.02365
X3.07200 Y-5.02265
X3.07100 Y-5.02265
X3.07100 Y-5.02165
X3.07000 Y-5.02165
X3.07000 Y-5.02065
X3.06900 Y-5.02065
X3.06900 Y-5.01965
X3.06800 Y-5.01965
X3.06800 Y-5.01865
X3.06700 Y-5.01865
X3.06700 Y-5.01765
X3.06600 Y-5.01765
X3.06600 Y-5.01665
X3.06500 Y-5.01665
X3.06500 Y-5.01565
X3.06400 Y-5.01565
X3.06400 Y-5.01465
X3.06300 Y-5.01465
X3.06300 Y-5.01365
X3.06200 Y-5.01365
X3.06200 Y-5.01265
X3.06100 Y-5.01265
X3.06100 Y-5.01165
X3.06000 Y-5.01165
X3.06000 Y-5.01065
X3.05900 Y-5.01065
X3.05900 Y-5.00965
X3.05800 Y-5.00965
X3.05800 Y-5.00865
X3.05700 Y-5.00865
X3.05700 Y-5.00765
X3.05600 Y-5.00765
X3.05600 Y-5.00665
X3.05500 Y-5.00665
X3.05500 Y-5.00565
X3.05400 Y-5.00565
X3.05400 Y-5.00465
X3.05300 Y-5.00465
X3.05300 Y-5.00365
X3.05200 Y-5.00365
X3.05200 Y-5.00265
X3.05100 Y-5.00265
X3.05100 Y-5.00165
X3.05000 Y-5.00165
X3.05000 Y-5.00065
X3.04900 Y-5.00065
X3.04900 Y-4.99965
X3.04800 Y-4.99965
X3.04800 Y-4.99865
X3.04700 Y-4.99865
X3.04700 Y-4.99765
X3.04600 Y-4.99765
X3.04600 Y-4.99665
X3.04500 Y-4.99665
X3.04500 Y-4.99565
X3.04400 Y-4.99565
X3.04400 Y-4.99465
X3.04300 Y-4.99465
X3.04300 Y-4.99365
X3.04200 Y-4.99365
X3.04200 Y-4.99265
X3.04100 Y-4.99265
X3.04100 Y-4.99165
X3.04000 Y-4.99165
X3.04000 Y-4.99065
X3.03900 Y-4.99065
X3.03900 Y-4.98965
X3.03800 Y-4.98965
X3.03800 Y-4.98865
X3.03700 Y-4.98865
X3.03700 Y-4.98765
X3.03600 Y-4.98765
X3.03600 Y-4.98665
X3.03500 Y-4.98665
X3.03500 Y-4.98565
X3.03400 Y-4.98565
X3.03400 Y-4.98465
X3.03300 Y-4.98465
X3.03300 Y-4.98365
X3.03200 Y-4.98365
X3.03200 Y-4.98265
X3.03100 Y-4.98265
X3.03100 Y-4.98165
X3.03000 Y-4.98165
X3.03000 Y-4.98065
X3.02900 Y-4.98065
X3.02900 Y-4.97965
X3.02800 Y-4.97965
X3.02800 Y-4.97865
X3.02700 Y-4.97865
X3.02700 Y-4.97765
X3.02600 Y-4.97765
X3.02600 Y-4.97665
X3.02500 Y-4.97665
X3.02500 Y-4.97565
X3.02400 Y-4.97565
X3.02400 Y-4.97465
X3.02300 Y-4.97465
X3.02300 Y-4.97365
X3.02200 Y-4.97365
X3.02200 Y-4.97265
X3.02100 Y-4.97265
X3.02100 Y-4.97165
X3.02000 Y-4.97165
X3.02000 Y-4.97065
X3.01900 Y-4.97065
X3.01900 Y-4.96965
X3.01800 Y-4.96965
X3.01800 Y-4.96865
X3.01700 Y-4.96865
X3.01700 Y-4.96765
X3.01600 Y-4.96765
X3.01600 Y-4.96665
X3.01500 Y-4.96665
X3.01500 Y-4.96565
X3.01400 Y-4.96565
X3.01400 Y-4.96465
X3.01300 Y-4.96465
X3.01300 Y-4.96365
X3.01200 Y-4.96365
X3.01200 Y-4.96265
X3.01100 Y-4.96265
X3.01100 Y-4.96165
X3.01000 Y-4.96165
X3.01000 Y-4.96065
X3.00900 Y-4.96065
X3.00900 Y-4.95965
X3.00800 Y-4.95965
X3.00800 Y-4.95865
X3.00700 Y-4.95865
X3.00700 Y-4.95765
X3.00600 Y-4.95765
X3.00600 Y-4.95665
X3.00500 Y-4.95665
X3.00500 Y-4.95565
X3.00400 Y-4.95565
X3.00400 Y-4.95465
X3.00300 Y-4.95465
X3.00300 Y-4.95365
X3.00200 Y-4.95365
X3.00200 Y-4.95265
X3.00100 Y-4.95265
X3.00100 Y-4.95165
X3.00000 Y-4.95165
X3.00000 Y-4.95065
X2.99900 Y-4.95065
X2.99900 Y-4.94965
X2.99800 Y-4.94965
X2.99800 Y-4.94865
X2.99700 Y-4.94865
X2.99700 Y-4.94765
X2.99600 Y-4.94765
X2.99600 Y-4.94665
X2.99500 Y-4.94665
X2.99500 Y-4.94565
X2.99400 Y-4.94565
X2.99400 Y-4.94465
X2.99300 Y-4.94465
X2.99300 Y-4.94365
X2.99200 Y-4.94365
X2.99200 Y-4.94265
X2.99100 Y-4.94265
X2.99100 Y-4.94165
X2.99000 Y-4.94165
X2.99000 Y-4.94065
X2.98900 Y-4.94065
X2.98900 Y-4.93965
X2.98800 Y-4.93965
X2.98800 Y-4.93865
X2.98700 Y-4.93865
X2.98700 Y-4.93765
X2.98600 Y-4.93765
X2.98600 Y-4.93665
X2.98500 Y-4.93665
X2.98500 Y-4.93565
X2.98400 Y-4.93565
X2.98400 Y-4.93365
X2.98300 Y-4.93365
X2.98300 Y-4.93065
X2.98200 Y-4.93065
X2.98200 Y-4.92765
X2.98100 Y-4.92765
X2.98100 Y-4.92465
X2.98000 Y-4.92465
X2.98000 Y-4.53365
X2.97900 Y-4.53365
X2.97900 Y-4.53065
X2.97800 Y-4.53065
X2.97800 Y-4.06665
X2.97700 Y-4.06665
X2.97700 Y-4.06565
X2.97600 Y-4.06565
X2.97600 Y-4.06465
X2.97500 Y-4.06465
X2.97500 Y-4.06365
X2.97400 Y-4.06365
X2.97400 Y-4.06265
X2.97300 Y-4.06265
X2.97300 Y-4.06165
X2.97200 Y-4.06165
X2.97200 Y-4.06065
X2.97100 Y-4.06065
X2.97100 Y-4.05965
X2.97000 Y-4.05965
X2.97000 Y-4.05865
X2.96900 Y-4.05865
X2.96900 Y-4.05765
X2.96800 Y-4.05765
X2.96800 Y-4.05665
X2.96700 Y-4.05665
X2.96700 Y-4.05565
X2.96600 Y-4.05565
X2.96600 Y-4.05465
X2.96500 Y-4.05465
X2.96500 Y-4.05365
X2.96400 Y-4.05365
X2.96400 Y-4.05265
X2.96300 Y-4.05265
X2.96300 Y-4.05165
X2.96200 Y-4.05165
X2.96200 Y-4.05065
X2.96100 Y-4.05065
X2.96100 Y-4.04965
X2.96000 Y-4.04965
X2.96000 Y-4.04865
X2.95900 Y-4.04865
X2.95900 Y-4.04765
X2.95800 Y-4.04765
X2.95800 Y-4.04665
X2.95700 Y-4.04665
X2.95700 Y-4.04565
X2.95600 Y-4.04565
X2.95600 Y-4.04465
X2.95500 Y-4.04465
X2.95500 Y-4.04365
X2.95400 Y-4.04365
X2.95400 Y-4.04265
X2.95300 Y-4.04265
X2.95300 Y-4.04165
X2.95200 Y-4.04165
X2.95200 Y-4.04065
X2.95100 Y-4.04065
X2.95100 Y-4.03965
X2.95000 Y-4.03965
X2.95000 Y-4.03865
X2.94900 Y-4.03865
X2.94900 Y-4.03765
X2.94800 Y-4.03765
X2.94800 Y-4.03665
X2.94700 Y-4.03665
X2.94700 Y-4.03565
X2.94600 Y-4.03565
X2.94600 Y-4.03465
X2.94500 Y-4.03465
X2.94500 Y-4.03365
X2.94400 Y-4.03365
X2.94400 Y-4.03265
X2.94300 Y-4.03265
X2.94300 Y-4.03165
X2.94200 Y-4.03165
X2.94200 Y-4.03065
X2.94100 Y-4.03065
X2.94100 Y-4.02965
X2.94000 Y-4.02965
X2.94000 Y-4.02865
X2.93900 Y-4.02865
X2.93900 Y-4.02765
X2.93800 Y-4.02765
X2.93800 Y-4.02665
X2.93700 Y-4.02665
X2.93700 Y-4.02565
X2.93600 Y-4.02565
X2.93600 Y-4.02465
X2.93500 Y-4.02465
X2.93500 Y-4.02365
X2.93400 Y-4.02365
X2.93400 Y-4.02265
X2.93300 Y-4.02265
X2.93300 Y-4.02165
X2.93200 Y-4.02165
X2.93200 Y-4.02065
X2.93100 Y-4.02065
X2.93100 Y-4.01965
X2.93000 Y-4.01965
X2.93000 Y-4.01865
X2.92900 Y-4.01865
X2.92900 Y-4.01765
X2.92800 Y-4.01765
X2.92800 Y-4.01665
X2.92700 Y-4.01665
X2.92700 Y-4.01565
X2.92600 Y-4.01565
X2.92600 Y-4.01465
X2.92500 Y-4.01465
X2.92500 Y-4.01365
X2.92400 Y-4.01365
X2.92400 Y-4.01265
X2.92300 Y-4.01265
X2.92300 Y-4.01165
X2.92200 Y-4.01165
X2.92200 Y-4.01065
X2.92100 Y-4.01065
X2.92100 Y-4.00965
X2.92000 Y-4.00965
X2.92000 Y-4.00865
X2.91900 Y-4.00865
X2.91900 Y-4.00765
X2.91800 Y-4.00765
X2.91800 Y-4.00665
X2.91700 Y-4.00665
X2.91700 Y-4.00565
X2.91600 Y-4.00565
X2.91600 Y-4.00465
X2.91500 Y-4.00465
X2.91500 Y-4.00365
X2.91400 Y-4.00365
X2.91400 Y-4.00265
X2.91300 Y-4.00265
X2.91300 Y-4.00165
X2.91200 Y-4.00165
X2.91200 Y-4.00065
X2.91100 Y-4.00065
X2.91100 Y-3.99965
X2.91000 Y-3.99965
X2.91000 Y-3.99865
X2.90900 Y-3.99865
X2.90900 Y-3.99765
X2.90800 Y-3.99765
X2.90800 Y-3.99665
X2.90700 Y-3.99665
X2.90700 Y-3.99565
X2.90600 Y-3.99565
X2.90600 Y-3.99465
X2.90500 Y-3.99465
X2.90500 Y-3.99365
X2.90400 Y-3.99365
X2.90400 Y-3.99265
X2.90300 Y-3.99265
X2.90300 Y-3.99165
X2.90200 Y-3.99165
X2.90200 Y-3.99065
X2.90100 Y-3.99065
X2.90100 Y-3.98965
X2.90000 Y-3.98965
X2.90000 Y-3.98865
X2.89900 Y-3.98865
X2.89900 Y-3.98765
X2.89800 Y-3.98765
X2.89800 Y-3.98665
X2.89700 Y-3.98665
X2.89700 Y-3.98565
X2.89600 Y-3.98565
X2.89600 Y-3.98465
X2.89500 Y-3.98465
X2.89500 Y-3.98365
X2.89400 Y-3.98365
X2.89400 Y-3.98265
X2.89300 Y-3.98265
X2.89300 Y-3.98165
X2.89200 Y-3.98165
X2.89200 Y-3.98065
X2.89100 Y-3.98065
X2.89100 Y-3.97965
X2.89000 Y-3.97965
X2.89000 Y-3.97865
X2.88900 Y-3.97865
X2.88900 Y-3.97765
X2.88800 Y-3.97765
X2.88800 Y-3.97665
X2.88700 Y-3.97665
X2.88700 Y-3.97565
X2.88600 Y-3.97565
X2.88600 Y-3.97465
X2.88500 Y-3.97465
X2.88500 Y-3.97365
X2.88400 Y-3.97365
X2.88400 Y-3.97265
X2.88300 Y-3.97265
X2.88300 Y-3.97165
X2.88200 Y-3.97165
X2.88200 Y-3.97065
X2.88100 Y-3.97065
X2.88100 Y-3.96965
X2.88000 Y-3.96965
X2.88000 Y-3.96865
X2.87900 Y-3.96865
X2.87900 Y-3.96765
X2.87800 Y-3.96765
X2.87800 Y-3.96665
X2.87700 Y-3.96665
X2.87700 Y-3.96565
X2.87600 Y-3.96565
X2.87600 Y-3.96465
X2.87500 Y-3.96465
X2.87500 Y-3.96365
X2.87400 Y-3.96365
X2.87400 Y-3.96265
X2.87300 Y-3.96265
X2.87300 Y-3.96165
X2.87200 Y-3.96165
X2.87200 Y-3.96065
X2.87100 Y-3.96065
X2.87100 Y-3.95965
X2.87000 Y-3.95965
X2.87000 Y-3.95865
X2.86900 Y-3.95865
X2.86900 Y-3.95765
X2.86800 Y-3.95765
X2.86800 Y-3.95665
X2.86700 Y-3.95665
X2.86700 Y-3.95565
X2.86600 Y-3.95565
X2.86600 Y-3.95465
X2.86500 Y-3.95465
X2.86500 Y-3.95365
X2.86400 Y-3.95365
X2.86400 Y-3.95265
X2.86300 Y-3.95265
X2.86300 Y-3.95165
X2.86200 Y-3.95165
X2.86200 Y-3.95065
X2.86100 Y-3.95065
X2.86100 Y-3.94965
X2.86000 Y-3.94965
X2.86000 Y-3.94865
X2.85900 Y-3.94865
X2.85900 Y-3.94765
X2.85800 Y-3.94765
X2.85800 Y-3.94665
X2.85700 Y-3.94665
X2.85700 Y-3.94565
X2.85600 Y-3.94565
X2.85600 Y-3.94465
X2.85500 Y-3.94465
X2.85500 Y-3.94365
X2.85400 Y-3.94365
X2.85400 Y-3.94265
X2.85300 Y-3.94265
X2.85300 Y-3.94165
X2.85200 Y-3.94165
X2.85200 Y-3.94065
X2.85100 Y-3.94065
X2.85100 Y-3.93965
X2.85000 Y-3.93965
X2.85000 Y-3.93865
X2.84900 Y-3.93865
X2.84900 Y-3.93765
X2.84800 Y-3.93765
X2.84800 Y-3.93665
X2.84700 Y-3.93665
X2.84700 Y-3.93565
X2.84600 Y-3.93565
X2.84600 Y-3.93465
X2.84500 Y-3.93465
X2.84500 Y-3.93365
X2.84400 Y-3.93365
X2.84400 Y-3.93265
X2.84300 Y-3.93265
X2.84300 Y-3.93165
X2.84200 Y-3.93165
X2.84200 Y-3.92965
X2.84100 Y-3.92965
X2.84100 Y-3.92765
X2.84000 Y-3.92765
X2.84000 Y-3.92465
X2.83900 Y-3.92465
X2.83900 Y-3.92065
X2.83800 Y-3.92065
X2.83800 Y-3.78965
X2.83700 Y-3.78965
X2.83700 Y-3.78865
X2.83600 Y-3.78865
X2.83600 Y-3.78765
X2.83500 Y-3.78765
X2.83500 Y-3.78665
X2.83400 Y-3.78665
X2.83400 Y-3.78565
X2.83300 Y-3.78565
X2.83300 Y-3.78465
X2.83200 Y-3.78465
X2.83200 Y-3.78365
X2.83100 Y-3.78365
X2.83100 Y-3.78265
X2.83000 Y-3.78265
X2.83000 Y-3.78165
X2.82900 Y-3.78165
X2.82900 Y-3.78065
X2.82800 Y-3.78065
X2.82800 Y-3.77965
X2.82700 Y-3.77965
X2.82700 Y-3.77865
X2.82600 Y-3.77865
X2.82600 Y-3.77765
X2.82500 Y-3.77765
X2.82500 Y-3.77665
X2.82400 Y-3.77665
X2.82400 Y-3.77565
X2.82300 Y-3.77565
X2.82300 Y-3.77465
X2.82200 Y-3.77465
X2.82200 Y-3.77365
X2.82100 Y-3.77365
X2.82100 Y-3.77265
X2.82000 Y-3.77265
X2.82000 Y-3.77165
X2.81900 Y-3.77165
X2.81900 Y-3.77065
X2.81800 Y-3.77065
X2.81800 Y-3.76965
X2.81700 Y-3.76965
X2.81700 Y-3.76865
X2.81600 Y-3.76865
X2.81600 Y-3.76765
X2.81500 Y-3.76765
X2.81500 Y-3.76665
X2.81400 Y-3.76665
X2.81400 Y-3.76565
X2.81300 Y-3.76565
X2.81300 Y-3.76465
X2.81200 Y-3.76465
X2.81200 Y-3.76365
X2.81100 Y-3.76365
X2.81100 Y-3.76265
X2.81000 Y-3.76265
X2.81000 Y-3.76165
X2.80900 Y-3.76165
X2.80900 Y-3.76065
X2.80800 Y-3.76065
X2.80800 Y-3.75965
X2.80700 Y-3.75965
X2.80700 Y-3.75865
X2.80600 Y-3.75865
X2.80600 Y-3.75765
X2.80500 Y-3.75765
X2.80500 Y-3.75665
X2.80400 Y-3.75665
X2.80400 Y-3.75565
X2.80300 Y-3.75565
X2.80300 Y-3.75465
X2.80200 Y-3.75465
X2.80200 Y-3.75365
X2.80100 Y-3.75365
X2.80100 Y-3.75265
X2.80000 Y-3.75265
X2.80000 Y-3.75165
X2.79900 Y-3.75165
X2.79900 Y-3.75065
X2.79800 Y-3.75065
X2.79800 Y-3.74965
X2.79700 Y-3.74965
X2.79700 Y-3.74865
X2.79600 Y-3.74865
X2.79600 Y-3.74765
X2.79500 Y-3.74765
X2.79500 Y-3.74665
X2.79400 Y-3.74665
X2.79400 Y-3.74565
X2.79300 Y-3.74565
X2.79300 Y-3.74465
X2.79200 Y-3.74465
X2.79200 Y-3.74365
X2.79100 Y-3.74365
X2.79100 Y-3.74265
X2.79000 Y-3.74265
X2.79000 Y-3.74165
X2.78900 Y-3.74165
X2.78900 Y-3.74065
X2.78800 Y-3.74065
X2.78800 Y-3.73965
X2.78700 Y-3.73965
X2.78700 Y-3.73865
X2.78600 Y-3.73865
X2.78600 Y-3.73765
X2.78500 Y-3.73765
X2.78500 Y-3.73665
X2.78400 Y-3.73665
X2.78400 Y-3.73565
X2.78300 Y-3.73565
X2.78300 Y-3.73465
X2.78200 Y-3.73465
X2.78200 Y-3.73365
X2.78100 Y-3.73365
X2.78100 Y-3.73265
X2.78000 Y-3.73265
X2.78000 Y-3.73165
X2.77900 Y-3.73165
X2.77900 Y-3.73065
X2.77800 Y-3.73065
X2.77800 Y-3.72965
X2.77700 Y-3.72965
X2.77700 Y-3.72865
X2.77600 Y-3.72865
X2.77600 Y-3.72765
X2.77500 Y-3.72765
X2.77500 Y-3.72665
X2.77400 Y-3.72665
X2.77400 Y-3.72565
X2.77300 Y-3.72565
X2.77300 Y-3.72465
X2.77200 Y-3.72465
X2.77200 Y-3.72365
X2.77100 Y-3.72365
X2.77100 Y-3.72265
X2.77000 Y-3.72265
X2.77000 Y-3.72165
X2.76900 Y-3.72165
X2.76900 Y-3.72065
X2.76800 Y-3.72065
X2.76800 Y-3.71965
X2.76700 Y-3.71965
X2.76700 Y-3.71865
X2.76600 Y-3.71865
X2.76600 Y-3.71765
X2.76500 Y-3.71765
X2.76500 Y-3.71665
X2.76400 Y-3.71665
X2.76400 Y-3.71565
X2.76300 Y-3.71565
X2.76300 Y-3.71465
X2.76200 Y-3.71465
X2.76200 Y-3.71365
X2.76100 Y-3.71365
X2.76100 Y-3.71265
X2.76000 Y-3.71265
X2.76000 Y-3.71165
X2.75900 Y-3.71165
X2.75900 Y-3.71065
X2.75800 Y-3.71065
X2.75800 Y-3.70965
X2.75700 Y-3.70965
X2.75700 Y-3.70865
X2.75600 Y-3.70865
X2.75600 Y-3.70765
X2.75500 Y-3.70765
X2.75500 Y-3.70665
X2.75400 Y-3.70665
X2.75400 Y-3.70565
X2.75300 Y-3.70565
X2.75300 Y-3.70465
X2.75200 Y-3.70465
X2.75200 Y-3.70365
X2.75100 Y-3.70365
X2.75100 Y-3.70265
X2.75000 Y-3.70265
X2.75000 Y-3.70165
X2.74900 Y-3.70165
X2.74900 Y-3.70065
X2.74800 Y-3.70065
X2.74800 Y-3.69865
X2.74700 Y-3.69865
X2.74700 Y-3.69565
X2.74600 Y-3.69565
X2.74600 Y-3.69265
X2.74500 Y-3.69265
X2.74500 Y-3.68865
X2.74400 Y-3.68865
X2.74400 Y-3.68565
X2.74500 Y-3.68565
X2.74500 Y-3.68265
X2.74600 Y-3.68265
X2.74600 Y-3.67965
X2.74700 Y-3.67965
X2.74700 Y-3.67665
X2.74800 Y-3.67665
X2.74800 Y-3.67465
X2.75000 Y-3.67465
X2.75000 Y-3.67365
X2.75100 Y-3.67365
X2.75100 Y-3.67265
X2.75300 Y-3.67265
X2.75300 Y-3.67165
X2.75400 Y-3.67165
X2.75400 Y-3.67065
X2.75500 Y-3.67065
X2.75500 Y-3.66965
X2.75700 Y-3.66965
X2.75700 Y-3.66865
X2.76100 Y-3.66865
X2.76100 Y-3.66765
X2.76200 Y-3.66765
X2.76200 Y-3.66665
X2.76400 Y-3.66665
X2.76400 Y-3.66565
X2.77900 Y-3.66565
X2.77900 Y-3.66665
X2.78000 Y-3.66665
X2.78000 Y-3.66765
X2.78200 Y-3.66765
X2.78200 Y-3.66865
X2.78300 Y-3.66865
X2.78300 Y-3.66965
X2.78400 Y-3.66965
X2.78400 Y-3.67065
X2.78600 Y-3.67065
X2.78600 Y-3.67165
X2.78700 Y-3.67165
X2.78700 Y-3.67265
X2.78800 Y-3.67265
X2.78800 Y-3.67565
X2.78900 Y-3.67565
X2.78900 Y-3.67865
X2.79000 Y-3.67865
X2.79000 Y-3.68165
X2.79100 Y-3.68165
X2.79100 Y-3.68565
X2.79200 Y-3.68565
X2.79200 Y-3.68665
X2.79300 Y-3.68665
X2.79300 Y-3.68765
X2.79400 Y-3.68765
X2.79400 Y-3.68865
X2.79500 Y-3.68865
X2.79500 Y-3.68965
X2.79600 Y-3.68965
X2.79600 Y-3.69065
X2.79700 Y-3.69065
X2.79700 Y-3.69165
X2.79800 Y-3.69165
X2.79800 Y-3.69265
X2.79900 Y-3.69265
X2.79900 Y-3.69365
X2.80000 Y-3.69365
X2.80000 Y-3.69465
X2.80100 Y-3.69465
X2.80100 Y-3.69565
X2.80200 Y-3.69565
X2.80200 Y-3.69665
X2.80300 Y-3.69665
X2.80300 Y-3.69765
X2.80400 Y-3.69765
X2.80400 Y-3.69865
X2.80500 Y-3.69865
X2.80500 Y-3.69965
X2.80600 Y-3.69965
X2.80600 Y-3.70065
X2.80700 Y-3.70065
X2.80700 Y-3.70165
X2.80800 Y-3.70165
X2.80800 Y-3.70265
X2.80900 Y-3.70265
X2.80900 Y-3.70365
X2.81000 Y-3.70365
X2.81000 Y-3.70465
X2.81100 Y-3.70465
X2.81100 Y-3.70565
X2.81200 Y-3.70565
X2.81200 Y-3.70665
X2.81300 Y-3.70665
X2.81300 Y-3.70765
X2.81400 Y-3.70765
X2.81400 Y-3.70865
X2.81500 Y-3.70865
X2.81500 Y-3.70965
X2.81600 Y-3.70965
X2.81600 Y-3.71065
X2.81700 Y-3.71065
X2.81700 Y-3.71165
X2.81800 Y-3.71165
X2.81800 Y-3.71265
X2.81900 Y-3.71265
X2.81900 Y-3.71365
X2.82000 Y-3.71365
X2.82000 Y-3.71465
X2.82100 Y-3.71465
X2.82100 Y-3.71565
X2.82200 Y-3.71565
X2.82200 Y-3.71665
X2.82300 Y-3.71665
X2.82300 Y-3.71765
X2.82400 Y-3.71765
X2.82400 Y-3.71865
X2.82500 Y-3.71865
X2.82500 Y-3.71965
X2.82600 Y-3.71965
X2.82600 Y-3.72065
X2.82700 Y-3.72065
X2.82700 Y-3.72165
X2.82800 Y-3.72165
X2.82800 Y-3.72265
X2.82900 Y-3.72265
X2.82900 Y-3.72365
X2.83000 Y-3.72365
X2.83000 Y-3.72465
X2.83100 Y-3.72465
X2.83100 Y-3.72565
X2.83200 Y-3.72565
X2.83200 Y-3.72665
X2.83300 Y-3.72665
X2.83300 Y-3.72765
X2.83400 Y-3.72765
X2.83400 Y-3.72865
X2.83500 Y-3.72865
X2.83500 Y-3.72965
X2.83600 Y-3.72965
X2.83600 Y-3.73065
X2.83700 Y-3.73065
X2.83700 Y-3.73165
X2.83800 Y-3.73165
X2.83800 Y-3.73265
X2.83900 Y-3.73265
X2.83900 Y-3.73365
X2.84000 Y-3.73365
X2.84000 Y-3.73465
X2.84100 Y-3.73465
X2.84100 Y-3.73565
X2.84200 Y-3.73565
X2.84200 Y-3.73665
X2.84300 Y-3.73665
X2.84300 Y-3.73765
X2.84400 Y-3.73765
X2.84400 Y-3.73865
X2.84500 Y-3.73865
X2.84500 Y-3.73965
X2.84600 Y-3.73965
X2.84600 Y-3.74065
X2.84700 Y-3.74065
X2.84700 Y-3.74165
X2.84800 Y-3.74165
X2.84800 Y-3.74265
X2.84900 Y-3.74265
X2.84900 Y-3.74365
X2.85000 Y-3.74365
X2.85000 Y-3.74465
X2.85100 Y-3.74465
X2.85100 Y-3.74565
X2.85200 Y-3.74565
X2.85200 Y-3.74665
X2.85300 Y-3.74665
X2.85300 Y-3.74765
X2.85400 Y-3.74765
X2.85400 Y-3.74865
X2.85500 Y-3.74865
X2.85500 Y-3.74965
X2.85600 Y-3.74965
X2.85600 Y-3.75065
X2.85700 Y-3.75065
X2.85700 Y-3.75165
X2.85800 Y-3.75165
X2.85800 Y-3.75265
X2.85900 Y-3.75265
X2.85900 Y-3.75365
X2.86000 Y-3.75365
X2.86000 Y-3.75465
X2.86100 Y-3.75465
X2.86100 Y-3.75565
X2.86200 Y-3.75565
X2.86200 Y-3.75665
X2.86300 Y-3.75665
X2.86300 Y-3.75765
X2.86400 Y-3.75765
X2.86400 Y-3.75865
X2.86500 Y-3.75865
X2.86500 Y-3.75965
X2.86600 Y-3.75965
X2.86600 Y-3.76065
X2.87100 Y-3.76065
X2.87100 Y-3.75965
X2.88900 Y-3.75965
X2.88900 Y-3.75865
X2.90800 Y-3.75865
X2.90800 Y-3.75765
X2.92700 Y-3.75765
X2.92700 Y-3.75665
X2.94600 Y-3.75665
X2.94600 Y-3.75565
X2.96500 Y-3.75565
X2.96500 Y-3.75465
X2.98400 Y-3.75465
X2.98400 Y-3.75365
X3.00300 Y-3.75365
X3.00300 Y-3.75265
X3.02100 Y-3.75265
X3.02100 Y-3.75165
X3.04000 Y-3.75165
X3.04000 Y-3.75065
X3.05900 Y-3.75065
X3.05900 Y-3.74965
X3.07800 Y-3.74965
X3.07800 Y-3.74865
X3.09700 Y-3.74865
X3.09700 Y-3.74765
X3.11600 Y-3.74765
X3.11600 Y-3.74665
X3.13500 Y-3.74665
X3.13500 Y-3.74565
X3.15300 Y-3.74565
X3.15300 Y-3.74465
X3.17200 Y-3.74465
X3.17200 Y-3.74365
X3.19100 Y-3.74365
X3.19100 Y-3.74265
X3.21000 Y-3.74265
X3.21000 Y-3.74165
X3.21700 Y-3.74165
X3.21700 Y-3.74065
X3.21800 Y-3.74065
X3.21800 Y-3.73965
X3.21900 Y-3.73965
X3.21900 Y-3.73765
X3.22000 Y-3.73765
X3.22000 Y-3.73665
X3.22100 Y-3.73665
X3.22100 Y-3.73565
X3.22200 Y-3.73565
X3.22200 Y-3.73365
X3.22300 Y-3.73365
X3.22300 Y-3.73265
X3.22400 Y-3.73265
X3.22400 Y-3.73165
X3.22500 Y-3.73165
X3.22500 Y-3.72965
X3.22600 Y-3.72965
X3.22600 Y-3.72865
X3.22700 Y-3.72865
X3.22700 Y-3.72765
X3.22800 Y-3.72765
X3.22800 Y-3.72565
X3.22900 Y-3.72565
X3.22900 Y-3.72465
X3.23000 Y-3.72465
X3.23000 Y-3.72365
X3.23100 Y-3.72365
X3.23100 Y-3.72165
X3.23200 Y-3.72165
X3.23200 Y-3.72065
X3.23300 Y-3.72065
X3.23300 Y-3.71965
X3.23400 Y-3.71965
X3.23400 Y-3.71765
X3.23500 Y-3.71765
X3.23500 Y-3.71665
X3.23600 Y-3.71665
X3.23600 Y-3.71565
X3.23700 Y-3.71565
X3.23700 Y-3.71365
X3.23800 Y-3.71365
X3.23800 Y-3.71265
X3.23900 Y-3.71265
X3.23900 Y-3.71165
X3.24000 Y-3.71165
X3.24000 Y-3.70965
X3.24100 Y-3.70965
X3.24100 Y-3.70865
X3.24200 Y-3.70865
X3.24200 Y-3.70765
X3.24300 Y-3.70765
X3.24300 Y-3.70565
X3.24400 Y-3.70565
X3.24400 Y-3.70465
X3.24500 Y-3.70465
X3.24500 Y-3.70365
X3.24600 Y-3.70365
X3.24600 Y-3.70165
X3.24700 Y-3.70165
X3.24700 Y-3.70065
X3.24800 Y-3.70065
X3.24800 Y-3.69965
X3.24900 Y-3.69965
X3.24900 Y-3.69765
X3.25000 Y-3.69765
X3.25000 Y-3.69665
X3.25100 Y-3.69665
X3.25100 Y-3.69565
X3.25200 Y-3.69565
X3.25200 Y-3.69365
X3.25300 Y-3.69365
X3.25300 Y-3.69265
X3.25400 Y-3.69265
X3.25400 Y-3.69165
X3.25500 Y-3.69165
X3.25500 Y-3.68965
X3.25600 Y-3.68965
X3.25600 Y-3.68865
X3.25700 Y-3.68865
X3.25700 Y-3.68765
X3.25800 Y-3.68765
X3.25800 Y-3.68565
X3.25900 Y-3.68565
X3.25900 Y-3.68465
X3.26000 Y-3.68465
X3.26000 Y-3.68365
X3.26100 Y-3.68365
X3.26100 Y-3.68165
X3.26200 Y-3.68165
X3.26200 Y-3.68065
X3.26300 Y-3.68065
X3.26300 Y-3.67965
X3.26400 Y-3.67965
X3.26400 Y-3.67765
X3.26500 Y-3.67765
X3.26500 Y-3.67665
X3.26600 Y-3.67665
X3.26600 Y-3.67565
X3.26700 Y-3.67565
X3.26700 Y-3.67365
X3.26800 Y-3.67365
X3.26800 Y-3.67265
X3.26900 Y-3.67265
X3.26900 Y-3.67165
X3.27000 Y-3.67165
X3.27000 Y-3.66965
X3.27100 Y-3.66965
X3.27100 Y-3.66865
X3.27200 Y-3.66865
X3.27200 Y-3.66765
X3.27300 Y-3.66765
X3.27300 Y-3.66665
X3.27400 Y-3.66665
X3.27400 Y-3.66465
X3.27500 Y-3.66465
X3.27500 Y-3.66365
X3.27600 Y-3.66365
X3.27600 Y-3.66265
X3.27700 Y-3.66265
X3.27700 Y-3.66065
X3.27800 Y-3.66065
X3.27800 Y-3.65965
X3.27900 Y-3.65965
X3.27900 Y-3.65865
X3.28000 Y-3.65865
X3.28000 Y-3.65665
X3.28100 Y-3.65665
X3.28100 Y-3.65565
X3.28200 Y-3.65565
X3.28200 Y-3.65465
X3.28300 Y-3.65465
X3.28300 Y-3.65265
X3.28400 Y-3.65265
X3.28400 Y-3.65165
X3.28500 Y-3.65165
X3.28500 Y-3.65065
X3.28600 Y-3.65065
X3.28600 Y-3.64865
X3.28700 Y-3.64865
X3.28700 Y-3.64765
X3.28800 Y-3.64765
X3.28800 Y-3.64665
X3.28900 Y-3.64665
X3.28900 Y-3.64465
X3.29000 Y-3.64465
X3.29000 Y-3.64365
X3.29100 Y-3.64365
X3.29100 Y-3.64265
X3.29200 Y-3.64265
X3.29200 Y-3.64065
X3.29300 Y-3.64065
X3.29300 Y-3.63965
X3.29400 Y-3.63965
X3.29400 Y-3.63865
X3.29500 Y-3.63865
X3.29500 Y-3.63665
X3.29600 Y-3.63665
X3.29600 Y-3.63565
X3.29700 Y-3.63565
X3.29700 Y-3.63465
X3.29800 Y-3.63465
X3.29800 Y-3.63265
X3.29900 Y-3.63265
X3.29900 Y-3.63165
X3.30000 Y-3.63165
X3.30000 Y-3.63065
X3.30100 Y-3.63065
X3.30100 Y-3.62865
X3.30200 Y-3.62865
X3.30200 Y-3.62765
X3.30300 Y-3.62765
X3.30300 Y-3.62665
X3.30400 Y-3.62665
X3.30400 Y-3.62465
X3.30500 Y-3.62465
X3.30500 Y-3.62365
X3.30600 Y-3.62365
X3.30600 Y-3.62265
X3.30700 Y-3.62265
X3.30700 Y-3.62065
X3.30800 Y-3.62065
X3.30800 Y-3.61965
X3.30900 Y-3.61965
X3.30900 Y-3.61865
X3.31000 Y-3.61865
X3.31000 Y-3.61665
X3.31100 Y-3.61665
X3.31100 Y-3.61565
X3.31200 Y-3.61565
X3.31200 Y-3.61465
X3.31300 Y-3.61465
X3.31300 Y-3.61265
X3.31400 Y-3.61265
X3.31400 Y-3.61165
X3.31500 Y-3.61165
X3.31500 Y-3.61065
X3.31600 Y-3.61065
X3.31600 Y-3.60865
X3.31700 Y-3.60865
X3.31700 Y-3.60765
X3.31800 Y-3.60765
X3.31800 Y-3.60665
X3.31900 Y-3.60665
X3.31900 Y-3.60465
X3.32000 Y-3.60465
X3.32000 Y-3.60365
X3.32100 Y-3.60365
X3.32100 Y-3.60265
X3.32200 Y-3.60265
X3.32200 Y-3.60065
X3.32300 Y-3.60065
X3.32300 Y-3.59965
X3.32400 Y-3.59965
X3.32400 Y-3.59865
X3.32500 Y-3.59865
X3.32500 Y-3.59665
X3.32600 Y-3.59665
X3.32600 Y-3.59565
X3.32700 Y-3.59565
X3.32700 Y-3.59465
X3.32800 Y-3.59465
X3.32800 Y-3.55865
X3.32900 Y-3.55865
X3.32900 Y-3.49565
X3.33000 Y-3.49565
X3.33000 Y-3.43265
X3.33100 Y-3.43265
X3.33100 Y-3.36865
X3.33200 Y-3.36865
X3.33200 Y-3.30565
X3.33300 Y-3.30565
X3.33300 Y-3.24165
X3.33400 Y-3.24165
X3.33400 Y-3.17865
X3.33500 Y-3.17865
X3.33500 Y-3.16965
X3.33400 Y-3.16965
X3.33400 Y-3.15865
X3.33300 Y-3.15865
X3.33300 Y-3.14765
X3.33200 Y-3.14765
X3.33200 Y-3.13665
X3.33100 Y-3.13665
X3.33100 Y-3.12565
X3.33000 Y-3.12565
X3.33000 Y-3.11465
X3.32900 Y-3.11465
X3.32900 Y-3.10365
X3.32800 Y-3.10365
X3.32800 Y-3.09265
X3.32700 Y-3.09265
X3.32700 Y-3.08165
X3.32600 Y-3.08165
X3.32600 Y-3.07065
X3.32500 Y-3.07065
X3.32500 Y-3.05965
X3.32400 Y-3.05965
X3.32400 Y-3.04865
X3.32300 Y-3.04865
X3.32300 Y-3.03765
X3.32200 Y-3.03765
X3.32200 Y-3.02665
X3.32100 Y-3.02665
X3.32100 Y-3.01565
X3.32000 Y-3.01565
X3.32000 Y-3.00465
X3.31900 Y-3.00465
X3.31900 Y-2.99365
X3.31800 Y-2.99365
X3.31800 Y-2.98265
X3.31700 Y-2.98265
X3.31700 Y-2.97165
X3.31600 Y-2.97165
X3.31600 Y-2.96065
X3.31500 Y-2.96065
X3.31500 Y-2.94965
X3.31400 Y-2.94965
X3.31400 Y-2.94165
X3.31300 Y-2.94165
X3.31300 Y-2.94065
X3.31200 Y-2.94065
X3.31200 Y-2.93965
X3.31100 Y-2.93965
X3.31100 Y-2.93865
X3.31000 Y-2.93865
X3.31000 Y-2.93765
X3.30900 Y-2.93765
X3.30900 Y-2.93665
X3.30800 Y-2.93665
X3.30800 Y-2.93565
X3.30700 Y-2.93565
X3.30700 Y-2.93465
X3.30600 Y-2.93465
X3.30600 Y-2.93365
X3.30500 Y-2.93365
X3.30500 Y-2.93265
X3.30400 Y-2.93265
X3.30400 Y-2.93165
X3.30300 Y-2.93165
X3.30300 Y-2.93065
X3.30200 Y-2.93065
X3.30200 Y-2.92965
X3.30100 Y-2.92965
X3.30100 Y-2.92865
X3.30000 Y-2.92865
X3.30000 Y-2.92765
X3.29900 Y-2.92765
X3.29900 Y-2.92665
X3.29800 Y-2.92665
X3.29800 Y-2.92565
X3.29700 Y-2.92565
X3.29700 Y-2.92465
X3.29600 Y-2.92465
X3.29600 Y-2.92365
X3.29500 Y-2.92365
X3.29500 Y-2.92265
X3.29400 Y-2.92265
X3.29400 Y-2.92165
X3.29300 Y-2.92165
X3.29300 Y-2.92065
X3.29200 Y-2.92065
X3.29200 Y-2.91965
X3.29100 Y-2.91965
X3.29100 Y-2.91865
X3.29000 Y-2.91865
X3.29000 Y-2.91765
X3.28900 Y-2.91765
X3.28900 Y-2.91665
X3.28800 Y-2.91665
X3.28800 Y-2.91565
X3.28700 Y-2.91565
X3.28700 Y-2.91465
X3.28600 Y-2.91465
X3.28600 Y-2.91365
X3.28500 Y-2.91365
X3.28500 Y-2.91265
X3.28400 Y-2.91265
X3.28400 Y-2.91165
X3.28300 Y-2.91165
X3.28300 Y-2.91065
X3.28200 Y-2.91065
X3.28200 Y-2.90965
X3.28100 Y-2.90965
X3.28100 Y-2.90865
X3.28000 Y-2.90865
X3.28000 Y-2.90765
X3.27900 Y-2.90765
X3.27900 Y-2.90665
X3.27800 Y-2.90665
X3.27800 Y-2.90565
X3.27700 Y-2.90565
X3.27700 Y-2.90465
X3.27600 Y-2.90465
X3.27600 Y-2.90365
X3.27500 Y-2.90365
X3.27500 Y-2.90265
X3.27400 Y-2.90265
X3.27400 Y-2.90165
X3.27300 Y-2.90165
X3.27300 Y-2.90065
X3.27200 Y-2.90065
X3.27200 Y-2.89965
X3.27100 Y-2.89965
X3.27100 Y-2.89865
X3.27000 Y-2.89865
X3.27000 Y-2.89765
X3.26900 Y-2.89765
X3.26900 Y-2.89665
X3.26800 Y-2.89665
X3.26800 Y-2.89565
X3.26700 Y-2.89565
X3.26700 Y-2.89465
X3.26600 Y-2.89465
X3.26600 Y-2.89365
X3.26500 Y-2.89365
X3.26500 Y-2.89265
X3.26400 Y-2.89265
X3.26400 Y-2.89165
X3.26300 Y-2.89165
X3.26300 Y-2.89065
X3.26200 Y-2.89065
X3.26200 Y-2.88965
X3.26100 Y-2.88965
X3.26100 Y-2.88865
X3.26000 Y-2.88865
X3.26000 Y-2.88765
X3.25900 Y-2.88765
X3.25900 Y-2.88665
X3.25800 Y-2.88665
X3.25800 Y-2.88565
X3.25700 Y-2.88565
X3.25700 Y-2.88465
X3.25600 Y-2.88465
X3.25600 Y-2.88365
X3.25500 Y-2.88365
X3.25500 Y-2.88265
X3.25400 Y-2.88265
X3.25400 Y-2.88165
X3.25300 Y-2.88165
X3.25300 Y-2.88065
X3.25200 Y-2.88065
X3.25200 Y-2.87965
X3.25100 Y-2.87965
X3.25100 Y-2.87865
X3.25000 Y-2.87865
X3.25000 Y-2.87765
X3.24900 Y-2.87765
X3.24900 Y-2.87665
X3.24800 Y-2.87665
X3.24800 Y-2.87565
X3.24700 Y-2.87565
X3.24700 Y-2.87365
X3.24600 Y-2.87365
X3.24600 Y-2.87265
X3.24500 Y-2.87265
X3.24500 Y-2.87165
X3.24400 Y-2.87165
X3.24400 Y-2.87065
X3.24300 Y-2.87065
X3.24300 Y-2.86965
X3.24200 Y-2.86965
X3.24200 Y-2.86865
X3.24100 Y-2.86865
X3.24100 Y-2.86765
X3.24000 Y-2.86765
X3.24000 Y-2.86665
X3.23900 Y-2.86665
X3.23900 Y-2.86565
X3.23800 Y-2.86565
X3.23800 Y-2.86465
X3.23700 Y-2.86465
X3.23700 Y-2.86365
X3.23600 Y-2.86365
X3.23600 Y-2.86265
X3.23500 Y-2.86265
X3.23500 Y-2.86165
X3.23400 Y-2.86165
X3.23400 Y-2.86065
X3.23300 Y-2.86065
X3.23300 Y-2.85965
X3.23200 Y-2.85965
X3.23200 Y-2.85865
X3.23100 Y-2.85865
X3.23100 Y-2.85765
X3.23000 Y-2.85765
X3.23000 Y-2.85665
X3.22900 Y-2.85665
X3.22900 Y-2.85565
X3.22800 Y-2.85565
X3.22800 Y-2.85465
X3.22700 Y-2.85465
X3.22700 Y-2.85365
X3.22600 Y-2.85365
X3.22600 Y-2.85265
X3.22500 Y-2.85265
X3.22500 Y-2.85165
X3.22400 Y-2.85165
X3.22400 Y-2.85065
X3.22300 Y-2.85065
X3.22300 Y-2.84965
X3.22200 Y-2.84965
X3.22200 Y-2.84865
X3.22100 Y-2.84865
X3.22100 Y-2.84765
X3.22000 Y-2.84765
X3.22000 Y-2.84665
X3.21900 Y-2.84665
X3.21900 Y-2.84565
X3.21800 Y-2.84565
X3.21800 Y-2.84465
X3.21700 Y-2.84465
X3.21700 Y-2.84365
X3.21600 Y-2.84365
X3.21600 Y-2.84265
X3.21500 Y-2.84265
X3.21500 Y-2.84165
X3.21400 Y-2.84165
X3.21400 Y-2.84065
X3.21300 Y-2.84065
X3.21300 Y-2.83965
X3.21200 Y-2.83965
X3.21200 Y-2.83865
X3.21100 Y-2.83865
X3.21100 Y-2.83765
X3.21000 Y-2.83765
X3.21000 Y-2.83665
X3.20900 Y-2.83665
X3.20900 Y-2.83565
X2.19100 Y-2.83565
X2.19100 Y-2.83665
X2.19000 Y-2.83665
X2.19000 Y-2.83865
X2.18900 Y-2.83865
X2.18900 Y-2.84065
X2.18800 Y-2.84065
X2.18800 Y-2.84265
X2.18700 Y-2.84265
X2.18700 Y-2.84465
X2.18600 Y-2.84465
X2.18600 Y-2.84765
X2.18500 Y-2.84765
X2.18500 Y-2.84965
X2.18400 Y-2.84965
X2.18400 Y-2.85165
X2.18300 Y-2.85165
X2.18300 Y-2.85365
X2.18200 Y-2.85365
X2.18200 Y-2.85565
X2.18100 Y-2.85565
X2.18100 Y-2.85765
X2.18000 Y-2.85765
X2.18000 Y-2.86065
X2.17900 Y-2.86065
X2.17900 Y-2.86265
X2.17800 Y-2.86265
X2.17800 Y-2.86465
X2.17700 Y-2.86465
X2.17700 Y-2.86665
X2.17600 Y-2.86665
X2.17600 Y-2.86865
X2.17500 Y-2.86865
X2.17500 Y-2.87065
X2.17400 Y-2.87065
X2.17400 Y-2.87365
X2.17300 Y-2.87365
X2.17300 Y-2.87565
X2.17200 Y-2.87565
X2.17200 Y-2.87765
X2.17100 Y-2.87765
X2.17100 Y-2.87965
X2.17000 Y-2.87965
X2.17000 Y-2.88165
X2.16900 Y-2.88165
X2.16900 Y-2.88365
X2.16800 Y-2.88365
X2.16800 Y-2.88665
X2.16700 Y-2.88665
X2.16700 Y-2.88865
X2.16600 Y-2.88865
X2.16600 Y-2.89065
X2.16500 Y-2.89065
X2.16500 Y-2.89265
X2.16400 Y-2.89265
X2.16400 Y-2.89465
X2.16300 Y-2.89465
X2.16300 Y-2.89665
X2.16200 Y-2.89665
X2.16200 Y-2.89965
X2.16100 Y-2.89965
X2.16100 Y-2.90165
X2.16000 Y-2.90165
X2.16000 Y-2.90365
X2.15900 Y-2.90365
X2.15900 Y-2.90565
X2.15800 Y-2.90565
X2.15800 Y-2.90765
X2.15700 Y-2.90765
X2.15700 Y-2.90965
X2.15600 Y-2.90965
X2.15600 Y-2.91265
X2.15500 Y-2.91265
X2.15500 Y-2.91465
X2.15400 Y-2.91465
X2.15400 Y-2.91665
X2.15300 Y-2.91665
X2.15300 Y-2.91865
X2.15200 Y-2.91865
X2.15200 Y-2.92065
X2.15100 Y-2.92065
X2.15100 Y-2.92265
X2.15000 Y-2.92265
X2.15000 Y-2.92565
X2.14900 Y-2.92565
X2.14900 Y-2.92765
X2.14800 Y-2.92765
X2.14800 Y-2.92865
X2.14700 Y-2.92865
X2.14700 Y-2.93065
X2.14500 Y-2.93065
X2.14500 Y-2.93165
X2.14400 Y-2.93165
X2.14400 Y-2.93265
X2.14300 Y-2.93265
X2.14300 Y-2.93365
X2.14100 Y-2.93365
X2.14100 Y-2.93465
X2.14000 Y-2.93465
X2.14000 Y-2.93565
X2.13800 Y-2.93565
X2.13800 Y-2.93665
X2.13700 Y-2.93665
X2.13700 Y-2.93765
X2.12400 Y-2.93765
X2.12400 Y-2.93665
X2.12200 Y-2.93665
X2.12200 Y-2.93565
X2.12100 Y-2.93565
X2.12100 Y-2.93465
X2.12000 Y-2.93465
X2.12000 Y-2.93365
X2.11800 Y-2.93365
X2.11800 Y-2.93265
X2.11700 Y-2.93265
X2.11700 Y-2.93165
X2.11600 Y-2.93165
X2.11600 Y-2.93065
X2.11400 Y-2.93065
X2.11400 Y-2.92865
X2.11300 Y-2.92865
X2.11300 Y-2.92565
X2.11200 Y-2.92565
X2.11200 Y-2.92265
X2.11100 Y-2.92265
X2.11100 Y-2.91965
X2.11000 Y-2.91965
X2.11000 Y-2.91665
X2.11100 Y-2.91665
X2.11100 Y-2.91165
X2.11200 Y-2.91165
X2.11200 Y-2.90865
X2.11300 Y-2.90865
X2.11300 Y-2.90565
X2.11400 Y-2.90565
X2.11400 Y-2.90365
X2.11500 Y-2.90365
X2.11500 Y-2.90165
X2.11600 Y-2.90165
X2.11600 Y-2.89965
X2.11700 Y-2.89965
X2.11700 Y-2.89765
X2.11800 Y-2.89765
X2.11800 Y-2.89565
X2.11900 Y-2.89565
X2.11900 Y-2.89265
X2.12000 Y-2.89265
X2.12000 Y-2.89065
X2.12100 Y-2.89065
X2.12100 Y-2.88865
X2.12200 Y-2.88865
X2.12200 Y-2.88665
X2.12300 Y-2.88665
X2.12300 Y-2.88465
X2.12400 Y-2.88465
X2.12400 Y-2.88265
X2.12500 Y-2.88265
X2.12500 Y-2.87965
X2.12600 Y-2.87965
X2.12600 Y-2.87765
X2.12700 Y-2.87765
X2.12700 Y-2.87565
X2.12800 Y-2.87565
X2.12800 Y-2.87365
X2.12900 Y-2.87365
X2.12900 Y-2.87165
X2.13000 Y-2.87165
X2.13000 Y-2.86965
X2.13100 Y-2.86965
X2.13100 Y-2.86665
X2.13200 Y-2.86665
X2.13200 Y-2.86465
X2.13300 Y-2.86465
X2.13300 Y-2.86265
X2.13400 Y-2.86265
X2.13400 Y-2.86065
X2.13500 Y-2.86065
X2.13500 Y-2.85865
X2.13600 Y-2.85865
X2.13600 Y-2.85665
X2.13700 Y-2.85665
X2.13700 Y-2.85465
X2.13800 Y-2.85465
X2.13800 Y-2.85165
X2.13900 Y-2.85165
X2.13900 Y-2.84965
X2.14000 Y-2.84965
X2.14000 Y-2.84765
X2.14100 Y-2.84765
X2.14100 Y-2.84565
X2.14200 Y-2.84565
X2.14200 Y-2.84365
X2.14300 Y-2.84365
X2.14300 Y-2.84165
X2.14400 Y-2.84165
X2.14400 Y-2.83865
X2.14500 Y-2.83865
X2.14500 Y-2.83665
X2.14600 Y-2.83665
X2.14600 Y-2.83465
X2.14700 Y-2.83465
X2.14700 Y-2.83265
X2.14800 Y-2.83265
X2.14800 Y-2.83065
X2.14900 Y-2.83065
X2.14900 Y-2.82865
X2.15000 Y-2.82865
X2.15000 Y-2.82565
X2.15100 Y-2.82565
X2.15100 Y-2.82365
X2.15200 Y-2.82365
X2.15200 Y-2.82165
X2.15300 Y-2.82165
X2.15300 Y-2.81965
X2.15400 Y-2.81965
X2.15400 Y-2.81765
X2.15500 Y-2.81765
X2.15500 Y-2.81565
X2.15600 Y-2.81565
X2.15600 Y-2.81265
X2.15700 Y-2.81265
X2.15700 Y-2.81065
X2.15800 Y-2.81065
X2.15800 Y-2.80865
X2.15900 Y-2.80865
X2.15900 Y-2.80665
X2.16000 Y-2.80665
X2.16000 Y-2.80465
X2.16100 Y-2.80465
X2.16100 Y-2.80365
X2.16200 Y-2.80365
X2.16200 Y-2.80265
X2.16300 Y-2.80265
X2.16300 Y-2.80165
X2.16500 Y-2.80165
X2.16500 Y-2.80065
X2.16600 Y-2.80065
X2.16600 Y-2.79965
X2.16700 Y-2.79965
X2.16700 Y-2.79865
X2.16900 Y-2.79865
X2.16900 Y-2.79765
X2.17000 Y-2.79765
X2.17000 Y-2.79665
X2.17200 Y-2.79665
X2.17200 Y-2.79565
X3.22300 Y-2.79565
X3.22300 Y-2.79665
G04 P0 ( dwell for no time -- G64 should not smooth over this point )
G00 Z0.19685 ( retract )

G00 X1.49600 Y-2.81565 ( rapid move to begin. )
G01 Z-0.00591 F39.37008 ( plunge. )
G04 P0 ( dwell for no time -- G64 should not smooth over this point )
X1.49600 Y-2.81565
X1.49900 Y-2.81565
X1.49900 Y-2.81665
X1.50100 Y-2.81665
X1.50100 Y-2.81765
X1.50200 Y-2.81765
X1.50200 Y-2.81865
X1.50300 Y-2.81865
X1.50300 Y-2.81965
X1.50400 Y-2.81965
X1.50400 Y-2.82065
X1.50500 Y-2.82065
X1.50500 Y-2.82165
X1.50600 Y-2.82165
X1.50600 Y-2.82365
X1.50700 Y-2.82365
X1.50700 Y-2.83565
X1.50600 Y-2.83565
X1.50600 Y-2.83765
X1.50500 Y-2.83765
X1.50500 Y-2.83965
X1.50400 Y-2.83965
X1.50400 Y-2.84065
X1.50300 Y-2.84065
X1.50300 Y-2.84165
X1.50200 Y-2.84165
X1.50200 Y-2.84265
X1.50000 Y-2.84265
X1.50000 Y-2.84365
X1.49800 Y-2.84365
X1.49800 Y-2.84465
X1.49900 Y-2.84465
X1.49900 Y-2.84565
X1.50000 Y-2.84565
X1.50000 Y-2.84765
X1.50100 Y-2.84765
X1.50100 Y-2.84865
X1.50200 Y-2.84865
X1.50200 Y-2.85065
X1.50300 Y-2.85065
X1.50300 Y-2.85165
X1.50400 Y-2.85165
X1.50400 Y-2.85265
X1.50500 Y-2.85265
X1.50500 Y-2.85465
X1.50600 Y-2.85465
X1.50600 Y-2.85565
X1.50700 Y-2.85565
X1.50700 Y-2.86065
X1.50600 Y-2.86065
X1.50600 Y-2.86265
X1.50100 Y-2.86265
X1.50100 Y-2.86165
X1.49900 Y-2.86165
X1.49900 Y-2.86065
X1.49800 Y-2.86065
X1.49800 Y-2.85965
X1.49700 Y-2.85965
X1.49700 Y-2.85765
X1.49600 Y-2.85765
X1.49600 Y-2.85665
X1.49500 Y-2.85665
X1.49500 Y-2.85465
X1.49400 Y-2.85465
X1.49400 Y-2.85365
X1.49300 Y-2.85365
X1.49300 Y-2.85165
X1.49200 Y-2.85165
X1.49200 Y-2.85065
X1.49100 Y-2.85065
X1.49100 Y-2.84965
X1.49000 Y-2.84965
X1.49000 Y-2.84765
X1.48900 Y-2.84765
X1.48900 Y-2.84665
X1.48800 Y-2.84665
X1.48800 Y-2.84465
X1.48500 Y-2.84465
X1.48500 Y-2.85965
X1.48400 Y-2.85965
X1.48400 Y-2.86165
X1.48300 Y-2.86165
X1.48300 Y-2.86265
X1.47800 Y-2.86265
X1.47800 Y-2.86165
X1.47700 Y-2.86165
X1.47700 Y-2.86065
X1.47600 Y-2.86065
X1.47600 Y-2.81865
X1.47700 Y-2.81865
X1.47700 Y-2.81665
X1.47800 Y-2.81665
X1.47800 Y-2.81565
X1.48000 Y-2.81565
X1.48000 Y-2.81465
X1.49600 Y-2.81465
X1.49600 Y-2.81565
G04 P0 ( dwell for no time -- G64 should not smooth over this point )
G00 Z0.19685 ( retract )

G00 X1.83500 Y-2.81565 ( rapid move to begin. )
G01 Z-0.00591 F39.37008 ( plunge. )
G04 P0 ( dwell for no time -- G64 should not smooth over this point )
X1.83500 Y-2.81565
X1.83900 Y-2.81565
X1.83900 Y-2.81665
X1.84200 Y-2.81665
X1.84200 Y-2.81765
X1.84300 Y-2.81765
X1.84300 Y-2.81865
X1.84500 Y-2.81865
X1.84500 Y-2.81965
X1.84600 Y-2.81965
X1.84600 Y-2.82265
X1.84700 Y-2.82265
X1.84700 Y-2.82465
X1.84600 Y-2.82465
X1.84600 Y-2.82565
X1.84500 Y-2.82565
X1.84500 Y-2.82765
X1.84300 Y-2.82765
X1.84300 Y-2.82665
X1.83800 Y-2.82665
X1.83800 Y-2.82565
X1.83700 Y-2.82565
X1.83700 Y-2.82465
X1.83400 Y-2.82465
X1.83400 Y-2.82365
X1.83200 Y-2.82365
X1.83200 Y-2.82465
X1.82900 Y-2.82465
X1.82900 Y-2.82565
X1.82700 Y-2.82565
X1.82700 Y-2.82665
X1.82600 Y-2.82665
X1.82600 Y-2.82765
X1.82500 Y-2.82765
X1.82500 Y-2.82965
X1.82400 Y-2.82965
X1.82400 Y-2.83265
X1.82300 Y-2.83265
X1.82300 Y-2.83665
X1.82200 Y-2.83665
X1.82200 Y-2.84165
X1.82300 Y-2.84165
X1.82300 Y-2.84565
X1.82400 Y-2.84565
X1.82400 Y-2.84865
X1.82500 Y-2.84865
X1.82500 Y-2.85065
X1.82600 Y-2.85065
X1.82600 Y-2.85165
X1.82700 Y-2.85165
X1.82700 Y-2.85265
X1.82800 Y-2.85265
X1.82800 Y-2.85365
X1.83100 Y-2.85365
X1.83100 Y-2.85465
X1.83500 Y-2.85465
X1.83500 Y-2.85365
X1.83800 Y-2.85365
X1.83800 Y-2.85265
X1.83900 Y-2.85265
X1.83900 Y-2.85165
X1.84500 Y-2.85165
X1.84500 Y-2.85265
X1.84600 Y-2.85265
X1.84600 Y-2.85865
X1.84500 Y-2.85865
X1.84500 Y-2.85965
X1.84400 Y-2.85965
X1.84400 Y-2.86065
X1.84200 Y-2.86065
X1.84200 Y-2.86165
X1.84000 Y-2.86165
X1.84000 Y-2.86265
X1.83700 Y-2.86265
X1.83700 Y-2.86365
X1.82900 Y-2.86365
X1.82900 Y-2.86265
X1.82600 Y-2.86265
X1.82600 Y-2.86165
X1.82300 Y-2.86165
X1.82300 Y-2.86065
X1.82200 Y-2.86065
X1.82200 Y-2.85965
X1.82100 Y-2.85965
X1.82100 Y-2.85865
X1.82000 Y-2.85865
X1.82000 Y-2.85765
X1.81900 Y-2.85765
X1.81900 Y-2.85665
X1.81800 Y-2.85665
X1.81800 Y-2.85565
X1.81700 Y-2.85565
X1.81700 Y-2.85365
X1.81600 Y-2.85365
X1.81600 Y-2.85065
X1.81500 Y-2.85065
X1.81500 Y-2.84765
X1.81400 Y-2.84765
X1.81400 Y-2.83165
X1.81500 Y-2.83165
X1.81500 Y-2.82765
X1.81600 Y-2.82765
X1.81600 Y-2.82465
X1.81700 Y-2.82465
X1.81700 Y-2.82265
X1.81800 Y-2.82265
X1.81800 Y-2.82165
X1.81900 Y-2.82165
X1.81900 Y-2.82065
X1.82000 Y-2.82065
X1.82000 Y-2.81965
X1.82100 Y-2.81965
X1.82100 Y-2.81865
X1.82200 Y-2.81865
X1.82200 Y-2.81765
X1.82400 Y-2.81765
X1.82400 Y-2.81665
X1.82700 Y-2.81665
X1.82700 Y-2.81565
X1.83000 Y-2.81565
X1.83000 Y-2.81465
X1.83500 Y-2.81465
X1.83500 Y-2.81565
G04 P0 ( dwell for no time -- G64 should not smooth over this point )
G00 Z0.19685 ( retract )

G00 X1.55800 Y-2.81665 ( rapid move to begin. )
G01 Z-0.00591 F39.37008 ( plunge. )
G04 P0 ( dwell for no time -- G64 should not smooth over this point )
X1.55800 Y-2.81665
X1.55900 Y-2.81665
X1.55900 Y-2.81865
X1.56000 Y-2.81865
X1.56000 Y-2.82865
X1.57000 Y-2.82865
X1.57000 Y-2.82965
X1.57200 Y-2.82965
X1.57200 Y-2.83065
X1.57300 Y-2.83065
X1.57300 Y-2.83165
X1.57500 Y-2.83165
X1.57500 Y-2.83265
X1.57600 Y-2.83265
X1.57600 Y-2.83465
X1.57700 Y-2.83465
X1.57700 Y-2.83665
X1.57800 Y-2.83665
X1.57800 Y-2.83965
X1.57900 Y-2.83965
X1.57900 Y-2.85165
X1.57800 Y-2.85165
X1.57800 Y-2.85465
X1.57700 Y-2.85465
X1.57700 Y-2.85665
X1.57600 Y-2.85665
X1.57600 Y-2.85865
X1.57500 Y-2.85865
X1.57500 Y-2.85965
X1.57400 Y-2.85965
X1.57400 Y-2.86065
X1.57300 Y-2.86065
X1.57300 Y-2.86165
X1.57100 Y-2.86165
X1.57100 Y-2.86265
X1.56800 Y-2.86265
X1.56800 Y-2.86365
X1.55800 Y-2.86365
X1.55800 Y-2.86265
X1.55300 Y-2.86265
X1.55300 Y-2.86165
X1.55200 Y-2.86165
X1.55200 Y-2.86065
X1.55100 Y-2.86065
X1.55100 Y-2.81865
X1.55200 Y-2.81865
X1.55200 Y-2.81665
X1.55300 Y-2.81665
X1.55300 Y-2.81565
X1.55800 Y-2.81565
X1.55800 Y-2.81665
G04 P0 ( dwell for no time -- G64 should not smooth over this point )
G00 Z0.19685 ( retract )

G00 X1.62900 Y-2.81665 ( rapid move to begin. )
G01 Z-0.00591 F39.37008 ( plunge. )
G04 P0 ( dwell for no time -- G64 should not smooth over this point )
X1.62900 Y-2.81665
X1.63000 Y-2.81665
X1.63000 Y-2.81765
X1.63100 Y-2.81765
X1.63100 Y-2.82865
X1.63900 Y-2.82865
X1.63900 Y-2.83065
X1.64000 Y-2.83065
X1.64000 Y-2.83465
X1.63900 Y-2.83465
X1.63900 Y-2.83665
X1.63100 Y-2.83665
X1.63100 Y-2.85265
X1.63200 Y-2.85265
X1.63200 Y-2.85365
X1.63300 Y-2.85365
X1.63300 Y-2.85465
X1.63900 Y-2.85465
X1.63900 Y-2.85665
X1.64000 Y-2.85665
X1.64000 Y-2.86165
X1.63900 Y-2.86165
X1.63900 Y-2.86265
X1.63700 Y-2.86265
X1.63700 Y-2.86365
X1.63100 Y-2.86365
X1.63100 Y-2.86265
X1.62800 Y-2.86265
X1.62800 Y-2.86165
X1.62600 Y-2.86165
X1.62600 Y-2.86065
X1.62500 Y-2.86065
X1.62500 Y-2.85965
X1.62400 Y-2.85965
X1.62400 Y-2.85765
X1.62300 Y-2.85765
X1.62300 Y-2.85465
X1.62200 Y-2.85465
X1.62200 Y-2.83665
X1.61800 Y-2.83665
X1.61800 Y-2.83465
X1.61700 Y-2.83465
X1.61700 Y-2.83065
X1.61800 Y-2.83065
X1.61800 Y-2.82865
X1.62200 Y-2.82865
X1.62200 Y-2.81865
X1.62300 Y-2.81865
X1.62300 Y-2.81665
X1.62400 Y-2.81665
X1.62400 Y-2.81565
X1.62900 Y-2.81565
X1.62900 Y-2.81665
G04 P0 ( dwell for no time -- G64 should not smooth over this point )
G00 Z0.19685 ( retract )

G00 X1.69000 Y-2.81665 ( rapid move to begin. )
G01 Z-0.00591 F39.37008 ( plunge. )
G04 P0 ( dwell for no time -- G64 should not smooth over this point )
X1.69000 Y-2.81665
X1.69000 Y-2.81765
X1.69100 Y-2.81765
X1.69100 Y-2.81965
X1.69200 Y-2.81965
X1.69200 Y-2.82265
X1.69300 Y-2.82265
X1.69300 Y-2.82565
X1.69400 Y-2.82565
X1.69400 Y-2.82865
X1.69500 Y-2.82865
X1.69500 Y-2.83165
X1.69600 Y-2.83165
X1.69600 Y-2.83465
X1.69700 Y-2.83465
X1.69700 Y-2.83765
X1.69800 Y-2.83765
X1.69800 Y-2.84065
X1.69900 Y-2.84065
X1.69900 Y-2.84365
X1.70000 Y-2.84365
X1.70000 Y-2.84665
X1.70100 Y-2.84665
X1.70100 Y-2.84965
X1.70200 Y-2.84965
X1.70200 Y-2.85265
X1.70300 Y-2.85265
X1.70300 Y-2.85565
X1.70400 Y-2.85565
X1.70400 Y-2.86065
X1.70300 Y-2.86065
X1.70300 Y-2.86265
X1.69700 Y-2.86265
X1.69700 Y-2.86165
X1.69600 Y-2.86165
X1.69600 Y-2.86065
X1.69500 Y-2.86065
X1.69500 Y-2.85765
X1.69400 Y-2.85765
X1.69400 Y-2.85465
X1.69300 Y-2.85465
X1.69300 Y-2.85165
X1.68100 Y-2.85165
X1.68100 Y-2.85265
X1.68000 Y-2.85265
X1.68000 Y-2.85565
X1.67900 Y-2.85565
X1.67900 Y-2.85865
X1.67800 Y-2.85865
X1.67800 Y-2.86065
X1.67700 Y-2.86065
X1.67700 Y-2.86165
X1.67600 Y-2.86165
X1.67600 Y-2.86265
X1.67100 Y-2.86265
X1.67100 Y-2.86165
X1.67000 Y-2.86165
X1.67000 Y-2.85865
X1.66900 Y-2.85865
X1.66900 Y-2.85665
X1.67000 Y-2.85665
X1.67000 Y-2.85365
X1.67100 Y-2.85365
X1.67100 Y-2.85065
X1.67200 Y-2.85065
X1.67200 Y-2.84765
X1.67300 Y-2.84765
X1.67300 Y-2.84465
X1.67400 Y-2.84465
X1.67400 Y-2.84165
X1.67500 Y-2.84165
X1.67500 Y-2.83865
X1.67600 Y-2.83865
X1.67600 Y-2.83565
X1.67700 Y-2.83565
X1.67700 Y-2.83265
X1.67800 Y-2.83265
X1.67800 Y-2.82965
X1.67900 Y-2.82965
X1.67900 Y-2.82665
X1.68000 Y-2.82665
X1.68000 Y-2.82365
X1.68100 Y-2.82365
X1.68100 Y-2.82065
X1.68200 Y-2.82065
X1.68200 Y-2.81765
X1.68300 Y-2.81765
X1.68300 Y-2.81665
X1.68400 Y-2.81665
X1.68400 Y-2.81565
X1.69000 Y-2.81565
X1.69000 Y-2.81665
G04 P0 ( dwell for no time -- G64 should not smooth over this point )
G00 Z0.19685 ( retract )

G00 X1.93300 Y-2.81665 ( rapid move to begin. )
G01 Z-0.00591 F39.37008 ( plunge. )
G04 P0 ( dwell for no time -- G64 should not smooth over this point )
X1.93300 Y-2.81665
X1.93400 Y-2.81665
X1.93400 Y-2.81865
X1.93500 Y-2.81865
X1.93500 Y-2.82865
X1.94200 Y-2.82865
X1.94200 Y-2.82965
X1.94300 Y-2.82965
X1.94300 Y-2.83065
X1.94400 Y-2.83065
X1.94400 Y-2.83465
X1.94300 Y-2.83465
X1.94300 Y-2.83565
X1.94200 Y-2.83565
X1.94200 Y-2.83665
X1.93500 Y-2.83665
X1.93500 Y-2.85365
X1.93700 Y-2.85365
X1.93700 Y-2.85465
X1.94200 Y-2.85465
X1.94200 Y-2.85565
X1.94300 Y-2.85565
X1.94300 Y-2.85765
X1.94400 Y-2.85765
X1.94400 Y-2.86065
X1.94300 Y-2.86065
X1.94300 Y-2.86265
X1.94100 Y-2.86265
X1.94100 Y-2.86365
X1.93500 Y-2.86365
X1.93500 Y-2.86265
X1.93200 Y-2.86265
X1.93200 Y-2.86165
X1.93000 Y-2.86165
X1.93000 Y-2.86065
X1.92900 Y-2.86065
X1.92900 Y-2.85965
X1.92800 Y-2.85965
X1.92800 Y-2.85765
X1.92700 Y-2.85765
X1.92700 Y-2.85565
X1.92600 Y-2.85565
X1.92600 Y-2.83665
X1.92200 Y-2.83665
X1.92200 Y-2.83565
X1.92100 Y-2.83565
X1.92100 Y-2.83365
X1.92000 Y-2.83365
X1.92000 Y-2.83165
X1.92100 Y-2.83165
X1.92100 Y-2.82965
X1.92200 Y-2.82965
X1.92200 Y-2.82865
X1.92600 Y-2.82865
X1.92600 Y-2.81865
X1.92700 Y-2.81865
X1.92700 Y-2.81665
X1.92800 Y-2.81665
X1.92800 Y-2.81565
X1.93300 Y-2.81565
X1.93300 Y-2.81665
G04 P0 ( dwell for no time -- G64 should not smooth over this point )
G00 Z0.19685 ( retract )

G00 X2.01600 Y-2.81665 ( rapid move to begin. )
G01 Z-0.00591 F39.37008 ( plunge. )
G04 P0 ( dwell for no time -- G64 should not smooth over this point )
X2.01600 Y-2.81665
X2.01600 Y-2.81765
X2.01700 Y-2.81765
X2.01700 Y-2.85265
X2.01800 Y-2.85265
X2.01800 Y-2.85365
X2.01900 Y-2.85365
X2.01900 Y-2.85465
X2.02100 Y-2.85465
X2.02100 Y-2.85565
X2.02200 Y-2.85565
X2.02200 Y-2.85765
X2.02300 Y-2.85765
X2.02300 Y-2.86065
X2.02200 Y-2.86065
X2.02200 Y-2.86165
X2.02100 Y-2.86165
X2.02100 Y-2.86265
X2.01500 Y-2.86265
X2.01500 Y-2.86165
X2.01300 Y-2.86165
X2.01300 Y-2.86065
X2.01100 Y-2.86065
X2.01100 Y-2.85865
X2.01000 Y-2.85865
X2.01000 Y-2.85665
X2.00900 Y-2.85665
X2.00900 Y-2.85465
X2.00800 Y-2.85465
X2.00800 Y-2.81865
X2.00900 Y-2.81865
X2.00900 Y-2.81765
X2.01000 Y-2.81765
X2.01000 Y-2.81565
X2.01600 Y-2.81565
X2.01600 Y-2.81665
G04 P0 ( dwell for no time -- G64 should not smooth over this point )
G00 Z0.19685 ( retract )

G00 X2.03600 Y-2.81665 ( rapid move to begin. )
G01 Z-0.00591 F39.37008 ( plunge. )
G04 P0 ( dwell for no time -- G64 should not smooth over this point )
X2.03600 Y-2.81665
X2.03700 Y-2.81665
X2.03700 Y-2.81865
X2.03800 Y-2.81865
X2.03800 Y-2.85265
X2.03900 Y-2.85265
X2.03900 Y-2.85365
X2.04000 Y-2.85365
X2.04000 Y-2.85465
X2.04200 Y-2.85465
X2.04200 Y-2.85665
X2.04300 Y-2.85665
X2.04300 Y-2.86165
X2.04200 Y-2.86165
X2.04200 Y-2.86265
X2.03500 Y-2.86265
X2.03500 Y-2.86165
X2.03300 Y-2.86165
X2.03300 Y-2.86065
X2.03200 Y-2.86065
X2.03200 Y-2.85965
X2.03100 Y-2.85965
X2.03100 Y-2.85765
X2.03000 Y-2.85765
X2.03000 Y-2.85565
X2.02900 Y-2.85565
X2.02900 Y-2.81865
X2.03000 Y-2.81865
X2.03000 Y-2.81665
X2.03100 Y-2.81665
X2.03100 Y-2.81565
X2.03600 Y-2.81565
X2.03600 Y-2.81665
G04 P0 ( dwell for no time -- G64 should not smooth over this point )
G00 Z0.19685 ( retract )

G00 X1.53400 Y-2.82965 ( rapid move to begin. )
G01 Z-0.00591 F39.37008 ( plunge. )
G04 P0 ( dwell for no time -- G64 should not smooth over this point )
X1.53400 Y-2.82965
X1.53600 Y-2.82965
X1.53600 Y-2.83065
X1.53800 Y-2.83065
X1.53800 Y-2.83165
X1.53900 Y-2.83165
X1.53900 Y-2.83265
X1.54000 Y-2.83265
X1.54000 Y-2.83365
X1.54100 Y-2.83365
X1.54100 Y-2.83565
X1.54200 Y-2.83565
X1.54200 Y-2.83765
X1.54300 Y-2.83765
X1.54300 Y-2.85265
X1.54200 Y-2.85265
X1.54200 Y-2.85565
X1.54100 Y-2.85565
X1.54100 Y-2.85765
X1.54000 Y-2.85765
X1.54000 Y-2.85865
X1.53900 Y-2.85865
X1.53900 Y-2.85965
X1.53800 Y-2.85965
X1.53800 Y-2.86065
X1.53700 Y-2.86065
X1.53700 Y-2.86165
X1.53500 Y-2.86165
X1.53500 Y-2.86265
X1.53200 Y-2.86265
X1.53200 Y-2.86365
X1.52400 Y-2.86365
X1.52400 Y-2.86265
X1.52200 Y-2.86265
X1.52200 Y-2.86165
X1.52000 Y-2.86165
X1.52000 Y-2.86065
X1.51800 Y-2.86065
X1.51800 Y-2.85965
X1.51700 Y-2.85965
X1.51700 Y-2.85865
X1.51600 Y-2.85865
X1.51600 Y-2.85665
X1.51500 Y-2.85665
X1.51500 Y-2.85465
X1.51400 Y-2.85465
X1.51400 Y-2.83665
X1.51500 Y-2.83665
X1.51500 Y-2.83465
X1.51600 Y-2.83465
X1.51600 Y-2.83365
X1.51700 Y-2.83365
X1.51700 Y-2.83265
X1.51800 Y-2.83265
X1.51800 Y-2.83165
X1.51900 Y-2.83165
X1.51900 Y-2.83065
X1.52000 Y-2.83065
X1.52000 Y-2.82965
X1.52200 Y-2.82965
X1.52200 Y-2.82865
X1.53400 Y-2.82865
X1.53400 Y-2.82965
G04 P0 ( dwell for no time -- G64 should not smooth over this point )
G00 Z0.19685 ( retract )

G00 X1.60600 Y-2.82965 ( rapid move to begin. )
G01 Z-0.00591 F39.37008 ( plunge. )
G04 P0 ( dwell for no time -- G64 should not smooth over this point )
X1.60600 Y-2.82965
X1.60800 Y-2.82965
X1.60800 Y-2.83065
X1.60900 Y-2.83065
X1.60900 Y-2.83165
X1.61000 Y-2.83165
X1.61000 Y-2.83265
X1.61100 Y-2.83265
X1.61100 Y-2.83365
X1.61200 Y-2.83365
X1.61200 Y-2.83565
X1.61300 Y-2.83565
X1.61300 Y-2.83765
X1.61400 Y-2.83765
X1.61400 Y-2.85465
X1.61300 Y-2.85465
X1.61300 Y-2.85665
X1.61200 Y-2.85665
X1.61200 Y-2.85765
X1.61100 Y-2.85765
X1.61100 Y-2.85965
X1.61000 Y-2.85965
X1.61000 Y-2.86065
X1.60800 Y-2.86065
X1.60800 Y-2.86165
X1.60600 Y-2.86165
X1.60600 Y-2.86265
X1.60400 Y-2.86265
X1.60400 Y-2.86365
X1.59500 Y-2.86365
X1.59500 Y-2.86265
X1.59300 Y-2.86265
X1.59300 Y-2.86165
X1.59100 Y-2.86165
X1.59100 Y-2.86065
X1.58900 Y-2.86065
X1.58900 Y-2.85965
X1.58800 Y-2.85965
X1.58800 Y-2.85765
X1.58700 Y-2.85765
X1.58700 Y-2.85665
X1.58600 Y-2.85665
X1.58600 Y-2.85465
X1.58500 Y-2.85465
X1.58500 Y-2.83765
X1.58600 Y-2.83765
X1.58600 Y-2.83565
X1.58700 Y-2.83565
X1.58700 Y-2.83365
X1.58800 Y-2.83365
X1.58800 Y-2.83265
X1.58900 Y-2.83265
X1.58900 Y-2.83165
X1.59000 Y-2.83165
X1.59000 Y-2.83065
X1.59100 Y-2.83065
X1.59100 Y-2.82965
X1.59300 Y-2.82965
X1.59300 Y-2.82865
X1.60600 Y-2.82865
X1.60600 Y-2.82965
G04 P0 ( dwell for no time -- G64 should not smooth over this point )
G00 Z0.19685 ( retract )

G00 X1.71600 Y-2.82965 ( rapid move to begin. )
G01 Z-0.00591 F39.37008 ( plunge. )
G04 P0 ( dwell for no time -- G64 should not smooth over this point )
X1.71600 Y-2.82965
X1.71700 Y-2.82965
X1.71700 Y-2.82865
X1.72700 Y-2.82865
X1.72700 Y-2.83065
X1.72800 Y-2.83065
X1.72800 Y-2.83165
X1.72900 Y-2.83165
X1.72900 Y-2.83365
X1.72800 Y-2.83365
X1.72800 Y-2.83465
X1.72700 Y-2.83465
X1.72700 Y-2.83665
X1.72200 Y-2.83665
X1.72200 Y-2.83765
X1.72000 Y-2.83765
X1.72000 Y-2.83865
X1.71900 Y-2.83865
X1.71900 Y-2.83965
X1.71800 Y-2.83965
X1.71800 Y-2.84165
X1.71700 Y-2.84165
X1.71700 Y-2.86065
X1.71600 Y-2.86065
X1.71600 Y-2.86265
X1.71000 Y-2.86265
X1.71000 Y-2.86165
X1.70900 Y-2.86165
X1.70900 Y-2.83065
X1.71000 Y-2.83065
X1.71000 Y-2.82865
X1.71600 Y-2.82865
X1.71600 Y-2.82965
G04 P0 ( dwell for no time -- G64 should not smooth over this point )
G00 Z0.19685 ( retract )

G00 X1.74000 Y-2.82965 ( rapid move to begin. )
G01 Z-0.00591 F39.37008 ( plunge. )
G04 P0 ( dwell for no time -- G64 should not smooth over this point )
X1.74000 Y-2.82965
X1.74000 Y-2.82865
X1.75200 Y-2.82865
X1.75200 Y-2.82965
X1.75400 Y-2.82965
X1.75400 Y-2.83065
X1.75500 Y-2.83065
X1.75500 Y-2.82965
X1.75700 Y-2.82965
X1.75700 Y-2.82865
X1.76900 Y-2.82865
X1.76900 Y-2.82965
X1.77100 Y-2.82965
X1.77100 Y-2.83065
X1.77200 Y-2.83065
X1.77200 Y-2.83165
X1.77300 Y-2.83165
X1.77300 Y-2.83265
X1.77400 Y-2.83265
X1.77400 Y-2.83465
X1.77500 Y-2.83465
X1.77500 Y-2.86165
X1.77400 Y-2.86165
X1.77400 Y-2.86265
X1.76800 Y-2.86265
X1.76800 Y-2.86065
X1.76700 Y-2.86065
X1.76700 Y-2.83965
X1.76600 Y-2.83965
