( pcb2gcode 1.1.4 )

G94     ( Inches per minute feed rate. )
G20     ( Units == INCHES.             )
G90     ( Absolute coordinates.        )
S30000  ( RPM spindle speed.           )
M3      ( Spindle on clockwise.        )

G64 P0.00500 ( set maximum deviation from commanded toolpath )

G04 P0 ( dwell for no time -- G64 should not smooth over this point )
G00 Z0.19685 ( retract )

G00 X-0.71200 Y-0.63450 ( rapid move to begin. )
G01 Z-0.00394 F39.37008 ( plunge. )
G04 P0 ( dwell for no time -- G64 should not smooth over this point )
X-0.71200 Y-0.63450
X-0.71300 Y-0.63450
X-0.71300 Y-0.63550
X-0.71400 Y-0.63550
X-0.71400 Y-0.63650
X-0.71500 Y-0.63650
X-0.71500 Y-0.63850
X-0.71600 Y-0.63850
X-0.71600 Y-0.63950
X-0.71700 Y-0.63950
X-0.71700 Y-0.64050
X-0.71800 Y-0.64050
X-0.71800 Y-0.64150
X-0.90000 Y-0.64150
X-0.90000 Y-0.64050
X-1.83300 Y-0.64050
X-1.83300 Y-0.63950
X-2.30000 Y-0.63950
X-2.30000 Y-0.64050
X-2.30300 Y-0.64050
X-2.30300 Y-0.64250
X-2.30400 Y-0.64250
X-2.30400 Y-0.64350
X-2.30500 Y-0.64350
X-2.30500 Y-0.72750
X-2.30400 Y-0.72750
X-2.30400 Y-1.00150
X-2.30300 Y-1.00150
X-2.30300 Y-1.27450
X-2.30200 Y-1.27450
X-2.30200 Y-1.54750
X-2.30100 Y-1.54750
X-2.30100 Y-1.82150
X-2.30000 Y-1.82150
X-2.30000 Y-1.98650
X-2.29900 Y-1.98650
X-2.29900 Y-1.98750
X-2.29800 Y-1.98750
X-2.29800 Y-1.98950
X-2.29700 Y-1.98950
X-2.29700 Y-1.99050
X-0.71700 Y-1.99050
X-0.71700 Y-1.98950
X-0.71600 Y-1.98950
X-0.71600 Y-1.98850
X-0.71500 Y-1.98850
X-0.71500 Y-1.98650
X-0.71400 Y-1.98650
X-0.71400 Y-1.94850
X-0.71300 Y-1.94850
X-0.71300 Y-1.82350
X-0.71200 Y-1.82350
X-0.71200 Y-1.69850
X-0.71100 Y-1.69850
X-0.71100 Y-1.57450
X-0.71000 Y-1.57450
X-0.71000 Y-1.44950
X-0.70900 Y-1.44950
X-0.70900 Y-1.32450
X-0.70800 Y-1.32450
X-0.70800 Y-1.20050
X-0.70700 Y-1.20050
X-0.70700 Y-1.07550
X-0.70600 Y-1.07550
X-0.70600 Y-0.95050
X-0.70500 Y-0.95050
X-0.70500 Y-0.82650
X-0.70400 Y-0.82650
X-0.70400 Y-0.70150
X-0.70300 Y-0.70150
X-0.70300 Y-0.63750
X-0.70400 Y-0.63750
X-0.70400 Y-0.63550
X-0.70500 Y-0.63550
X-0.70500 Y-0.63350
X-0.71200 Y-0.63350
X-0.71200 Y-0.63450
G04 P0 ( dwell for no time -- G64 should not smooth over this point )
G00 Z0.19685 ( retract )

G00 X-0.97700 Y-0.77750 ( rapid move to begin. )
G01 Z-0.00394 F39.37008 ( plunge. )
G04 P0 ( dwell for no time -- G64 should not smooth over this point )
X-0.97700 Y-0.77750
X-0.97900 Y-0.77750
X-0.97900 Y-0.77850
X-0.98100 Y-0.77850
X-0.98100 Y-0.77950
X-0.98300 Y-0.77950
X-0.98300 Y-0.78050
X-0.98400 Y-0.78050
X-0.98400 Y-0.78150
X-0.98500 Y-0.78150
X-0.98500 Y-0.78350
X-0.98600 Y-0.78350
X-0.98600 Y-0.78450
X-0.98700 Y-0.78450
X-0.98700 Y-0.78650
X-0.98800 Y-0.78650
X-0.98800 Y-0.79150
X-0.98900 Y-0.79150
X-0.98900 Y-0.79650
X-0.98800 Y-0.79650
X-0.98800 Y-0.80150
X-0.98700 Y-0.80150
X-0.98700 Y-0.80350
X-0.98600 Y-0.80350
X-0.98600 Y-1.73650
X-0.98700 Y-1.73650
X-0.98700 Y-1.73750
X-0.98800 Y-1.73750
X-0.98800 Y-1.73850
X-0.98900 Y-1.73850
X-0.98900 Y-1.73950
X-0.99000 Y-1.73950
X-0.99000 Y-1.74050
X-0.99100 Y-1.74050
X-0.99100 Y-1.74150
X-0.99200 Y-1.74150
X-0.99200 Y-1.74250
X-0.99300 Y-1.74250
X-0.99300 Y-1.74350
X-0.99400 Y-1.74350
X-0.99400 Y-1.74450
X-0.99500 Y-1.74450
X-0.99500 Y-1.74550
X-0.99600 Y-1.74550
X-0.99600 Y-1.74650
X-0.99700 Y-1.74650
X-0.99700 Y-1.74750
X-0.99800 Y-1.74750
X-0.99800 Y-1.74850
X-0.99900 Y-1.74850
X-0.99900 Y-1.74950
X-1.00000 Y-1.74950
X-1.00000 Y-1.75050
X-1.00100 Y-1.75050
X-1.00100 Y-1.75150
X-1.00200 Y-1.75150
X-1.00200 Y-1.75250
X-1.00300 Y-1.75250
X-1.00300 Y-1.75350
X-1.00400 Y-1.75350
X-1.00400 Y-1.75450
X-1.00500 Y-1.75450
X-1.00500 Y-1.75550
X-1.00600 Y-1.75550
X-1.00600 Y-1.75650
X-1.00700 Y-1.75650
X-1.00700 Y-1.75750
X-1.00800 Y-1.75750
X-1.00800 Y-1.75850
X-1.00900 Y-1.75850
X-1.00900 Y-1.75950
X-1.01000 Y-1.75950
X-1.01000 Y-1.76050
X-1.01100 Y-1.76050
X-1.01100 Y-1.76150
X-1.01200 Y-1.76150
X-1.01200 Y-1.76250
X-1.01300 Y-1.76250
X-1.01300 Y-1.76350
X-1.01400 Y-1.76350
X-1.01400 Y-1.76450
X-1.01500 Y-1.76450
X-1.01500 Y-1.76550
X-1.01600 Y-1.76550
X-1.01600 Y-1.76650
X-1.01700 Y-1.76650
X-1.01700 Y-1.76750
X-1.01800 Y-1.76750
X-1.01800 Y-1.76850
X-1.01900 Y-1.76850
X-1.01900 Y-1.76950
X-1.02200 Y-1.76950
X-1.02200 Y-1.77050
X-1.02400 Y-1.77050
X-1.02400 Y-1.77150
X-1.02500 Y-1.77150
X-1.02500 Y-1.77250
X-1.02700 Y-1.77250
X-1.02700 Y-1.77350
X-1.02800 Y-1.77350
X-1.02800 Y-1.77550
X-1.02900 Y-1.77550
X-1.02900 Y-1.77650
X-1.03000 Y-1.77650
X-1.03000 Y-1.77750
X-1.03100 Y-1.77750
X-1.03100 Y-1.78150
X-1.03200 Y-1.78150
X-1.03200 Y-1.79150
X-1.03100 Y-1.79150
X-1.03100 Y-1.79550
X-1.03000 Y-1.79550
X-1.03000 Y-1.79650
X-1.02900 Y-1.79650
X-1.02900 Y-1.79750
X-1.02800 Y-1.79750
X-1.02800 Y-1.79950
X-1.02700 Y-1.79950
X-1.02700 Y-1.80050
X-1.02500 Y-1.80050
X-1.02500 Y-1.80150
X-1.02400 Y-1.80150
X-1.02400 Y-1.80250
X-1.02200 Y-1.80250
X-1.02200 Y-1.80350
X-1.01800 Y-1.80350
X-1.01800 Y-1.80450
X-1.01100 Y-1.80450
X-1.01100 Y-1.80350
X-1.00700 Y-1.80350
X-1.00700 Y-1.80250
X-1.00500 Y-1.80250
X-1.00500 Y-1.80150
X-1.00300 Y-1.80150
X-1.00300 Y-1.80050
X-1.00200 Y-1.80050
X-1.00200 Y-1.79950
X-1.00100 Y-1.79950
X-1.00100 Y-1.79850
X-1.00000 Y-1.79850
X-1.00000 Y-1.79650
X-0.99900 Y-1.79650
X-0.99900 Y-1.79550
X-0.99800 Y-1.79550
X-0.99800 Y-1.79250
X-0.99700 Y-1.79250
X-0.99700 Y-1.79050
X-0.99600 Y-1.79050
X-0.99600 Y-1.78950
X-0.99500 Y-1.78950
X-0.99500 Y-1.78850
X-0.99400 Y-1.78850
X-0.99400 Y-1.78750
X-0.99300 Y-1.78750
X-0.99300 Y-1.78650
X-0.99200 Y-1.78650
X-0.99200 Y-1.78550
X-0.99100 Y-1.78550
X-0.99100 Y-1.78450
X-0.99000 Y-1.78450
X-0.99000 Y-1.78350
X-0.98900 Y-1.78350
X-0.98900 Y-1.78250
X-0.98800 Y-1.78250
X-0.98800 Y-1.78150
X-0.98700 Y-1.78150
X-0.98700 Y-1.78050
X-0.98600 Y-1.78050
X-0.98600 Y-1.77950
X-0.98500 Y-1.77950
X-0.98500 Y-1.77850
X-0.98400 Y-1.77850
X-0.98400 Y-1.77750
X-0.98300 Y-1.77750
X-0.98300 Y-1.77650
X-0.98200 Y-1.77650
X-0.98200 Y-1.77550
X-0.98100 Y-1.77550
X-0.98100 Y-1.77450
X-0.98000 Y-1.77450
X-0.98000 Y-1.77350
X-0.97900 Y-1.77350
X-0.97900 Y-1.77250
X-0.97800 Y-1.77250
X-0.97800 Y-1.77150
X-0.97700 Y-1.77150
X-0.97700 Y-1.77050
X-0.97600 Y-1.77050
X-0.97600 Y-1.76950
X-0.97500 Y-1.76950
X-0.97500 Y-1.76850
X-0.97400 Y-1.76850
X-0.97400 Y-1.76750
X-0.97300 Y-1.76750
X-0.97300 Y-1.76650
X-0.97200 Y-1.76650
X-0.97200 Y-1.76550
X-0.97100 Y-1.76550
X-0.97100 Y-1.76450
X-0.97000 Y-1.76450
X-0.97000 Y-1.76350
X-0.96900 Y-1.76350
X-0.96900 Y-1.76250
X-0.96800 Y-1.76250
X-0.96800 Y-1.76150
X-0.96700 Y-1.76150
X-0.96700 Y-1.76050
X-0.96600 Y-1.76050
X-0.96600 Y-1.75950
X-0.96500 Y-1.75950
X-0.96500 Y-1.75850
X-0.96400 Y-1.75850
X-0.96400 Y-1.75750
X-0.96300 Y-1.75750
X-0.96300 Y-1.75650
X-0.96200 Y-1.75650
X-0.96200 Y-1.75550
X-0.96100 Y-1.75550
X-0.96100 Y-1.75450
X-0.96000 Y-1.75450
X-0.96000 Y-1.75350
X-0.95900 Y-1.75350
X-0.95900 Y-1.75250
X-0.95800 Y-1.75250
X-0.95800 Y-1.74950
X-0.95700 Y-1.74950
X-0.95700 Y-1.74650
X-0.95600 Y-1.74650
X-0.95600 Y-1.74350
X-0.95500 Y-1.74350
X-0.95500 Y-0.80250
X-0.95400 Y-0.80250
X-0.95400 Y-0.79750
X-0.95300 Y-0.79750
X-0.95300 Y-0.79050
X-0.95400 Y-0.79050
X-0.95400 Y-0.78550
X-0.95500 Y-0.78550
X-0.95500 Y-0.78450
X-0.95600 Y-0.78450
X-0.95600 Y-0.78250
X-0.95700 Y-0.78250
X-0.95700 Y-0.78150
X-0.95800 Y-0.78150
X-0.95800 Y-0.78050
X-0.95900 Y-0.78050
X-0.95900 Y-0.77950
X-0.96100 Y-0.77950
X-0.96100 Y-0.77850
X-0.96200 Y-0.77850
X-0.96200 Y-0.77750
X-0.96500 Y-0.77750
X-0.96500 Y-0.77650
X-0.97700 Y-0.77650
X-0.97700 Y-0.77750
G04 P0 ( dwell for no time -- G64 should not smooth over this point )
G00 Z0.19685 ( retract )

G00 X-1.08100 Y-1.07650 ( rapid move to begin. )
G01 Z-0.00394 F39.37008 ( plunge. )
G04 P0 ( dwell for no time -- G64 should not smooth over this point )
X-1.08100 Y-1.07650
X-1.08700 Y-1.07650
X-1.08700 Y-1.07750
X-1.09000 Y-1.07750
X-1.09000 Y-1.07850
X-1.09200 Y-1.07850
X-1.09200 Y-1.07950
X-1.09400 Y-1.07950
X-1.09400 Y-1.08050
X-1.09500 Y-1.08050
X-1.09500 Y-1.08150
X-1.09700 Y-1.08150
X-1.09700 Y-1.08250
X-1.09900 Y-1.08250
X-1.09900 Y-1.08350
X-1.10000 Y-1.08350
X-1.10000 Y-1.08550
X-1.10100 Y-1.08550
X-1.10100 Y-1.08650
X-1.10200 Y-1.08650
X-1.10200 Y-1.08850
X-1.10300 Y-1.08850
X-1.10300 Y-1.08950
X-1.10400 Y-1.08950
X-1.10400 Y-1.09050
X-1.10500 Y-1.09050
X-1.10500 Y-1.09250
X-1.10600 Y-1.09250
X-1.10600 Y-1.09650
X-1.10700 Y-1.09650
X-1.10700 Y-1.10150
X-1.10800 Y-1.10150
X-1.10800 Y-1.11050
X-1.10700 Y-1.11050
X-1.10700 Y-1.11550
X-1.10600 Y-1.11550
X-1.10600 Y-1.11950
X-1.10500 Y-1.11950
X-1.10500 Y-1.12150
X-1.10400 Y-1.12150
X-1.10400 Y-1.12250
X-1.10300 Y-1.12250
X-1.10300 Y-1.12350
X-1.10200 Y-1.12350
X-1.10200 Y-1.12550
X-1.10100 Y-1.12550
X-1.10100 Y-1.12650
X-1.10000 Y-1.12650
X-1.10000 Y-1.12850
X-1.09900 Y-1.12850
X-1.09900 Y-1.12950
X-1.09700 Y-1.12950
X-1.09700 Y-1.13050
X-1.09500 Y-1.13050
X-1.09500 Y-1.13150
X-1.09400 Y-1.13150
X-1.09400 Y-1.13250
X-1.09200 Y-1.13250
X-1.09200 Y-1.13350
X-1.09000 Y-1.13350
X-1.09000 Y-1.13450
X-1.08700 Y-1.13450
X-1.08700 Y-1.13550
X-1.08100 Y-1.13550
X-1.08100 Y-1.13650
X-1.07400 Y-1.13650
X-1.07400 Y-1.13550
X-1.06800 Y-1.13550
X-1.06800 Y-1.13450
X-1.06500 Y-1.13450
X-1.06500 Y-1.13350
X-1.06300 Y-1.13350
X-1.06300 Y-1.13250
X-1.06200 Y-1.13250
X-1.06200 Y-1.13150
X-1.06000 Y-1.13150
X-1.06000 Y-1.13050
X-1.05800 Y-1.13050
X-1.05800 Y-1.12950
X-1.05700 Y-1.12950
X-1.05700 Y-1.12850
X-1.05600 Y-1.12850
X-1.05600 Y-1.12750
X-1.05500 Y-1.12750
X-1.05500 Y-1.12650
X-1.05400 Y-1.12650
X-1.05400 Y-1.12450
X-1.05300 Y-1.12450
X-1.05300 Y-1.12350
X-1.05200 Y-1.12350
X-1.05200 Y-1.12250
X-1.05100 Y-1.12250
X-1.05100 Y-1.12050
X-1.05000 Y-1.12050
X-1.05000 Y-1.11850
X-1.04900 Y-1.11850
X-1.04900 Y-1.11350
X-1.04800 Y-1.11350
X-1.04800 Y-1.10850
X-1.04700 Y-1.10850
X-1.04700 Y-1.10350
X-1.04800 Y-1.10350
X-1.04800 Y-1.09850
X-1.04900 Y-1.09850
X-1.04900 Y-1.09350
X-1.05000 Y-1.09350
X-1.05000 Y-1.09150
X-1.05100 Y-1.09150
X-1.05100 Y-1.08950
X-1.05200 Y-1.08950
X-1.05200 Y-1.08850
X-1.05300 Y-1.08850
X-1.05300 Y-1.08750
X-1.05400 Y-1.08750
X-1.05400 Y-1.08550
X-1.05500 Y-1.08550
X-1.05500 Y-1.08450
X-1.05600 Y-1.08450
X-1.05600 Y-1.08350
X-1.05700 Y-1.08350
X-1.05700 Y-1.08250
X-1.05800 Y-1.08250
X-1.05800 Y-1.08150
X-1.06000 Y-1.08150
X-1.06000 Y-1.08050
X-1.06200 Y-1.08050
X-1.06200 Y-1.07950
X-1.06300 Y-1.07950
X-1.06300 Y-1.07850
X-1.06500 Y-1.07850
X-1.06500 Y-1.07750
X-1.06800 Y-1.07750
X-1.06800 Y-1.07650
X-1.07400 Y-1.07650
X-1.07400 Y-1.07550
X-1.08100 Y-1.07550
X-1.08100 Y-1.07650
G04 P0 ( dwell for no time -- G64 should not smooth over this point )
G00 Z0.19685 ( retract )

G00 X-1.18100 Y-1.07650 ( rapid move to begin. )
G01 Z-0.00394 F39.37008 ( plunge. )
G04 P0 ( dwell for no time -- G64 should not smooth over this point )
X-1.18100 Y-1.07650
X-1.18700 Y-1.07650
X-1.18700 Y-1.07750
X-1.19000 Y-1.07750
X-1.19000 Y-1.07850
X-1.19200 Y-1.07850
X-1.19200 Y-1.07950
X-1.19400 Y-1.07950
X-1.19400 Y-1.08050
X-1.19500 Y-1.08050
X-1.19500 Y-1.08150
X-1.19700 Y-1.08150
X-1.19700 Y-1.08250
X-1.19900 Y-1.08250
X-1.19900 Y-1.08350
X-1.20000 Y-1.08350
X-1.20000 Y-1.08550
X-1.20100 Y-1.08550
X-1.20100 Y-1.08650
X-1.20200 Y-1.08650
X-1.20200 Y-1.08850
X-1.20300 Y-1.08850
X-1.20300 Y-1.08950
X-1.20400 Y-1.08950
X-1.20400 Y-1.09050
X-1.20500 Y-1.09050
X-1.20500 Y-1.09250
X-1.20600 Y-1.09250
X-1.20600 Y-1.09650
X-1.20700 Y-1.09650
X-1.20700 Y-1.10150
X-1.20800 Y-1.10150
X-1.20800 Y-1.11050
X-1.20700 Y-1.11050
X-1.20700 Y-1.11550
X-1.20600 Y-1.11550
X-1.20600 Y-1.11950
X-1.20500 Y-1.11950
X-1.20500 Y-1.12150
X-1.20400 Y-1.12150
X-1.20400 Y-1.12250
X-1.20300 Y-1.12250
X-1.20300 Y-1.12350
X-1.20200 Y-1.12350
X-1.20200 Y-1.12550
X-1.20100 Y-1.12550
X-1.20100 Y-1.12650
X-1.20000 Y-1.12650
X-1.20000 Y-1.12850
X-1.19900 Y-1.12850
X-1.19900 Y-1.12950
X-1.19700 Y-1.12950
X-1.19700 Y-1.13050
X-1.19500 Y-1.13050
X-1.19500 Y-1.13150
X-1.19400 Y-1.13150
X-1.19400 Y-1.13250
X-1.19200 Y-1.13250
X-1.19200 Y-1.13350
X-1.19000 Y-1.13350
X-1.19000 Y-1.13450
X-1.18700 Y-1.13450
X-1.18700 Y-1.13550
X-1.18100 Y-1.13550
X-1.18100 Y-1.13650
X-1.17400 Y-1.13650
X-1.17400 Y-1.13550
X-1.16800 Y-1.13550
X-1.16800 Y-1.13450
X-1.16500 Y-1.13450
X-1.16500 Y-1.13350
X-1.16300 Y-1.13350
X-1.16300 Y-1.13250
X-1.16200 Y-1.13250
X-1.16200 Y-1.13150
X-1.16000 Y-1.13150
X-1.16000 Y-1.13050
X-1.15800 Y-1.13050
X-1.15800 Y-1.12950
X-1.15700 Y-1.12950
X-1.15700 Y-1.12850
X-1.15600 Y-1.12850
X-1.15600 Y-1.12750
X-1.15500 Y-1.12750
X-1.15500 Y-1.12650
X-1.15400 Y-1.12650
X-1.15400 Y-1.12450
X-1.15300 Y-1.12450
X-1.15300 Y-1.12350
X-1.15200 Y-1.12350
X-1.15200 Y-1.12250
X-1.15100 Y-1.12250
X-1.15100 Y-1.12050
X-1.15000 Y-1.12050
X-1.15000 Y-1.11850
X-1.14900 Y-1.11850
X-1.14900 Y-1.11350
X-1.14800 Y-1.11350
X-1.14800 Y-1.10850
X-1.14700 Y-1.10850
X-1.14700 Y-1.10350
X-1.14800 Y-1.10350
X-1.14800 Y-1.09850
X-1.14900 Y-1.09850
X-1.14900 Y-1.09350
X-1.15000 Y-1.09350
X-1.15000 Y-1.09150
X-1.15100 Y-1.09150
X-1.15100 Y-1.08950
X-1.15200 Y-1.08950
X-1.15200 Y-1.08850
X-1.15300 Y-1.08850
X-1.15300 Y-1.08750
X-1.15400 Y-1.08750
X-1.15400 Y-1.08550
X-1.15500 Y-1.08550
X-1.15500 Y-1.08450
X-1.15600 Y-1.08450
X-1.15600 Y-1.08350
X-1.15700 Y-1.08350
X-1.15700 Y-1.08250
X-1.15800 Y-1.08250
X-1.15800 Y-1.08150
X-1.16000 Y-1.08150
X-1.16000 Y-1.08050
X-1.16200 Y-1.08050
X-1.16200 Y-1.07950
X-1.16300 Y-1.07950
X-1.16300 Y-1.07850
X-1.16500 Y-1.07850
X-1.16500 Y-1.07750
X-1.16800 Y-1.07750
X-1.16800 Y-1.07650
X-1.17400 Y-1.07650
X-1.17400 Y-1.07550
X-1.18100 Y-1.07550
X-1.18100 Y-1.07650
G04 P0 ( dwell for no time -- G64 should not smooth over this point )
G00 Z0.19685 ( retract )

G00 X-1.28100 Y-1.07650 ( rapid move to begin. )
G01 Z-0.00394 F39.37008 ( plunge. )
G04 P0 ( dwell for no time -- G64 should not smooth over this point )
X-1.28100 Y-1.07650
X-1.28700 Y-1.07650
X-1.28700 Y-1.07750
X-1.29000 Y-1.07750
X-1.29000 Y-1.07850
X-1.29200 Y-1.07850
X-1.29200 Y-1.07950
X-1.29400 Y-1.07950
X-1.29400 Y-1.08050
X-1.29500 Y-1.08050
X-1.29500 Y-1.08150
X-1.29700 Y-1.08150
X-1.29700 Y-1.08250
X-1.29900 Y-1.08250
X-1.29900 Y-1.08350
X-1.30000 Y-1.08350
X-1.30000 Y-1.08550
X-1.30100 Y-1.08550
X-1.30100 Y-1.08650
X-1.30200 Y-1.08650
X-1.30200 Y-1.08850
X-1.30300 Y-1.08850
X-1.30300 Y-1.08950
X-1.30400 Y-1.08950
X-1.30400 Y-1.09050
X-1.30500 Y-1.09050
X-1.30500 Y-1.09250
X-1.30600 Y-1.09250
X-1.30600 Y-1.09650
X-1.30700 Y-1.09650
X-1.30700 Y-1.10150
X-1.30800 Y-1.10150
X-1.30800 Y-1.11050
X-1.30700 Y-1.11050
X-1.30700 Y-1.11550
X-1.30600 Y-1.11550
X-1.30600 Y-1.11950
X-1.30500 Y-1.11950
X-1.30500 Y-1.12150
X-1.30400 Y-1.12150
X-1.30400 Y-1.12250
X-1.30300 Y-1.12250
X-1.30300 Y-1.12350
X-1.30200 Y-1.12350
X-1.30200 Y-1.12550
X-1.30100 Y-1.12550
X-1.30100 Y-1.12650
X-1.30000 Y-1.12650
X-1.30000 Y-1.12850
X-1.29900 Y-1.12850
X-1.29900 Y-1.12950
X-1.29700 Y-1.12950
X-1.29700 Y-1.13050
X-1.29500 Y-1.13050
X-1.29500 Y-1.13150
X-1.29400 Y-1.13150
X-1.29400 Y-1.13250
X-1.29200 Y-1.13250
X-1.29200 Y-1.13350
X-1.29000 Y-1.13350
X-1.29000 Y-1.13450
X-1.28700 Y-1.13450
X-1.28700 Y-1.13550
X-1.28100 Y-1.13550
X-1.28100 Y-1.13650
X-1.27400 Y-1.13650
X-1.27400 Y-1.13550
X-1.26800 Y-1.13550
X-1.26800 Y-1.13450
X-1.26500 Y-1.13450
X-1.26500 Y-1.13350
X-1.26300 Y-1.13350
X-1.26300 Y-1.13250
X-1.26200 Y-1.13250
X-1.26200 Y-1.13150
X-1.26000 Y-1.13150
X-1.26000 Y-1.13050
X-1.25800 Y-1.13050
X-1.25800 Y-1.12950
X-1.25700 Y-1.12950
X-1.25700 Y-1.12850
X-1.25600 Y-1.12850
X-1.25600 Y-1.12750
X-1.25500 Y-1.12750
X-1.25500 Y-1.12650
X-1.25400 Y-1.12650
X-1.25400 Y-1.12450
X-1.25300 Y-1.12450
X-1.25300 Y-1.12350
X-1.25200 Y-1.12350
X-1.25200 Y-1.12250
X-1.25100 Y-1.12250
X-1.25100 Y-1.12050
X-1.25000 Y-1.12050
X-1.25000 Y-1.11850
X-1.24900 Y-1.11850
X-1.24900 Y-1.11350
X-1.24800 Y-1.11350
X-1.24800 Y-1.10850
X-1.24700 Y-1.10850
X-1.24700 Y-1.10350
X-1.24800 Y-1.10350
X-1.24800 Y-1.09850
X-1.24900 Y-1.09850
X-1.24900 Y-1.09350
X-1.25000 Y-1.09350
X-1.25000 Y-1.09150
X-1.25100 Y-1.09150
X-1.25100 Y-1.08950
X-1.25200 Y-1.08950
X-1.25200 Y-1.08850
X-1.25300 Y-1.08850
X-1.25300 Y-1.08750
X-1.25400 Y-1.08750
X-1.25400 Y-1.08550
X-1.25500 Y-1.08550
X-1.25500 Y-1.08450
X-1.25600 Y-1.08450
X-1.25600 Y-1.08350
X-1.25700 Y-1.08350
X-1.25700 Y-1.08250
X-1.25800 Y-1.08250
X-1.25800 Y-1.08150
X-1.26000 Y-1.08150
X-1.26000 Y-1.08050
X-1.26200 Y-1.08050
X-1.26200 Y-1.07950
X-1.26300 Y-1.07950
X-1.26300 Y-1.07850
X-1.26500 Y-1.07850
X-1.26500 Y-1.07750
X-1.26800 Y-1.07750
X-1.26800 Y-1.07650
X-1.27400 Y-1.07650
X-1.27400 Y-1.07550
X-1.28100 Y-1.07550
X-1.28100 Y-1.07650
G04 P0 ( dwell for no time -- G64 should not smooth over this point )
G00 Z0.19685 ( retract )

G00 X-1.38100 Y-1.07650 ( rapid move to begin. )
G01 Z-0.00394 F39.37008 ( plunge. )
G04 P0 ( dwell for no time -- G64 should not smooth over this point )
X-1.38100 Y-1.07650
X-1.38700 Y-1.07650
X-1.38700 Y-1.07750
X-1.39000 Y-1.07750
X-1.39000 Y-1.07850
X-1.39200 Y-1.07850
X-1.39200 Y-1.07950
X-1.39400 Y-1.07950
X-1.39400 Y-1.08050
X-1.39500 Y-1.08050
X-1.39500 Y-1.08150
X-1.39700 Y-1.08150
X-1.39700 Y-1.08250
X-1.39900 Y-1.08250
X-1.39900 Y-1.08350
X-1.40000 Y-1.08350
X-1.40000 Y-1.08550
X-1.40100 Y-1.08550
X-1.40100 Y-1.08650
X-1.40200 Y-1.08650
X-1.40200 Y-1.08850
X-1.40300 Y-1.08850
X-1.40300 Y-1.08950
X-1.40400 Y-1.08950
X-1.40400 Y-1.09050
X-1.40500 Y-1.09050
X-1.40500 Y-1.09250
X-1.40600 Y-1.09250
X-1.40600 Y-1.09650
X-1.40700 Y-1.09650
X-1.40700 Y-1.10150
X-1.40800 Y-1.10150
X-1.40800 Y-1.11050
X-1.40700 Y-1.11050
X-1.40700 Y-1.11550
X-1.40600 Y-1.11550
X-1.40600 Y-1.11950
X-1.40500 Y-1.11950
X-1.40500 Y-1.12150
X-1.40400 Y-1.12150
X-1.40400 Y-1.12250
X-1.40300 Y-1.12250
X-1.40300 Y-1.12350
X-1.40200 Y-1.12350
X-1.40200 Y-1.12550
X-1.40100 Y-1.12550
X-1.40100 Y-1.12650
X-1.40000 Y-1.12650
X-1.40000 Y-1.12850
X-1.39900 Y-1.12850
X-1.39900 Y-1.12950
X-1.39700 Y-1.12950
X-1.39700 Y-1.13050
X-1.39500 Y-1.13050
X-1.39500 Y-1.13150
X-1.39400 Y-1.13150
X-1.39400 Y-1.13250
X-1.39200 Y-1.13250
X-1.39200 Y-1.13350
X-1.39000 Y-1.13350
X-1.39000 Y-1.13450
X-1.38700 Y-1.13450
X-1.38700 Y-1.13550
X-1.38100 Y-1.13550
X-1.38100 Y-1.13650
X-1.37400 Y-1.13650
X-1.37400 Y-1.13550
X-1.36800 Y-1.13550
X-1.36800 Y-1.13450
X-1.36500 Y-1.13450
X-1.36500 Y-1.13350
X-1.36300 Y-1.13350
X-1.36300 Y-1.13250
X-1.36200 Y-1.13250
X-1.36200 Y-1.13150
X-1.36000 Y-1.13150
X-1.36000 Y-1.13050
X-1.35800 Y-1.13050
X-1.35800 Y-1.12950
X-1.35700 Y-1.12950
X-1.35700 Y-1.12850
X-1.35600 Y-1.12850
X-1.35600 Y-1.12750
X-1.35500 Y-1.12750
X-1.35500 Y-1.12650
X-1.35400 Y-1.12650
X-1.35400 Y-1.12450
X-1.35300 Y-1.12450
X-1.35300 Y-1.12350
X-1.35200 Y-1.12350
X-1.35200 Y-1.12250
X-1.35100 Y-1.12250
X-1.35100 Y-1.12050
X-1.35000 Y-1.12050
X-1.35000 Y-1.11850
X-1.34900 Y-1.11850
X-1.34900 Y-1.11350
X-1.34800 Y-1.11350
X-1.34800 Y-1.10850
X-1.34700 Y-1.10850
X-1.34700 Y-1.10350
X-1.34800 Y-1.10350
X-1.34800 Y-1.09850
X-1.34900 Y-1.09850
X-1.34900 Y-1.09350
X-1.35000 Y-1.09350
X-1.35000 Y-1.09150
X-1.35100 Y-1.09150
X-1.35100 Y-1.08950
X-1.35200 Y-1.08950
X-1.35200 Y-1.08850
X-1.35300 Y-1.08850
X-1.35300 Y-1.08750
X-1.35400 Y-1.08750
X-1.35400 Y-1.08550
X-1.35500 Y-1.08550
X-1.35500 Y-1.08450
X-1.35600 Y-1.08450
X-1.35600 Y-1.08350
X-1.35700 Y-1.08350
X-1.35700 Y-1.08250
X-1.35800 Y-1.08250
X-1.35800 Y-1.08150
X-1.36000 Y-1.08150
X-1.36000 Y-1.08050
X-1.36200 Y-1.08050
X-1.36200 Y-1.07950
X-1.36300 Y-1.07950
X-1.36300 Y-1.07850
X-1.36500 Y-1.07850
X-1.36500 Y-1.07750
X-1.36800 Y-1.07750
X-1.36800 Y-1.07650
X-1.37400 Y-1.07650
X-1.37400 Y-1.07550
X-1.38100 Y-1.07550
X-1.38100 Y-1.07650
G04 P0 ( dwell for no time -- G64 should not smooth over this point )
G00 Z0.19685 ( retract )

G00 X-1.57800 Y-1.07750 ( rapid move to begin. )
G01 Z-0.00394 F39.37008 ( plunge. )
G04 P0 ( dwell for no time -- G64 should not smooth over this point )
X-1.57800 Y-1.07750
X-1.58400 Y-1.07750
X-1.58400 Y-1.07850
X-1.58900 Y-1.07850
X-1.58900 Y-1.07950
X-1.59100 Y-1.07950
X-1.59100 Y-1.08050
X-1.59300 Y-1.08050
X-1.59300 Y-1.08150
X-1.59400 Y-1.08150
X-1.59400 Y-1.08250
X-1.59600 Y-1.08250
X-1.59600 Y-1.08350
X-1.59800 Y-1.08350
X-1.59800 Y-1.08450
X-1.59900 Y-1.08450
X-1.59900 Y-1.08550
X-1.60000 Y-1.08550
X-1.60000 Y-1.08750
X-1.60100 Y-1.08750
X-1.60100 Y-1.08850
X-1.60200 Y-1.08850
X-1.60200 Y-1.09050
X-1.60300 Y-1.09050
X-1.60300 Y-1.09150
X-1.60400 Y-1.09150
X-1.60400 Y-1.09250
X-1.60500 Y-1.09250
X-1.60500 Y-1.09550
X-1.60600 Y-1.09550
X-1.60600 Y-1.10050
X-1.60700 Y-1.10050
X-1.60700 Y-1.10550
X-1.60800 Y-1.10550
X-1.60800 Y-1.10950
X-1.60700 Y-1.10950
X-1.60700 Y-1.11450
X-1.60600 Y-1.11450
X-1.60600 Y-1.11950
X-1.60500 Y-1.11950
X-1.60500 Y-1.12250
X-1.60400 Y-1.12250
X-1.60400 Y-1.12350
X-1.60300 Y-1.12350
X-1.60300 Y-1.12450
X-1.60200 Y-1.12450
X-1.60200 Y-1.12650
X-1.60100 Y-1.12650
X-1.60100 Y-1.12750
X-1.60000 Y-1.12750
X-1.60000 Y-1.12850
X-1.59900 Y-1.12850
X-1.59900 Y-1.13050
X-1.59700 Y-1.13050
X-1.59700 Y-1.13150
X-1.59600 Y-1.13150
X-1.59600 Y-1.13250
X-1.59400 Y-1.13250
X-1.59400 Y-1.13350
X-1.59200 Y-1.13350
X-1.59200 Y-1.13450
X-1.59100 Y-1.13450
X-1.59100 Y-1.13550
X-1.58900 Y-1.13550
X-1.58900 Y-1.13650
X-1.58300 Y-1.13650
X-1.58300 Y-1.13750
X-1.57200 Y-1.13750
X-1.57200 Y-1.13650
X-1.56600 Y-1.13650
X-1.56600 Y-1.13550
X-1.56400 Y-1.13550
X-1.56400 Y-1.13450
X-1.56200 Y-1.13450
X-1.56200 Y-1.13350
X-1.56100 Y-1.13350
X-1.56100 Y-1.13250
X-1.55900 Y-1.13250
X-1.55900 Y-1.13150
X-1.55700 Y-1.13150
X-1.55700 Y-1.13050
X-1.55600 Y-1.13050
X-1.55600 Y-1.12950
X-1.55500 Y-1.12950
X-1.55500 Y-1.12850
X-1.55400 Y-1.12850
X-1.55400 Y-1.12650
X-1.55300 Y-1.12650
X-1.55300 Y-1.12550
X-1.55200 Y-1.12550
X-1.55200 Y-1.12350
X-1.55100 Y-1.12350
X-1.55100 Y-1.12250
X-1.55000 Y-1.12250
X-1.55000 Y-1.12150
X-1.54900 Y-1.12150
X-1.54900 Y-1.11650
X-1.54800 Y-1.11650
X-1.54800 Y-1.11150
X-1.54700 Y-1.11150
X-1.54700 Y-1.10350
X-1.54800 Y-1.10350
X-1.54800 Y-1.09850
X-1.54900 Y-1.09850
X-1.54900 Y-1.09350
X-1.55000 Y-1.09350
X-1.55000 Y-1.09250
X-1.55100 Y-1.09250
X-1.55100 Y-1.09050
X-1.55200 Y-1.09050
X-1.55200 Y-1.08950
X-1.55300 Y-1.08950
X-1.55300 Y-1.08850
X-1.55400 Y-1.08850
X-1.55400 Y-1.08650
X-1.55500 Y-1.08650
X-1.55500 Y-1.08550
X-1.55600 Y-1.08550
X-1.55600 Y-1.08450
X-1.55700 Y-1.08450
X-1.55700 Y-1.08350
X-1.55900 Y-1.08350
X-1.55900 Y-1.08250
X-1.56000 Y-1.08250
X-1.56000 Y-1.08150
X-1.56200 Y-1.08150
X-1.56200 Y-1.08050
X-1.56400 Y-1.08050
X-1.56400 Y-1.07950
X-1.56500 Y-1.07950
X-1.56500 Y-1.07850
X-1.57000 Y-1.07850
X-1.57000 Y-1.07750
X-1.57600 Y-1.07750
X-1.57600 Y-1.07650
X-1.57800 Y-1.07650
X-1.57800 Y-1.07750
G04 P0 ( dwell for no time -- G64 should not smooth over this point )
G00 Z0.19685 ( retract )

G00 X-1.67800 Y-1.07750 ( rapid move to begin. )
G01 Z-0.00394 F39.37008 ( plunge. )
G04 P0 ( dwell for no time -- G64 should not smooth over this point )
X-1.67800 Y-1.07750
X-1.68400 Y-1.07750
X-1.68400 Y-1.07850
X-1.68900 Y-1.07850
X-1.68900 Y-1.07950
X-1.69100 Y-1.07950
X-1.69100 Y-1.08050
X-1.69300 Y-1.08050
X-1.69300 Y-1.08150
X-1.69400 Y-1.08150
X-1.69400 Y-1.08250
X-1.69600 Y-1.08250
X-1.69600 Y-1.08350
X-1.69800 Y-1.08350
X-1.69800 Y-1.08450
X-1.69900 Y-1.08450
X-1.69900 Y-1.08550
X-1.70000 Y-1.08550
X-1.70000 Y-1.08750
X-1.70100 Y-1.08750
X-1.70100 Y-1.08850
X-1.70200 Y-1.08850
X-1.70200 Y-1.09050
X-1.70300 Y-1.09050
X-1.70300 Y-1.09150
X-1.70400 Y-1.09150
X-1.70400 Y-1.09250
X-1.70500 Y-1.09250
X-1.70500 Y-1.09550
X-1.70600 Y-1.09550
X-1.70600 Y-1.10050
X-1.70700 Y-1.10050
X-1.70700 Y-1.10550
X-1.70800 Y-1.10550
X-1.70800 Y-1.10950
X-1.70700 Y-1.10950
X-1.70700 Y-1.11450
X-1.70600 Y-1.11450
X-1.70600 Y-1.11950
X-1.70500 Y-1.11950
X-1.70500 Y-1.12250
X-1.70400 Y-1.12250
X-1.70400 Y-1.12350
X-1.70300 Y-1.12350
X-1.70300 Y-1.12450
X-1.70200 Y-1.12450
X-1.70200 Y-1.12650
X-1.70100 Y-1.12650
X-1.70100 Y-1.12750
X-1.70000 Y-1.12750
X-1.70000 Y-1.12850
X-1.69900 Y-1.12850
X-1.69900 Y-1.13050
X-1.69700 Y-1.13050
X-1.69700 Y-1.13150
X-1.69600 Y-1.13150
X-1.69600 Y-1.13250
X-1.69400 Y-1.13250
X-1.69400 Y-1.13350
X-1.69200 Y-1.13350
X-1.69200 Y-1.13450
X-1.69100 Y-1.13450
X-1.69100 Y-1.13550
X-1.68900 Y-1.13550
X-1.68900 Y-1.13650
X-1.68300 Y-1.13650
X-1.68300 Y-1.13750
X-1.67200 Y-1.13750
X-1.67200 Y-1.13650
X-1.66600 Y-1.13650
X-1.66600 Y-1.13550
X-1.66400 Y-1.13550
X-1.66400 Y-1.13450
X-1.66200 Y-1.13450
X-1.66200 Y-1.13350
X-1.66100 Y-1.13350
X-1.66100 Y-1.13250
X-1.65900 Y-1.13250
X-1.65900 Y-1.13150
X-1.65700 Y-1.13150
X-1.65700 Y-1.13050
X-1.65600 Y-1.13050
X-1.65600 Y-1.12950
X-1.65500 Y-1.12950
X-1.65500 Y-1.12850
X-1.65400 Y-1.12850
X-1.65400 Y-1.12650
X-1.65300 Y-1.12650
X-1.65300 Y-1.12550
X-1.65200 Y-1.12550
X-1.65200 Y-1.12350
X-1.65100 Y-1.12350
X-1.65100 Y-1.12250
X-1.65000 Y-1.12250
X-1.65000 Y-1.12150
X-1.64900 Y-1.12150
X-1.64900 Y-1.11650
X-1.64800 Y-1.11650
X-1.64800 Y-1.11150
X-1.64700 Y-1.11150
X-1.64700 Y-1.10350
X-1.64800 Y-1.10350
X-1.64800 Y-1.09850
X-1.64900 Y-1.09850
X-1.64900 Y-1.09350
X-1.65000 Y-1.09350
X-1.65000 Y-1.09250
X-1.65100 Y-1.09250
X-1.65100 Y-1.09050
X-1.65200 Y-1.09050
X-1.65200 Y-1.08950
X-1.65300 Y-1.08950
X-1.65300 Y-1.08850
X-1.65400 Y-1.08850
X-1.65400 Y-1.08650
X-1.65500 Y-1.08650
X-1.65500 Y-1.08550
X-1.65600 Y-1.08550
X-1.65600 Y-1.08450
X-1.65700 Y-1.08450
X-1.65700 Y-1.08350
X-1.65900 Y-1.08350
X-1.65900 Y-1.08250
X-1.66000 Y-1.08250
X-1.66000 Y-1.08150
X-1.66200 Y-1.08150
X-1.66200 Y-1.08050
X-1.66400 Y-1.08050
X-1.66400 Y-1.07950
X-1.66500 Y-1.07950
X-1.66500 Y-1.07850
X-1.67000 Y-1.07850
X-1.67000 Y-1.07750
X-1.67600 Y-1.07750
X-1.67600 Y-1.07650
X-1.67800 Y-1.07650
X-1.67800 Y-1.07750
G04 P0 ( dwell for no time -- G64 should not smooth over this point )
G00 Z0.19685 ( retract )

G00 X-1.77800 Y-1.07750 ( rapid move to begin. )
G01 Z-0.00394 F39.37008 ( plunge. )
G04 P0 ( dwell for no time -- G64 should not smooth over this point )
X-1.77800 Y-1.07750
X-1.78400 Y-1.07750
X-1.78400 Y-1.07850
X-1.78900 Y-1.07850
X-1.78900 Y-1.07950
X-1.79100 Y-1.07950
X-1.79100 Y-1.08050
X-1.79300 Y-1.08050
X-1.79300 Y-1.08150
X-1.79400 Y-1.08150
X-1.79400 Y-1.08250
X-1.79600 Y-1.08250
X-1.79600 Y-1.08350
X-1.79800 Y-1.08350
X-1.79800 Y-1.08450
X-1.79900 Y-1.08450
X-1.79900 Y-1.08550
X-1.80000 Y-1.08550
X-1.80000 Y-1.08750
X-1.80100 Y-1.08750
X-1.80100 Y-1.08850
X-1.80200 Y-1.08850
X-1.80200 Y-1.09050
X-1.80300 Y-1.09050
X-1.80300 Y-1.09150
X-1.80400 Y-1.09150
X-1.80400 Y-1.09250
X-1.80500 Y-1.09250
X-1.80500 Y-1.09550
X-1.80600 Y-1.09550
X-1.80600 Y-1.10050
X-1.80700 Y-1.10050
X-1.80700 Y-1.10550
X-1.80800 Y-1.10550
X-1.80800 Y-1.10950
X-1.80700 Y-1.10950
X-1.80700 Y-1.11450
X-1.80600 Y-1.11450
X-1.80600 Y-1.11950
X-1.80500 Y-1.11950
X-1.80500 Y-1.12250
X-1.80400 Y-1.12250
X-1.80400 Y-1.12350
X-1.80300 Y-1.12350
X-1.80300 Y-1.12450
X-1.80200 Y-1.12450
X-1.80200 Y-1.12650
X-1.80100 Y-1.12650
X-1.80100 Y-1.12750
X-1.80000 Y-1.12750
X-1.80000 Y-1.12850
X-1.79900 Y-1.12850
X-1.79900 Y-1.13050
X-1.79700 Y-1.13050
X-1.79700 Y-1.13150
X-1.79600 Y-1.13150
X-1.79600 Y-1.13250
X-1.79400 Y-1.13250
X-1.79400 Y-1.13350
X-1.79200 Y-1.13350
X-1.79200 Y-1.13450
X-1.79100 Y-1.13450
X-1.79100 Y-1.13550
X-1.78900 Y-1.13550
X-1.78900 Y-1.13650
X-1.78300 Y-1.13650
X-1.78300 Y-1.13750
X-1.77200 Y-1.13750
X-1.77200 Y-1.13650
X-1.76600 Y-1.13650
X-1.76600 Y-1.13550
X-1.76400 Y-1.13550
X-1.76400 Y-1.13450
X-1.76200 Y-1.13450
X-1.76200 Y-1.13350
X-1.76100 Y-1.13350
X-1.76100 Y-1.13250
X-1.75900 Y-1.13250
X-1.75900 Y-1.13150
X-1.75700 Y-1.13150
X-1.75700 Y-1.13050
X-1.75600 Y-1.13050
X-1.75600 Y-1.12950
X-1.75500 Y-1.12950
X-1.75500 Y-1.12850
X-1.75400 Y-1.12850
X-1.75400 Y-1.12650
X-1.75300 Y-1.12650
X-1.75300 Y-1.12550
X-1.75200 Y-1.12550
X-1.75200 Y-1.12350
X-1.75100 Y-1.12350
X-1.75100 Y-1.12250
X-1.75000 Y-1.12250
X-1.75000 Y-1.12150
X-1.74900 Y-1.12150
X-1.74900 Y-1.11650
X-1.74800 Y-1.11650
X-1.74800 Y-1.11150
X-1.74700 Y-1.11150
X-1.74700 Y-1.10350
X-1.74800 Y-1.10350
X-1.74800 Y-1.09850
X-1.74900 Y-1.09850
X-1.74900 Y-1.09350
X-1.75000 Y-1.09350
X-1.75000 Y-1.09250
X-1.75100 Y-1.09250
X-1.75100 Y-1.09050
X-1.75200 Y-1.09050
X-1.75200 Y-1.08950
X-1.75300 Y-1.08950
X-1.75300 Y-1.08850
X-1.75400 Y-1.08850
X-1.75400 Y-1.08650
X-1.75500 Y-1.08650
X-1.75500 Y-1.08550
X-1.75600 Y-1.08550
X-1.75600 Y-1.08450
X-1.75700 Y-1.08450
X-1.75700 Y-1.08350
X-1.75900 Y-1.08350
X-1.75900 Y-1.08250
X-1.76000 Y-1.08250
X-1.76000 Y-1.08150
X-1.76200 Y-1.08150
X-1.76200 Y-1.08050
X-1.76400 Y-1.08050
X-1.76400 Y-1.07950
X-1.76500 Y-1.07950
X-1.76500 Y-1.07850
X-1.77000 Y-1.07850
X-1.77000 Y-1.07750
X-1.77600 Y-1.07750
X-1.77600 Y-1.07650
X-1.77800 Y-1.07650
X-1.77800 Y-1.07750
G04 P0 ( dwell for no time -- G64 should not smooth over this point )
G00 Z0.19685 ( retract )

G00 X-1.87800 Y-1.07750 ( rapid move to begin. )
G01 Z-0.00394 F39.37008 ( plunge. )
G04 P0 ( dwell for no time -- G64 should not smooth over this point )
X-1.87800 Y-1.07750
X-1.88400 Y-1.07750
X-1.88400 Y-1.07850
X-1.88900 Y-1.07850
X-1.88900 Y-1.07950
X-1.89100 Y-1.07950
X-1.89100 Y-1.08050
X-1.89300 Y-1.08050
X-1.89300 Y-1.08150
X-1.89400 Y-1.08150
X-1.89400 Y-1.08250
X-1.89600 Y-1.08250
X-1.89600 Y-1.08350
X-1.89800 Y-1.08350
X-1.89800 Y-1.08450
X-1.89900 Y-1.08450
X-1.89900 Y-1.08550
X-1.90000 Y-1.08550
X-1.90000 Y-1.08750
X-1.90100 Y-1.08750
X-1.90100 Y-1.08850
X-1.90200 Y-1.08850
X-1.90200 Y-1.09050
X-1.90300 Y-1.09050
X-1.90300 Y-1.09150
X-1.90400 Y-1.09150
X-1.90400 Y-1.09250
X-1.90500 Y-1.09250
X-1.90500 Y-1.09550
X-1.90600 Y-1.09550
X-1.90600 Y-1.10050
X-1.90700 Y-1.10050
X-1.90700 Y-1.10550
X-1.90800 Y-1.10550
X-1.90800 Y-1.10950
X-1.90700 Y-1.10950
X-1.90700 Y-1.11450
X-1.90600 Y-1.11450
X-1.90600 Y-1.11950
X-1.90500 Y-1.11950
X-1.90500 Y-1.12250
X-1.90400 Y-1.12250
X-1.90400 Y-1.12350
X-1.90300 Y-1.12350
X-1.90300 Y-1.12450
X-1.90200 Y-1.12450
X-1.90200 Y-1.12650
X-1.90100 Y-1.12650
X-1.90100 Y-1.12750
X-1.90000 Y-1.12750
X-1.90000 Y-1.12850
X-1.89900 Y-1.12850
X-1.89900 Y-1.13050
X-1.89700 Y-1.13050
X-1.89700 Y-1.13150
X-1.89600 Y-1.13150
X-1.89600 Y-1.13250
X-1.89400 Y-1.13250
X-1.89400 Y-1.13350
X-1.89200 Y-1.13350
X-1.89200 Y-1.13450
X-1.89100 Y-1.13450
X-1.89100 Y-1.13550
X-1.88900 Y-1.13550
X-1.88900 Y-1.13650
X-1.88300 Y-1.13650
X-1.88300 Y-1.13750
X-1.87200 Y-1.13750
X-1.87200 Y-1.13650
X-1.86600 Y-1.13650
X-1.86600 Y-1.13550
X-1.86400 Y-1.13550
X-1.86400 Y-1.13450
X-1.86200 Y-1.13450
X-1.86200 Y-1.13350
X-1.86100 Y-1.13350
X-1.86100 Y-1.13250
X-1.85900 Y-1.13250
X-1.85900 Y-1.13150
X-1.85700 Y-1.13150
X-1.85700 Y-1.13050
X-1.85600 Y-1.13050
X-1.85600 Y-1.12950
X-1.85500 Y-1.12950
X-1.85500 Y-1.12850
X-1.85400 Y-1.12850
X-1.85400 Y-1.12650
X-1.85300 Y-1.12650
X-1.85300 Y-1.12550
X-1.85200 Y-1.12550
X-1.85200 Y-1.12350
X-1.85100 Y-1.12350
X-1.85100 Y-1.12250
X-1.85000 Y-1.12250
X-1.85000 Y-1.12150
X-1.84900 Y-1.12150
X-1.84900 Y-1.11650
X-1.84800 Y-1.11650
X-1.84800 Y-1.11150
X-1.84700 Y-1.11150
X-1.84700 Y-1.10350
X-1.84800 Y-1.10350
X-1.84800 Y-1.09850
X-1.84900 Y-1.09850
X-1.84900 Y-1.09350
X-1.85000 Y-1.09350
X-1.85000 Y-1.09250
X-1.85100 Y-1.09250
X-1.85100 Y-1.09050
X-1.85200 Y-1.09050
X-1.85200 Y-1.08950
X-1.85300 Y-1.08950
X-1.85300 Y-1.08850
X-1.85400 Y-1.08850
X-1.85400 Y-1.08650
X-1.85500 Y-1.08650
X-1.85500 Y-1.08550
X-1.85600 Y-1.08550
X-1.85600 Y-1.08450
X-1.85700 Y-1.08450
X-1.85700 Y-1.08350
X-1.85900 Y-1.08350
X-1.85900 Y-1.08250
X-1.86000 Y-1.08250
X-1.86000 Y-1.08150
X-1.86200 Y-1.08150
X-1.86200 Y-1.08050
X-1.86400 Y-1.08050
X-1.86400 Y-1.07950
X-1.86500 Y-1.07950
X-1.86500 Y-1.07850
X-1.87000 Y-1.07850
X-1.87000 Y-1.07750
X-1.87600 Y-1.07750
X-1.87600 Y-1.07650
X-1.87800 Y-1.07650
X-1.87800 Y-1.07750
G04 P0 ( dwell for no time -- G64 should not smooth over this point )
G00 Z0.19685 ( retract )

G00 X-1.97800 Y-1.07750 ( rapid move to begin. )
G01 Z-0.00394 F39.37008 ( plunge. )
G04 P0 ( dwell for no time -- G64 should not smooth over this point )
X-1.97800 Y-1.07750
X-1.98400 Y-1.07750
X-1.98400 Y-1.07850
X-1.98900 Y-1.07850
X-1.98900 Y-1.07950
X-1.99100 Y-1.07950
X-1.99100 Y-1.08050
X-1.99300 Y-1.08050
X-1.99300 Y-1.08150
X-1.99400 Y-1.08150
X-1.99400 Y-1.08250
X-1.99600 Y-1.08250
X-1.99600 Y-1.08350
X-1.99800 Y-1.08350
X-1.99800 Y-1.08450
X-1.99900 Y-1.08450
X-1.99900 Y-1.08550
X-2.00000 Y-1.08550
X-2.00000 Y-1.08750
X-2.00100 Y-1.08750
X-2.00100 Y-1.08850
X-2.00200 Y-1.08850
X-2.00200 Y-1.09050
X-2.00300 Y-1.09050
X-2.00300 Y-1.09150
X-2.00400 Y-1.09150
X-2.00400 Y-1.09250
X-2.00500 Y-1.09250
X-2.00500 Y-1.09550
X-2.00600 Y-1.09550
X-2.00600 Y-1.10050
X-2.00700 Y-1.10050
X-2.00700 Y-1.10550
X-2.00800 Y-1.10550
X-2.00800 Y-1.10950
X-2.00700 Y-1.10950
X-2.00700 Y-1.11450
X-2.00600 Y-1.11450
X-2.00600 Y-1.11950
X-2.00500 Y-1.11950
X-2.00500 Y-1.12250
X-2.00400 Y-1.12250
X-2.00400 Y-1.12350
X-2.00300 Y-1.12350
X-2.00300 Y-1.12450
X-2.00200 Y-1.12450
X-2.00200 Y-1.12650
X-2.00100 Y-1.12650
X-2.00100 Y-1.12750
X-2.00000 Y-1.12750
X-2.00000 Y-1.12850
X-1.99900 Y-1.12850
X-1.99900 Y-1.13050
X-1.99700 Y-1.13050
X-1.99700 Y-1.13150
X-1.99600 Y-1.13150
X-1.99600 Y-1.13250
X-1.99400 Y-1.13250
X-1.99400 Y-1.13350
X-1.99200 Y-1.13350
X-1.99200 Y-1.13450
X-1.99100 Y-1.13450
X-1.99100 Y-1.13550
X-1.98900 Y-1.13550
X-1.98900 Y-1.13650
X-1.98300 Y-1.13650
X-1.98300 Y-1.13750
X-1.97200 Y-1.13750
X-1.97200 Y-1.13650
X-1.96600 Y-1.13650
X-1.96600 Y-1.13550
X-1.96400 Y-1.13550
X-1.96400 Y-1.13450
X-1.96200 Y-1.13450
X-1.96200 Y-1.13350
X-1.96100 Y-1.13350
X-1.96100 Y-1.13250
X-1.95900 Y-1.13250
X-1.95900 Y-1.13150
X-1.95700 Y-1.13150
X-1.95700 Y-1.13050
X-1.95600 Y-1.13050
X-1.95600 Y-1.12950
X-1.95500 Y-1.12950
X-1.95500 Y-1.12850
X-1.95400 Y-1.12850
X-1.95400 Y-1.12650
X-1.95300 Y-1.12650
X-1.95300 Y-1.12550
X-1.95200 Y-1.12550
X-1.95200 Y-1.12350
X-1.95100 Y-1.12350
X-1.95100 Y-1.12250
X-1.95000 Y-1.12250
X-1.95000 Y-1.12150
X-1.94900 Y-1.12150
X-1.94900 Y-1.11650
X-1.94800 Y-1.11650
X-1.94800 Y-1.11150
X-1.94700 Y-1.11150
X-1.94700 Y-1.10350
X-1.94800 Y-1.10350
X-1.94800 Y-1.09850
X-1.94900 Y-1.09850
X-1.94900 Y-1.09350
X-1.95000 Y-1.09350
X-1.95000 Y-1.09250
X-1.95100 Y-1.09250
X-1.95100 Y-1.09050
X-1.95200 Y-1.09050
X-1.95200 Y-1.08950
X-1.95300 Y-1.08950
X-1.95300 Y-1.08850
X-1.95400 Y-1.08850
X-1.95400 Y-1.08650
X-1.95500 Y-1.08650
X-1.95500 Y-1.08550
X-1.95600 Y-1.08550
X-1.95600 Y-1.08450
X-1.95700 Y-1.08450
X-1.95700 Y-1.08350
X-1.95900 Y-1.08350
X-1.95900 Y-1.08250
X-1.96000 Y-1.08250
X-1.96000 Y-1.08150
X-1.96200 Y-1.08150
X-1.96200 Y-1.08050
X-1.96400 Y-1.08050
X-1.96400 Y-1.07950
X-1.96500 Y-1.07950
X-1.96500 Y-1.07850
X-1.97000 Y-1.07850
X-1.97000 Y-1.07750
X-1.97600 Y-1.07750
X-1.97600 Y-1.07650
X-1.97800 Y-1.07650
X-1.97800 Y-1.07750
G04 P0 ( dwell for no time -- G64 should not smooth over this point )
G00 Z0.19685 ( retract )

G00 X-1.08100 Y-1.17650 ( rapid move to begin. )
G01 Z-0.00394 F39.37008 ( plunge. )
G04 P0 ( dwell for no time -- G64 should not smooth over this point )
X-1.08100 Y-1.17650
X-1.08700 Y-1.17650
X-1.08700 Y-1.17750
X-1.09000 Y-1.17750
X-1.09000 Y-1.17850
X-1.09200 Y-1.17850
X-1.09200 Y-1.17950
X-1.09400 Y-1.17950
X-1.09400 Y-1.18050
X-1.09500 Y-1.18050
X-1.09500 Y-1.18150
X-1.09700 Y-1.18150
X-1.09700 Y-1.18250
X-1.09900 Y-1.18250
X-1.09900 Y-1.18350
X-1.10000 Y-1.18350
X-1.10000 Y-1.18550
X-1.10100 Y-1.18550
X-1.10100 Y-1.18650
X-1.10200 Y-1.18650
X-1.10200 Y-1.18850
X-1.10300 Y-1.18850
X-1.10300 Y-1.18950
X-1.10400 Y-1.18950
X-1.10400 Y-1.19050
X-1.10500 Y-1.19050
X-1.10500 Y-1.19250
X-1.10600 Y-1.19250
X-1.10600 Y-1.19650
X-1.10700 Y-1.19650
X-1.10700 Y-1.20150
X-1.10800 Y-1.20150
X-1.10800 Y-1.21050
X-1.10700 Y-1.21050
X-1.10700 Y-1.21550
X-1.10600 Y-1.21550
X-1.10600 Y-1.21950
X-1.10500 Y-1.21950
X-1.10500 Y-1.22150
X-1.10400 Y-1.22150
X-1.10400 Y-1.22250
X-1.10300 Y-1.22250
X-1.10300 Y-1.22350
X-1.10200 Y-1.22350
X-1.10200 Y-1.22550
X-1.10100 Y-1.22550
X-1.10100 Y-1.22650
X-1.10000 Y-1.22650
X-1.10000 Y-1.22850
X-1.09900 Y-1.22850
X-1.09900 Y-1.22950
X-1.09700 Y-1.22950
X-1.09700 Y-1.23050
X-1.09500 Y-1.23050
X-1.09500 Y-1.23150
X-1.09400 Y-1.23150
X-1.09400 Y-1.23250
X-1.09200 Y-1.23250
X-1.09200 Y-1.23350
X-1.09000 Y-1.23350
X-1.09000 Y-1.23450
X-1.08700 Y-1.23450
X-1.08700 Y-1.23550
X-1.08100 Y-1.23550
X-1.08100 Y-1.23650
X-1.07400 Y-1.23650
X-1.07400 Y-1.23550
X-1.06800 Y-1.23550
X-1.06800 Y-1.23450
X-1.06500 Y-1.23450
X-1.06500 Y-1.23350
X-1.06300 Y-1.23350
X-1.06300 Y-1.23250
X-1.06200 Y-1.23250
X-1.06200 Y-1.23150
X-1.06000 Y-1.23150
X-1.06000 Y-1.23050
X-1.05800 Y-1.23050
X-1.05800 Y-1.22950
X-1.05700 Y-1.22950
X-1.05700 Y-1.22850
X-1.05600 Y-1.22850
X-1.05600 Y-1.22750
X-1.05500 Y-1.22750
X-1.05500 Y-1.22650
X-1.05400 Y-1.22650
X-1.05400 Y-1.22450
X-1.05300 Y-1.22450
X-1.05300 Y-1.22350
X-1.05200 Y-1.22350
X-1.05200 Y-1.22250
X-1.05100 Y-1.22250
X-1.05100 Y-1.22050
X-1.05000 Y-1.22050
X-1.05000 Y-1.21850
X-1.04900 Y-1.21850
X-1.04900 Y-1.21350
X-1.04800 Y-1.21350
X-1.04800 Y-1.20850
X-1.04700 Y-1.20850
X-1.04700 Y-1.20350
X-1.04800 Y-1.20350
X-1.04800 Y-1.19850
X-1.04900 Y-1.19850
X-1.04900 Y-1.19350
X-1.05000 Y-1.19350
X-1.05000 Y-1.19150
X-1.05100 Y-1.19150
X-1.05100 Y-1.18950
X-1.05200 Y-1.18950
X-1.05200 Y-1.18850
X-1.05300 Y-1.18850
X-1.05300 Y-1.18750
X-1.05400 Y-1.18750
X-1.05400 Y-1.18550
X-1.05500 Y-1.18550
X-1.05500 Y-1.18450
X-1.05600 Y-1.18450
X-1.05600 Y-1.18350
X-1.05700 Y-1.18350
X-1.05700 Y-1.18250
X-1.05800 Y-1.18250
X-1.05800 Y-1.18150
X-1.06000 Y-1.18150
X-1.06000 Y-1.18050
X-1.06200 Y-1.18050
X-1.06200 Y-1.17950
X-1.06300 Y-1.17950
X-1.06300 Y-1.17850
X-1.06500 Y-1.17850
X-1.06500 Y-1.17750
X-1.06800 Y-1.17750
X-1.06800 Y-1.17650
X-1.07400 Y-1.17650
X-1.07400 Y-1.17550
X-1.08100 Y-1.17550
X-1.08100 Y-1.17650
G04 P0 ( dwell for no time -- G64 should not smooth over this point )
G00 Z0.19685 ( retract )

G00 X-1.18100 Y-1.17650 ( rapid move to begin. )
G01 Z-0.00394 F39.37008 ( plunge. )
G04 P0 ( dwell for no time -- G64 should not smooth over this point )
X-1.18100 Y-1.17650
X-1.18700 Y-1.17650
X-1.18700 Y-1.17750
X-1.19000 Y-1.17750
X-1.19000 Y-1.17850
X-1.19200 Y-1.17850
X-1.19200 Y-1.17950
X-1.19400 Y-1.17950
X-1.19400 Y-1.18050
X-1.19500 Y-1.18050
X-1.19500 Y-1.18150
X-1.19700 Y-1.18150
X-1.19700 Y-1.18250
X-1.19900 Y-1.18250
X-1.19900 Y-1.18350
X-1.20000 Y-1.18350
X-1.20000 Y-1.18550
X-1.20100 Y-1.18550
X-1.20100 Y-1.18650
X-1.20200 Y-1.18650
X-1.20200 Y-1.18850
X-1.20300 Y-1.18850
X-1.20300 Y-1.18950
X-1.20400 Y-1.18950
X-1.20400 Y-1.19050
X-1.20500 Y-1.19050
X-1.20500 Y-1.19250
X-1.20600 Y-1.19250
X-1.20600 Y-1.19650
X-1.20700 Y-1.19650
X-1.20700 Y-1.20150
X-1.20800 Y-1.20150
X-1.20800 Y-1.21050
X-1.20700 Y-1.21050
X-1.20700 Y-1.21550
X-1.20600 Y-1.21550
X-1.20600 Y-1.21950
X-1.20500 Y-1.21950
X-1.20500 Y-1.22150
X-1.20400 Y-1.22150
X-1.20400 Y-1.22250
X-1.20300 Y-1.22250
X-1.20300 Y-1.22350
X-1.20200 Y-1.22350
X-1.20200 Y-1.22550
X-1.20100 Y-1.22550
X-1.20100 Y-1.22650
X-1.20000 Y-1.22650
X-1.20000 Y-1.22850
X-1.19900 Y-1.22850
X-1.19900 Y-1.22950
X-1.19700 Y-1.22950
X-1.19700 Y-1.23050
X-1.19500 Y-1.23050
X-1.19500 Y-1.23150
X-1.19400 Y-1.23150
X-1.19400 Y-1.23250
X-1.19200 Y-1.23250
X-1.19200 Y-1.23350
X-1.19000 Y-1.23350
X-1.19000 Y-1.23450
X-1.18700 Y-1.23450
X-1.18700 Y-1.23550
X-1.18100 Y-1.23550
X-1.18100 Y-1.23650
X-1.17400 Y-1.23650
X-1.17400 Y-1.23550
X-1.16800 Y-1.23550
X-1.16800 Y-1.23450
X-1.16500 Y-1.23450
X-1.16500 Y-1.23350
X-1.16300 Y-1.23350
X-1.16300 Y-1.23250
X-1.16200 Y-1.23250
X-1.16200 Y-1.23150
X-1.16000 Y-1.23150
X-1.16000 Y-1.23050
X-1.15800 Y-1.23050
X-1.15800 Y-1.22950
X-1.15700 Y-1.22950
X-1.15700 Y-1.22850
X-1.15600 Y-1.22850
X-1.15600 Y-1.22750
X-1.15500 Y-1.22750
X-1.15500 Y-1.22650
X-1.15400 Y-1.22650
X-1.15400 Y-1.22450
X-1.15300 Y-1.22450
X-1.15300 Y-1.22350
X-1.15200 Y-1.22350
X-1.15200 Y-1.22250
X-1.15100 Y-1.22250
X-1.15100 Y-1.22050
X-1.15000 Y-1.22050
X-1.15000 Y-1.21850
X-1.14900 Y-1.21850
X-1.14900 Y-1.21350
X-1.14800 Y-1.21350
X-1.14800 Y-1.20850
X-1.14700 Y-1.20850
X-1.14700 Y-1.20350
X-1.14800 Y-1.20350
X-1.14800 Y-1.19850
X-1.14900 Y-1.19850
X-1.14900 Y-1.19350
X-1.15000 Y-1.19350
X-1.15000 Y-1.19150
X-1.15100 Y-1.19150
X-1.15100 Y-1.18950
X-1.15200 Y-1.18950
X-1.15200 Y-1.18850
X-1.15300 Y-1.18850
X-1.15300 Y-1.18750
X-1.15400 Y-1.18750
X-1.15400 Y-1.18550
X-1.15500 Y-1.18550
X-1.15500 Y-1.18450
X-1.15600 Y-1.18450
X-1.15600 Y-1.18350
X-1.15700 Y-1.18350
X-1.15700 Y-1.18250
X-1.15800 Y-1.18250
X-1.15800 Y-1.18150
X-1.16000 Y-1.18150
X-1.16000 Y-1.18050
X-1.16200 Y-1.18050
X-1.16200 Y-1.17950
X-1.16300 Y-1.17950
X-1.16300 Y-1.17850
X-1.16500 Y-1.17850
X-1.16500 Y-1.17750
X-1.16800 Y-1.17750
X-1.16800 Y-1.17650
X-1.17400 Y-1.17650
X-1.17400 Y-1.17550
X-1.18100 Y-1.17550
X-1.18100 Y-1.17650
G04 P0 ( dwell for no time -- G64 should not smooth over this point )
G00 Z0.19685 ( retract )

G00 X-1.28100 Y-1.17650 ( rapid move to begin. )
G01 Z-0.00394 F39.37008 ( plunge. )
G04 P0 ( dwell for no time -- G64 should not smooth over this point )
X-1.28100 Y-1.17650
X-1.28700 Y-1.17650
X-1.28700 Y-1.17750
X-1.29000 Y-1.17750
X-1.29000 Y-1.17850
X-1.29200 Y-1.17850
X-1.29200 Y-1.17950
X-1.29400 Y-1.17950
X-1.29400 Y-1.18050
X-1.29500 Y-1.18050
X-1.29500 Y-1.18150
X-1.29700 Y-1.18150
X-1.29700 Y-1.18250
X-1.29900 Y-1.18250
X-1.29900 Y-1.18350
X-1.30000 Y-1.18350
X-1.30000 Y-1.18550
X-1.30100 Y-1.18550
X-1.30100 Y-1.18650
X-1.30200 Y-1.18650
X-1.30200 Y-1.18850
X-1.30300 Y-1.18850
X-1.30300 Y-1.18950
X-1.30400 Y-1.18950
X-1.30400 Y-1.19050
X-1.30500 Y-1.19050
X-1.30500 Y-1.19250
X-1.30600 Y-1.19250
X-1.30600 Y-1.19650
X-1.30700 Y-1.19650
X-1.30700 Y-1.20150
X-1.30800 Y-1.20150
X-1.30800 Y-1.21050
X-1.30700 Y-1.21050
X-1.30700 Y-1.21550
X-1.30600 Y-1.21550
X-1.30600 Y-1.21950
X-1.30500 Y-1.21950
X-1.30500 Y-1.22150
X-1.30400 Y-1.22150
X-1.30400 Y-1.22250
X-1.30300 Y-1.22250
X-1.30300 Y-1.22350
X-1.30200 Y-1.22350
X-1.30200 Y-1.22550
X-1.30100 Y-1.22550
X-1.30100 Y-1.22650
X-1.30000 Y-1.22650
X-1.30000 Y-1.22850
X-1.29900 Y-1.22850
X-1.29900 Y-1.22950
X-1.29700 Y-1.22950
X-1.29700 Y-1.23050
X-1.29500 Y-1.23050
X-1.29500 Y-1.23150
X-1.29400 Y-1.23150
X-1.29400 Y-1.23250
X-1.29200 Y-1.23250
X-1.29200 Y-1.23350
X-1.29000 Y-1.23350
X-1.29000 Y-1.23450
X-1.28700 Y-1.23450
X-1.28700 Y-1.23550
X-1.28100 Y-1.23550
X-1.28100 Y-1.23650
X-1.27400 Y-1.23650
X-1.27400 Y-1.23550
X-1.26800 Y-1.23550
X-1.26800 Y-1.23450
X-1.26500 Y-1.23450
X-1.26500 Y-1.23350
X-1.26300 Y-1.23350
X-1.26300 Y-1.23250
X-1.26200 Y-1.23250
X-1.26200 Y-1.23150
X-1.26000 Y-1.23150
X-1.26000 Y-1.23050
X-1.25800 Y-1.23050
X-1.25800 Y-1.22950
X-1.25700 Y-1.22950
X-1.25700 Y-1.22850
X-1.25600 Y-1.22850
X-1.25600 Y-1.22750
X-1.25500 Y-1.22750
X-1.25500 Y-1.22650
X-1.25400 Y-1.22650
X-1.25400 Y-1.22450
X-1.25300 Y-1.22450
X-1.25300 Y-1.22350
X-1.25200 Y-1.22350
X-1.25200 Y-1.22250
X-1.25100 Y-1.22250
X-1.25100 Y-1.22050
X-1.25000 Y-1.22050
X-1.25000 Y-1.21850
X-1.24900 Y-1.21850
X-1.24900 Y-1.21350
X-1.24800 Y-1.21350
X-1.24800 Y-1.20850
X-1.24700 Y-1.20850
X-1.24700 Y-1.20350
X-1.24800 Y-1.20350
X-1.24800 Y-1.19850
X-1.24900 Y-1.19850
X-1.24900 Y-1.19350
X-1.25000 Y-1.19350
X-1.25000 Y-1.19150
X-1.25100 Y-1.19150
X-1.25100 Y-1.18950
X-1.25200 Y-1.18950
X-1.25200 Y-1.18850
X-1.25300 Y-1.18850
X-1.25300 Y-1.18750
X-1.25400 Y-1.18750
X-1.25400 Y-1.18550
X-1.25500 Y-1.18550
X-1.25500 Y-1.18450
X-1.25600 Y-1.18450
X-1.25600 Y-1.18350
X-1.25700 Y-1.18350
X-1.25700 Y-1.18250
X-1.25800 Y-1.18250
X-1.25800 Y-1.18150
X-1.26000 Y-1.18150
X-1.26000 Y-1.18050
X-1.26200 Y-1.18050
X-1.26200 Y-1.17950
X-1.26300 Y-1.17950
X-1.26300 Y-1.17850
X-1.26500 Y-1.17850
X-1.26500 Y-1.17750
X-1.26800 Y-1.17750
X-1.26800 Y-1.17650
X-1.27400 Y-1.17650
X-1.27400 Y-1.17550
X-1.28100 Y-1.17550
X-1.28100 Y-1.17650
G04 P0 ( dwell for no time -- G64 should not smooth over this point )
G00 Z0.19685 ( retract )

G00 X-1.38100 Y-1.17650 ( rapid move to begin. )
G01 Z-0.00394 F39.37008 ( plunge. )
G04 P0 ( dwell for no time -- G64 should not smooth over this point )
X-1.38100 Y-1.17650
X-1.38700 Y-1.17650
X-1.38700 Y-1.17750
X-1.39000 Y-1.17750
X-1.39000 Y-1.17850
X-1.39200 Y-1.17850
X-1.39200 Y-1.17950
X-1.39400 Y-1.17950
X-1.39400 Y-1.18050
X-1.39500 Y-1.18050
X-1.39500 Y-1.18150
X-1.39700 Y-1.18150
X-1.39700 Y-1.18250
X-1.39900 Y-1.18250
X-1.39900 Y-1.18350
X-1.40000 Y-1.18350
X-1.40000 Y-1.18550
X-1.40100 Y-1.18550
X-1.40100 Y-1.18650
X-1.40200 Y-1.18650
X-1.40200 Y-1.18850
X-1.40300 Y-1.18850
X-1.40300 Y-1.18950
X-1.40400 Y-1.18950
X-1.40400 Y-1.19050
X-1.40500 Y-1.19050
X-1.40500 Y-1.19250
X-1.40600 Y-1.19250
X-1.40600 Y-1.19650
X-1.40700 Y-1.19650
X-1.40700 Y-1.20150
X-1.40800 Y-1.20150
X-1.40800 Y-1.21050
X-1.40700 Y-1.21050
X-1.40700 Y-1.21550
X-1.40600 Y-1.21550
X-1.40600 Y-1.21950
X-1.40500 Y-1.21950
X-1.40500 Y-1.22150
X-1.40400 Y-1.22150
X-1.40400 Y-1.22250
X-1.40300 Y-1.22250
X-1.40300 Y-1.22350
X-1.40200 Y-1.22350
X-1.40200 Y-1.22550
X-1.40100 Y-1.22550
X-1.40100 Y-1.22650
X-1.40000 Y-1.22650
X-1.40000 Y-1.22850
X-1.39900 Y-1.22850
X-1.39900 Y-1.22950
X-1.39700 Y-1.22950
X-1.39700 Y-1.23050
X-1.39500 Y-1.23050
X-1.39500 Y-1.23150
X-1.39400 Y-1.23150
X-1.39400 Y-1.23250
X-1.39200 Y-1.23250
X-1.39200 Y-1.23350
X-1.39000 Y-1.23350
X-1.39000 Y-1.23450
X-1.38700 Y-1.23450
X-1.38700 Y-1.23550
X-1.38100 Y-1.23550
X-1.38100 Y-1.23650
X-1.37400 Y-1.23650
X-1.37400 Y-1.23550
X-1.36800 Y-1.23550
X-1.36800 Y-1.23450
X-1.36500 Y-1.23450
X-1.36500 Y-1.23350
X-1.36300 Y-1.23350
X-1.36300 Y-1.23250
X-1.36200 Y-1.23250
X-1.36200 Y-1.23150
X-1.36000 Y-1.23150
X-1.36000 Y-1.23050
X-1.35800 Y-1.23050
X-1.35800 Y-1.22950
X-1.35700 Y-1.22950
X-1.35700 Y-1.22850
X-1.35600 Y-1.22850
X-1.35600 Y-1.22750
X-1.35500 Y-1.22750
X-1.35500 Y-1.22650
X-1.35400 Y-1.22650
X-1.35400 Y-1.22450
X-1.35300 Y-1.22450
X-1.35300 Y-1.22350
X-1.35200 Y-1.22350
X-1.35200 Y-1.22250
X-1.35100 Y-1.22250
X-1.35100 Y-1.22050
X-1.35000 Y-1.22050
X-1.35000 Y-1.21850
X-1.34900 Y-1.21850
X-1.34900 Y-1.21350
X-1.34800 Y-1.21350
X-1.34800 Y-1.20850
X-1.34700 Y-1.20850
X-1.34700 Y-1.20350
X-1.34800 Y-1.20350
X-1.34800 Y-1.19850
X-1.34900 Y-1.19850
X-1.34900 Y-1.19350
X-1.35000 Y-1.19350
X-1.35000 Y-1.19150
X-1.35100 Y-1.19150
X-1.35100 Y-1.18950
X-1.35200 Y-1.18950
X-1.35200 Y-1.18850
X-1.35300 Y-1.18850
X-1.35300 Y-1.18750
X-1.35400 Y-1.18750
X-1.35400 Y-1.18550
X-1.35500 Y-1.18550
X-1.35500 Y-1.18450
X-1.35600 Y-1.18450
X-1.35600 Y-1.18350
X-1.35700 Y-1.18350
X-1.35700 Y-1.18250
X-1.35800 Y-1.18250
X-1.35800 Y-1.18150
X-1.36000 Y-1.18150
X-1.36000 Y-1.18050
X-1.36200 Y-1.18050
X-1.36200 Y-1.17950
X-1.36300 Y-1.17950
X-1.36300 Y-1.17850
X-1.36500 Y-1.17850
X-1.36500 Y-1.17750
X-1.36800 Y-1.17750
X-1.36800 Y-1.17650
X-1.37400 Y-1.17650
X-1.37400 Y-1.17550
X-1.38100 Y-1.17550
X-1.38100 Y-1.17650
G04 P0 ( dwell for no time -- G64 should not smooth over this point )
G00 Z0.19685 ( retract )

G00 X-1.48100 Y-1.17650 ( rapid move to begin. )
G01 Z-0.00394 F39.37008 ( plunge. )
G04 P0 ( dwell for no time -- G64 should not smooth over this point )
X-1.48100 Y-1.17650
X-1.48700 Y-1.17650
X-1.48700 Y-1.17750
X-1.49000 Y-1.17750
X-1.49000 Y-1.17850
X-1.49200 Y-1.17850
X-1.49200 Y-1.17950
X-1.49400 Y-1.17950
X-1.49400 Y-1.18050
X-1.49500 Y-1.18050
X-1.49500 Y-1.18150
X-1.49700 Y-1.18150
X-1.49700 Y-1.18250
X-1.49900 Y-1.18250
X-1.49900 Y-1.18350
X-1.50000 Y-1.18350
X-1.50000 Y-1.18550
X-1.50100 Y-1.18550
X-1.50100 Y-1.18650
X-1.50200 Y-1.18650
X-1.50200 Y-1.18850
X-1.50300 Y-1.18850
X-1.50300 Y-1.18950
X-1.50400 Y-1.18950
X-1.50400 Y-1.19050
X-1.50500 Y-1.19050
X-1.50500 Y-1.19250
X-1.50600 Y-1.19250
X-1.50600 Y-1.19650
X-1.50700 Y-1.19650
X-1.50700 Y-1.20150
X-1.50800 Y-1.20150
X-1.50800 Y-1.21050
X-1.50700 Y-1.21050
X-1.50700 Y-1.21550
X-1.50600 Y-1.21550
X-1.50600 Y-1.21950
X-1.50500 Y-1.21950
X-1.50500 Y-1.22150
X-1.50400 Y-1.22150
X-1.50400 Y-1.22250
X-1.50300 Y-1.22250
X-1.50300 Y-1.22350
X-1.50200 Y-1.22350
X-1.50200 Y-1.22550
X-1.50100 Y-1.22550
X-1.50100 Y-1.22650
X-1.50000 Y-1.22650
X-1.50000 Y-1.22850
X-1.49900 Y-1.22850
X-1.49900 Y-1.22950
X-1.49700 Y-1.22950
X-1.49700 Y-1.23050
X-1.49500 Y-1.23050
X-1.49500 Y-1.23150
X-1.49400 Y-1.23150
X-1.49400 Y-1.23250
X-1.49200 Y-1.23250
X-1.49200 Y-1.23350
X-1.49000 Y-1.23350
X-1.49000 Y-1.23450
X-1.48700 Y-1.23450
X-1.48700 Y-1.23550
X-1.48100 Y-1.23550
X-1.48100 Y-1.23650
X-1.47400 Y-1.23650
X-1.47400 Y-1.23550
X-1.46800 Y-1.23550
X-1.46800 Y-1.23450
X-1.46500 Y-1.23450
X-1.46500 Y-1.23350
X-1.46300 Y-1.23350
X-1.46300 Y-1.23250
X-1.46200 Y-1.23250
X-1.46200 Y-1.23150
X-1.46000 Y-1.23150
X-1.46000 Y-1.23050
X-1.45800 Y-1.23050
X-1.45800 Y-1.22950
X-1.45700 Y-1.22950
X-1.45700 Y-1.22850
X-1.45600 Y-1.22850
X-1.45600 Y-1.22750
X-1.45500 Y-1.22750
X-1.45500 Y-1.22650
X-1.45400 Y-1.22650
X-1.45400 Y-1.22450
X-1.45300 Y-1.22450
X-1.45300 Y-1.22350
X-1.45200 Y-1.22350
X-1.45200 Y-1.22250
X-1.45100 Y-1.22250
X-1.45100 Y-1.22050
X-1.45000 Y-1.22050
X-1.45000 Y-1.21850
X-1.44900 Y-1.21850
X-1.44900 Y-1.21350
X-1.44800 Y-1.21350
X-1.44800 Y-1.20850
X-1.44700 Y-1.20850
X-1.44700 Y-1.20350
X-1.44800 Y-1.20350
X-1.44800 Y-1.19850
X-1.44900 Y-1.19850
X-1.44900 Y-1.19350
X-1.45000 Y-1.19350
X-1.45000 Y-1.19150
X-1.45100 Y-1.19150
X-1.45100 Y-1.18950
X-1.45200 Y-1.18950
X-1.45200 Y-1.18850
X-1.45300 Y-1.18850
X-1.45300 Y-1.18750
X-1.45400 Y-1.18750
X-1.45400 Y-1.18550
X-1.45500 Y-1.18550
X-1.45500 Y-1.18450
X-1.45600 Y-1.18450
X-1.45600 Y-1.18350
X-1.45700 Y-1.18350
X-1.45700 Y-1.18250
X-1.45800 Y-1.18250
X-1.45800 Y-1.18150
X-1.46000 Y-1.18150
X-1.46000 Y-1.18050
X-1.46200 Y-1.18050
X-1.46200 Y-1.17950
X-1.46300 Y-1.17950
X-1.46300 Y-1.17850
X-1.46500 Y-1.17850
X-1.46500 Y-1.17750
X-1.46800 Y-1.17750
X-1.46800 Y-1.17650
X-1.47400 Y-1.17650
X-1.47400 Y-1.17550
X-1.48100 Y-1.17550
X-1.48100 Y-1.17650
G04 P0 ( dwell for no time -- G64 should not smooth over this point )
G00 Z0.19685 ( retract )

G00 X-1.57800 Y-1.17750 ( rapid move to begin. )
G01 Z-0.00394 F39.37008 ( plunge. )
G04 P0 ( dwell for no time -- G64 should not smooth over this point )
X-1.57800 Y-1.17750
X-1.58400 Y-1.17750
X-1.58400 Y-1.17850
X-1.58900 Y-1.17850
X-1.58900 Y-1.17950
X-1.59100 Y-1.17950
X-1.59100 Y-1.18050
X-1.59300 Y-1.18050
X-1.59300 Y-1.18150
X-1.59400 Y-1.18150
X-1.59400 Y-1.18250
X-1.59600 Y-1.18250
X-1.59600 Y-1.18350
X-1.59800 Y-1.18350
X-1.59800 Y-1.18450
X-1.59900 Y-1.18450
X-1.59900 Y-1.18550
X-1.60000 Y-1.18550
X-1.60000 Y-1.18750
X-1.60100 Y-1.18750
X-1.60100 Y-1.18850
X-1.60200 Y-1.18850
X-1.60200 Y-1.19050
X-1.60300 Y-1.19050
X-1.60300 Y-1.19150
X-1.60400 Y-1.19150
X-1.60400 Y-1.19250
X-1.60500 Y-1.19250
X-1.60500 Y-1.19550
X-1.60600 Y-1.19550
X-1.60600 Y-1.20050
X-1.60700 Y-1.20050
X-1.60700 Y-1.20550
X-1.60800 Y-1.20550
X-1.60800 Y-1.20950
X-1.60700 Y-1.20950
X-1.60700 Y-1.21450
X-1.60600 Y-1.21450
X-1.60600 Y-1.21950
X-1.60500 Y-1.21950
X-1.60500 Y-1.22250
X-1.60400 Y-1.22250
X-1.60400 Y-1.22350
X-1.60300 Y-1.22350
X-1.60300 Y-1.22450
X-1.60200 Y-1.22450
X-1.60200 Y-1.22650
X-1.60100 Y-1.22650
X-1.60100 Y-1.22750
X-1.60000 Y-1.22750
X-1.60000 Y-1.22850
X-1.59900 Y-1.22850
X-1.59900 Y-1.23050
X-1.59700 Y-1.23050
X-1.59700 Y-1.23150
X-1.59600 Y-1.23150
X-1.59600 Y-1.23250
X-1.59400 Y-1.23250
X-1.59400 Y-1.23350
X-1.59200 Y-1.23350
X-1.59200 Y-1.23450
X-1.59100 Y-1.23450
X-1.59100 Y-1.23550
X-1.58900 Y-1.23550
X-1.58900 Y-1.23650
X-1.58300 Y-1.23650
X-1.58300 Y-1.23750
X-1.57200 Y-1.23750
X-1.57200 Y-1.23650
X-1.56600 Y-1.23650
X-1.56600 Y-1.23550
X-1.56400 Y-1.23550
X-1.56400 Y-1.23450
X-1.56200 Y-1.23450
X-1.56200 Y-1.23350
X-1.56100 Y-1.23350
X-1.56100 Y-1.23250
X-1.55900 Y-1.23250
X-1.55900 Y-1.23150
X-1.55700 Y-1.23150
X-1.55700 Y-1.23050
X-1.55600 Y-1.23050
X-1.55600 Y-1.22950
X-1.55500 Y-1.22950
X-1.55500 Y-1.22850
X-1.55400 Y-1.22850
X-1.55400 Y-1.22650
X-1.55300 Y-1.22650
X-1.55300 Y-1.22550
X-1.55200 Y-1.22550
X-1.55200 Y-1.22350
X-1.55100 Y-1.22350
X-1.55100 Y-1.22250
X-1.55000 Y-1.22250
X-1.55000 Y-1.22150
X-1.54900 Y-1.22150
X-1.54900 Y-1.21650
X-1.54800 Y-1.21650
X-1.54800 Y-1.21150
X-1.54700 Y-1.21150
X-1.54700 Y-1.20350
X-1.54800 Y-1.20350
X-1.54800 Y-1.19850
X-1.54900 Y-1.19850
X-1.54900 Y-1.19350
X-1.55000 Y-1.19350
X-1.55000 Y-1.19250
X-1.55100 Y-1.19250
X-1.55100 Y-1.19050
X-1.55200 Y-1.19050
X-1.55200 Y-1.18950
X-1.55300 Y-1.18950
X-1.55300 Y-1.18850
X-1.55400 Y-1.18850
X-1.55400 Y-1.18650
X-1.55500 Y-1.18650
X-1.55500 Y-1.18550
X-1.55600 Y-1.18550
X-1.55600 Y-1.18450
X-1.55700 Y-1.18450
X-1.55700 Y-1.18350
X-1.55900 Y-1.18350
X-1.55900 Y-1.18250
X-1.56000 Y-1.18250
X-1.56000 Y-1.18150
X-1.56200 Y-1.18150
X-1.56200 Y-1.18050
X-1.56400 Y-1.18050
X-1.56400 Y-1.17950
X-1.56500 Y-1.17950
X-1.56500 Y-1.17850
X-1.57000 Y-1.17850
X-1.57000 Y-1.17750
X-1.57600 Y-1.17750
X-1.57600 Y-1.17650
X-1.57800 Y-1.17650
X-1.57800 Y-1.17750
G04 P0 ( dwell for no time -- G64 should not smooth over this point )
G00 Z0.19685 ( retract )

G00 X-1.67800 Y-1.17750 ( rapid move to begin. )
G01 Z-0.00394 F39.37008 ( plunge. )
G04 P0 ( dwell for no time -- G64 should not smooth over this point )
X-1.67800 Y-1.17750
X-1.68400 Y-1.17750
X-1.68400 Y-1.17850
X-1.68900 Y-1.17850
X-1.68900 Y-1.17950
X-1.69100 Y-1.17950
X-1.69100 Y-1.18050
X-1.69300 Y-1.18050
X-1.69300 Y-1.18150
X-1.69400 Y-1.18150
X-1.69400 Y-1.18250
X-1.69600 Y-1.18250
X-1.69600 Y-1.18350
X-1.69800 Y-1.18350
X-1.69800 Y-1.18450
X-1.69900 Y-1.18450
X-1.69900 Y-1.18550
X-1.70000 Y-1.18550
X-1.70000 Y-1.18750
X-1.70100 Y-1.18750
X-1.70100 Y-1.18850
X-1.70200 Y-1.18850
X-1.70200 Y-1.19050
X-1.70300 Y-1.19050
X-1.70300 Y-1.19150
X-1.70400 Y-1.19150
X-1.70400 Y-1.19250
X-1.70500 Y-1.19250
X-1.70500 Y-1.19550
X-1.70600 Y-1.19550
X-1.70600 Y-1.20050
X-1.70700 Y-1.20050
X-1.70700 Y-1.20550
X-1.70800 Y-1.20550
X-1.70800 Y-1.20950
X-1.70700 Y-1.20950
X-1.70700 Y-1.21450
X-1.70600 Y-1.21450
X-1.70600 Y-1.21950
X-1.70500 Y-1.21950
X-1.70500 Y-1.22250
X-1.70400 Y-1.22250
X-1.70400 Y-1.22350
X-1.70300 Y-1.22350
X-1.70300 Y-1.22450
X-1.70200 Y-1.22450
X-1.70200 Y-1.22650
X-1.70100 Y-1.22650
X-1.70100 Y-1.22750
X-1.70000 Y-1.22750
X-1.70000 Y-1.22850
X-1.69900 Y-1.22850
X-1.69900 Y-1.23050
X-1.69700 Y-1.23050
X-1.69700 Y-1.23150
X-1.69600 Y-1.23150
X-1.69600 Y-1.23250
X-1.69400 Y-1.23250
X-1.69400 Y-1.23350
X-1.69200 Y-1.23350
X-1.69200 Y-1.23450
X-1.69100 Y-1.23450
X-1.69100 Y-1.23550
X-1.68900 Y-1.23550
X-1.68900 Y-1.23650
X-1.68300 Y-1.23650
X-1.68300 Y-1.23750
X-1.67200 Y-1.23750
X-1.67200 Y-1.23650
X-1.66600 Y-1.23650
X-1.66600 Y-1.23550
X-1.66400 Y-1.23550
X-1.66400 Y-1.23450
X-1.66200 Y-1.23450
X-1.66200 Y-1.23350
X-1.66100 Y-1.23350
X-1.66100 Y-1.23250
X-1.65900 Y-1.23250
X-1.65900 Y-1.23150
X-1.65700 Y-1.23150
X-1.65700 Y-1.23050
X-1.65600 Y-1.23050
X-1.65600 Y-1.22950
X-1.65500 Y-1.22950
X-1.65500 Y-1.22850
X-1.65400 Y-1.22850
X-1.65400 Y-1.22650
X-1.65300 Y-1.22650
X-1.65300 Y-1.22550
X-1.65200 Y-1.22550
X-1.65200 Y-1.22350
X-1.65100 Y-1.22350
X-1.65100 Y-1.22250
X-1.65000 Y-1.22250
X-1.65000 Y-1.22150
X-1.64900 Y-1.22150
X-1.64900 Y-1.21650
X-1.64800 Y-1.21650
X-1.64800 Y-1.21150
X-1.64700 Y-1.21150
X-1.64700 Y-1.20350
X-1.64800 Y-1.20350
X-1.64800 Y-1.19850
X-1.64900 Y-1.19850
X-1.64900 Y-1.19350
X-1.65000 Y-1.19350
X-1.65000 Y-1.19250
X-1.65100 Y-1.19250
X-1.65100 Y-1.19050
X-1.65200 Y-1.19050
X-1.65200 Y-1.18950
X-1.65300 Y-1.18950
X-1.65300 Y-1.18850
X-1.65400 Y-1.18850
X-1.65400 Y-1.18650
X-1.65500 Y-1.18650
X-1.65500 Y-1.18550
X-1.65600 Y-1.18550
X-1.65600 Y-1.18450
X-1.65700 Y-1.18450
X-1.65700 Y-1.18350
X-1.65900 Y-1.18350
X-1.65900 Y-1.18250
X-1.66000 Y-1.18250
X-1.66000 Y-1.18150
X-1.66200 Y-1.18150
X-1.66200 Y-1.18050
X-1.66400 Y-1.18050
X-1.66400 Y-1.17950
X-1.66500 Y-1.17950
X-1.66500 Y-1.17850
X-1.67000 Y-1.17850
X-1.67000 Y-1.17750
X-1.67600 Y-1.17750
X-1.67600 Y-1.17650
X-1.67800 Y-1.17650
X-1.67800 Y-1.17750
G04 P0 ( dwell for no time -- G64 should not smooth over this point )
G00 Z0.19685 ( retract )

G00 X-1.77800 Y-1.17750 ( rapid move to begin. )
G01 Z-0.00394 F39.37008 ( plunge. )
G04 P0 ( dwell for no time -- G64 should not smooth over this point )
X-1.77800 Y-1.17750
X-1.78400 Y-1.17750
X-1.78400 Y-1.17850
X-1.78900 Y-1.17850
X-1.78900 Y-1.17950
X-1.79100 Y-1.17950
X-1.79100 Y-1.18050
X-1.79300 Y-1.18050
X-1.79300 Y-1.18150
X-1.79400 Y-1.18150
X-1.79400 Y-1.18250
X-1.79600 Y-1.18250
X-1.79600 Y-1.18350
X-1.79800 Y-1.18350
X-1.79800 Y-1.18450
X-1.79900 Y-1.18450
X-1.79900 Y-1.18550
X-1.80000 Y-1.18550
X-1.80000 Y-1.18750
X-1.80100 Y-1.18750
X-1.80100 Y-1.18850
X-1.80200 Y-1.18850
X-1.80200 Y-1.19050
X-1.80300 Y-1.19050
X-1.80300 Y-1.19150
X-1.80400 Y-1.19150
X-1.80400 Y-1.19250
X-1.80500 Y-1.19250
X-1.80500 Y-1.19550
X-1.80600 Y-1.19550
X-1.80600 Y-1.20050
X-1.80700 Y-1.20050
X-1.80700 Y-1.20550
X-1.80800 Y-1.20550
X-1.80800 Y-1.20950
X-1.80700 Y-1.20950
X-1.80700 Y-1.21450
X-1.80600 Y-1.21450
X-1.80600 Y-1.21950
X-1.80500 Y-1.21950
X-1.80500 Y-1.22250
X-1.80400 Y-1.22250
X-1.80400 Y-1.22350
X-1.80300 Y-1.22350
X-1.80300 Y-1.22450
X-1.80200 Y-1.22450
X-1.80200 Y-1.22650
X-1.80100 Y-1.22650
X-1.80100 Y-1.22750
X-1.80000 Y-1.22750
X-1.80000 Y-1.22850
X-1.79900 Y-1.22850
X-1.79900 Y-1.23050
X-1.79700 Y-1.23050
X-1.79700 Y-1.23150
X-1.79600 Y-1.23150
X-1.79600 Y-1.23250
X-1.79400 Y-1.23250
X-1.79400 Y-1.23350
X-1.79200 Y-1.23350
X-1.79200 Y-1.23450
X-1.79100 Y-1.23450
X-1.79100 Y-1.23550
X-1.78900 Y-1.23550
X-1.78900 Y-1.23650
X-1.78300 Y-1.23650
X-1.78300 Y-1.23750
X-1.77200 Y-1.23750
X-1.77200 Y-1.23650
X-1.76600 Y-1.23650
X-1.76600 Y-1.23550
X-1.76400 Y-1.23550
X-1.76400 Y-1.23450
X-1.76200 Y-1.23450
X-1.76200 Y-1.23350
X-1.76100 Y-1.23350
X-1.76100 Y-1.23250
X-1.75900 Y-1.23250
X-1.75900 Y-1.23150
X-1.75700 Y-1.23150
X-1.75700 Y-1.23050
X-1.75600 Y-1.23050
X-1.75600 Y-1.22950
X-1.75500 Y-1.22950
X-1.75500 Y-1.22850
X-1.75400 Y-1.22850
X-1.75400 Y-1.22650
X-1.75300 Y-1.22650
X-1.75300 Y-1.22550
X-1.75200 Y-1.22550
X-1.75200 Y-1.22350
X-1.75100 Y-1.22350
X-1.75100 Y-1.22250
X-1.75000 Y-1.22250
X-1.75000 Y-1.22150
X-1.74900 Y-1.22150
X-1.74900 Y-1.21650
X-1.74800 Y-1.21650
X-1.74800 Y-1.21150
X-1.74700 Y-1.21150
X-1.74700 Y-1.20350
X-1.74800 Y-1.20350
X-1.74800 Y-1.19850
X-1.74900 Y-1.19850
X-1.74900 Y-1.19350
X-1.75000 Y-1.19350
X-1.75000 Y-1.19250
X-1.75100 Y-1.19250
X-1.75100 Y-1.19050
X-1.75200 Y-1.19050
X-1.75200 Y-1.18950
X-1.75300 Y-1.18950
X-1.75300 Y-1.18850
X-1.75400 Y-1.18850
X-1.75400 Y-1.18650
X-1.75500 Y-1.18650
X-1.75500 Y-1.18550
X-1.75600 Y-1.18550
X-1.75600 Y-1.18450
X-1.75700 Y-1.18450
X-1.75700 Y-1.18350
X-1.75900 Y-1.18350
X-1.75900 Y-1.18250
X-1.76000 Y-1.18250
X-1.76000 Y-1.18150
X-1.76200 Y-1.18150
X-1.76200 Y-1.18050
X-1.76400 Y-1.18050
X-1.76400 Y-1.17950
X-1.76500 Y-1.17950
X-1.76500 Y-1.17850
X-1.77000 Y-1.17850
X-1.77000 Y-1.17750
X-1.77600 Y-1.17750
X-1.77600 Y-1.17650
X-1.77800 Y-1.17650
X-1.77800 Y-1.17750
G04 P0 ( dwell for no time -- G64 should not smooth over this point )
G00 Z0.19685 ( retract )

G00 X-1.87800 Y-1.17750 ( rapid move to begin. )
G01 Z-0.00394 F39.37008 ( plunge. )
G04 P0 ( dwell for no time -- G64 should not smooth over this point )
X-1.87800 Y-1.17750
X-1.88400 Y-1.17750
X-1.88400 Y-1.17850
X-1.88900 Y-1.17850
X-1.88900 Y-1.17950
X-1.89100 Y-1.17950
X-1.89100 Y-1.18050
X-1.89300 Y-1.18050
X-1.89300 Y-1.18150
X-1.89400 Y-1.18150
X-1.89400 Y-1.18250
X-1.89600 Y-1.18250
X-1.89600 Y-1.18350
X-1.89800 Y-1.18350
X-1.89800 Y-1.18450
X-1.89900 Y-1.18450
X-1.89900 Y-1.18550
X-1.90000 Y-1.18550
X-1.90000 Y-1.18750
X-1.90100 Y-1.18750
X-1.90100 Y-1.18850
X-1.90200 Y-1.18850
X-1.90200 Y-1.19050
X-1.90300 Y-1.19050
X-1.90300 Y-1.19150
X-1.90400 Y-1.19150
X-1.90400 Y-1.19250
X-1.90500 Y-1.19250
X-1.90500 Y-1.19550
X-1.90600 Y-1.19550
X-1.90600 Y-1.20050
X-1.90700 Y-1.20050
X-1.90700 Y-1.20550
X-1.90800 Y-1.20550
X-1.90800 Y-1.20950
X-1.90700 Y-1.20950
X-1.90700 Y-1.21450
X-1.90600 Y-1.21450
X-1.90600 Y-1.21950
X-1.90500 Y-1.21950
X-1.90500 Y-1.22250
X-1.90400 Y-1.22250
X-1.90400 Y-1.22350
X-1.90300 Y-1.22350
X-1.90300 Y-1.22450
X-1.90200 Y-1.22450
X-1.90200 Y-1.22650
X-1.90100 Y-1.22650
X-1.90100 Y-1.22750
X-1.90000 Y-1.22750
X-1.90000 Y-1.22850
X-1.89900 Y-1.22850
X-1.89900 Y-1.23050
X-1.89700 Y-1.23050
X-1.89700 Y-1.23150
X-1.89600 Y-1.23150
X-1.89600 Y-1.23250
X-1.89400 Y-1.23250
X-1.89400 Y-1.23350
X-1.89200 Y-1.23350
X-1.89200 Y-1.23450
X-1.89100 Y-1.23450
X-1.89100 Y-1.23550
X-1.88900 Y-1.23550
X-1.88900 Y-1.23650
X-1.88300 Y-1.23650
X-1.88300 Y-1.23750
X-1.87200 Y-1.23750
X-1.87200 Y-1.23650
X-1.86600 Y-1.23650
X-1.86600 Y-1.23550
X-1.86400 Y-1.23550
X-1.86400 Y-1.23450
X-1.86200 Y-1.23450
X-1.86200 Y-1.23350
X-1.86100 Y-1.23350
X-1.86100 Y-1.23250
X-1.85900 Y-1.23250
X-1.85900 Y-1.23150
X-1.85700 Y-1.23150
X-1.85700 Y-1.23050
X-1.85600 Y-1.23050
X-1.85600 Y-1.22950
X-1.85500 Y-1.22950
X-1.85500 Y-1.22850
X-1.85400 Y-1.22850
X-1.85400 Y-1.22650
X-1.85300 Y-1.22650
X-1.85300 Y-1.22550
X-1.85200 Y-1.22550
X-1.85200 Y-1.22350
X-1.85100 Y-1.22350
X-1.85100 Y-1.22250
X-1.85000 Y-1.22250
X-1.85000 Y-1.22150
X-1.84900 Y-1.22150
X-1.84900 Y-1.21650
X-1.84800 Y-1.21650
X-1.84800 Y-1.21150
X-1.84700 Y-1.21150
X-1.84700 Y-1.20350
X-1.84800 Y-1.20350
X-1.84800 Y-1.19850
X-1.84900 Y-1.19850
X-1.84900 Y-1.19350
X-1.85000 Y-1.19350
X-1.85000 Y-1.19250
X-1.85100 Y-1.19250
X-1.85100 Y-1.19050
X-1.85200 Y-1.19050
X-1.85200 Y-1.18950
X-1.85300 Y-1.18950
X-1.85300 Y-1.18850
X-1.85400 Y-1.18850
X-1.85400 Y-1.18650
X-1.85500 Y-1.18650
X-1.85500 Y-1.18550
X-1.85600 Y-1.18550
X-1.85600 Y-1.18450
X-1.85700 Y-1.18450
X-1.85700 Y-1.18350
X-1.85900 Y-1.18350
X-1.85900 Y-1.18250
X-1.86000 Y-1.18250
X-1.86000 Y-1.18150
X-1.86200 Y-1.18150
X-1.86200 Y-1.18050
X-1.86400 Y-1.18050
X-1.86400 Y-1.17950
X-1.86500 Y-1.17950
X-1.86500 Y-1.17850
X-1.87000 Y-1.17850
X-1.87000 Y-1.17750
X-1.87600 Y-1.17750
X-1.87600 Y-1.17650
X-1.87800 Y-1.17650
X-1.87800 Y-1.17750
G04 P0 ( dwell for no time -- G64 should not smooth over this point )
G00 Z0.19685 ( retract )

G00 X-1.97800 Y-1.17750 ( rapid move to begin. )
G01 Z-0.00394 F39.37008 ( plunge. )
G04 P0 ( dwell for no time -- G64 should not smooth over this point )
X-1.97800 Y-1.17750
X-1.98400 Y-1.17750
X-1.98400 Y-1.17850
X-1.98900 Y-1.17850
X-1.98900 Y-1.17950
X-1.99100 Y-1.17950
X-1.99100 Y-1.18050
X-1.99300 Y-1.18050
X-1.99300 Y-1.18150
X-1.99400 Y-1.18150
X-1.99400 Y-1.18250
X-1.99600 Y-1.18250
X-1.99600 Y-1.18350
X-1.99800 Y-1.18350
X-1.99800 Y-1.18450
X-1.99900 Y-1.18450
X-1.99900 Y-1.18550
X-2.00000 Y-1.18550
X-2.00000 Y-1.18750
X-2.00100 Y-1.18750
X-2.00100 Y-1.18850
X-2.00200 Y-1.18850
X-2.00200 Y-1.19050
X-2.00300 Y-1.19050
X-2.00300 Y-1.19150
X-2.00400 Y-1.19150
X-2.00400 Y-1.19250
X-2.00500 Y-1.19250
X-2.00500 Y-1.19550
X-2.00600 Y-1.19550
X-2.00600 Y-1.20050
X-2.00700 Y-1.20050
X-2.00700 Y-1.20550
X-2.00800 Y-1.20550
X-2.00800 Y-1.20950
X-2.00700 Y-1.20950
X-2.00700 Y-1.21450
X-2.00600 Y-1.21450
X-2.00600 Y-1.21950
X-2.00500 Y-1.21950
X-2.00500 Y-1.22250
X-2.00400 Y-1.22250
X-2.00400 Y-1.22350
X-2.00300 Y-1.22350
X-2.00300 Y-1.22450
X-2.00200 Y-1.22450
X-2.00200 Y-1.22650
X-2.00100 Y-1.22650
X-2.00100 Y-1.22750
X-2.00000 Y-1.22750
X-2.00000 Y-1.22850
X-1.99900 Y-1.22850
X-1.99900 Y-1.23050
X-1.99700 Y-1.23050
X-1.99700 Y-1.23150
X-1.99600 Y-1.23150
X-1.99600 Y-1.23250
X-1.99400 Y-1.23250
X-1.99400 Y-1.23350
X-1.99200 Y-1.23350
X-1.99200 Y-1.23450
X-1.99100 Y-1.23450
X-1.99100 Y-1.23550
X-1.98900 Y-1.23550
X-1.98900 Y-1.23650
X-1.98300 Y-1.23650
X-1.98300 Y-1.23750
X-1.97200 Y-1.23750
X-1.97200 Y-1.23650
X-1.96600 Y-1.23650
X-1.96600 Y-1.23550
X-1.96400 Y-1.23550
X-1.96400 Y-1.23450
X-1.96200 Y-1.23450
X-1.96200 Y-1.23350
X-1.96100 Y-1.23350
X-1.96100 Y-1.23250
X-1.95900 Y-1.23250
X-1.95900 Y-1.23150
X-1.95700 Y-1.23150
X-1.95700 Y-1.23050
X-1.95600 Y-1.23050
X-1.95600 Y-1.22950
X-1.95500 Y-1.22950
X-1.95500 Y-1.22850
X-1.95400 Y-1.22850
X-1.95400 Y-1.22650
X-1.95300 Y-1.22650
X-1.95300 Y-1.22550
X-1.95200 Y-1.22550
X-1.95200 Y-1.22350
X-1.95100 Y-1.22350
X-1.95100 Y-1.22250
X-1.95000 Y-1.22250
X-1.95000 Y-1.22150
X-1.94900 Y-1.22150
X-1.94900 Y-1.21650
X-1.94800 Y-1.21650
X-1.94800 Y-1.21150
X-1.94700 Y-1.21150
X-1.94700 Y-1.20350
X-1.94800 Y-1.20350
X-1.94800 Y-1.19850
X-1.94900 Y-1.19850
X-1.94900 Y-1.19350
X-1.95000 Y-1.19350
X-1.95000 Y-1.19250
X-1.95100 Y-1.19250
X-1.95100 Y-1.19050
X-1.95200 Y-1.19050
X-1.95200 Y-1.18950
X-1.95300 Y-1.18950
X-1.95300 Y-1.18850
X-1.95400 Y-1.18850
X-1.95400 Y-1.18650
X-1.95500 Y-1.18650
X-1.95500 Y-1.18550
X-1.95600 Y-1.18550
X-1.95600 Y-1.18450
X-1.95700 Y-1.18450
X-1.95700 Y-1.18350
X-1.95900 Y-1.18350
X-1.95900 Y-1.18250
X-1.96000 Y-1.18250
X-1.96000 Y-1.18150
X-1.96200 Y-1.18150
X-1.96200 Y-1.18050
X-1.96400 Y-1.18050
X-1.96400 Y-1.17950
X-1.96500 Y-1.17950
X-1.96500 Y-1.17850
X-1.97000 Y-1.17850
X-1.97000 Y-1.17750
X-1.97600 Y-1.17750
X-1.97600 Y-1.17650
X-1.97800 Y-1.17650
X-1.97800 Y-1.17750

G04 P0 ( dwell for no time -- G64 should not smooth over this point )
G00 Z0.19685 ( retract )

M9 ( Coolant off. )
M2 ( Program end. )

