( pcb2gcode 1.1.4 )

G94     ( Inches per minute feed rate. )
G20     ( Units == INCHES.             )
G90     ( Absolute coordinates.        )
S30000  ( RPM spindle speed.           )
M3      ( Spindle on clockwise.        )

G64 P0.00500 ( set maximum deviation from commanded toolpath )

G04 P0 ( dwell for no time -- G64 should not smooth over this point )
G00 Z0.19685 ( retract )

G00 X2.27300 Y-0.64150 ( rapid move to begin. )
G01 Z-0.00394 F39.37008 ( plunge. )
G04 P0 ( dwell for no time -- G64 should not smooth over this point )
X2.27300 Y-0.64150
X2.27300 Y-0.64250
X2.27400 Y-0.64250
X2.27400 Y-0.64450
X2.27500 Y-0.64450
X2.27500 Y-0.67150
X2.27600 Y-0.67150
X2.27600 Y-0.72550
X2.27700 Y-0.72550
X2.27700 Y-0.77850
X2.27800 Y-0.77850
X2.27800 Y-0.83250
X2.27900 Y-0.83250
X2.27900 Y-0.88650
X2.28000 Y-0.88650
X2.28000 Y-0.93950
X2.28100 Y-0.93950
X2.28100 Y-0.99350
X2.28200 Y-0.99350
X2.28200 Y-1.04750
X2.28300 Y-1.04750
X2.28300 Y-1.10050
X2.28400 Y-1.10050
X2.28400 Y-1.15450
X2.28500 Y-1.15450
X2.28500 Y-1.20750
X2.28600 Y-1.20750
X2.28600 Y-1.26150
X2.28700 Y-1.26150
X2.28700 Y-1.31550
X2.28800 Y-1.31550
X2.28800 Y-1.36850
X2.28900 Y-1.36850
X2.28900 Y-1.42250
X2.29000 Y-1.42250
X2.29000 Y-1.47550
X2.29100 Y-1.47550
X2.29100 Y-1.52950
X2.29200 Y-1.52950
X2.29200 Y-1.58350
X2.29300 Y-1.58350
X2.29300 Y-1.63650
X2.29400 Y-1.63650
X2.29400 Y-1.69050
X2.29500 Y-1.69050
X2.29500 Y-1.74450
X2.29600 Y-1.74450
X2.29600 Y-1.79750
X2.29700 Y-1.79750
X2.29700 Y-1.85150
X2.29800 Y-1.85150
X2.29800 Y-1.90450
X2.29900 Y-1.90450
X2.29900 Y-1.95850
X2.30000 Y-1.95850
X2.30000 Y-1.98150
X2.29900 Y-1.98150
X2.29900 Y-1.98350
X2.29800 Y-1.98350
X2.29800 Y-1.98550
X2.29500 Y-1.98550
X2.29500 Y-1.98650
X2.18700 Y-1.98650
X2.18700 Y-1.98750
X2.07800 Y-1.98750
X2.07800 Y-1.98850
X1.97000 Y-1.98850
X1.97000 Y-1.98950
X1.86200 Y-1.98950
X1.86200 Y-1.99050
X1.75300 Y-1.99050
X1.75300 Y-1.99150
X1.64500 Y-1.99150
X1.64500 Y-1.99250
X1.53700 Y-1.99250
X1.53700 Y-1.99350
X1.42800 Y-1.99350
X1.42800 Y-1.99450
X1.37300 Y-1.99450
X1.37300 Y-1.99350
X1.37000 Y-1.99350
X1.37000 Y-1.99250
X1.36900 Y-1.99250
X1.36900 Y-1.99050
X1.36800 Y-1.99050
X1.36800 Y-1.98750
X1.36900 Y-1.98750
X1.36900 Y-1.98550
X1.37000 Y-1.98550
X1.37000 Y-1.98450
X1.37100 Y-1.98450
X1.37100 Y-1.98350
X1.37200 Y-1.98350
X1.37200 Y-1.98250
X1.37300 Y-1.98250
X1.37300 Y-1.98150
X1.37500 Y-1.98150
X1.37500 Y-1.98050
X1.37600 Y-1.98050
X1.37600 Y-1.97950
X1.37800 Y-1.97950
X1.37800 Y-1.97850
X1.37900 Y-1.97850
X1.37900 Y-1.97750
X1.38000 Y-1.97750
X1.38000 Y-1.97650
X1.38200 Y-1.97650
X1.38200 Y-1.97550
X1.38300 Y-1.97550
X1.38300 Y-1.97450
X1.38400 Y-1.97450
X1.38400 Y-1.97350
X1.38600 Y-1.97350
X1.38600 Y-1.97250
X1.38700 Y-1.97250
X1.38700 Y-1.97150
X1.38900 Y-1.97150
X1.38900 Y-1.97050
X1.39000 Y-1.97050
X1.39000 Y-1.96950
X1.39100 Y-1.96950
X1.39100 Y-1.96850
X1.39300 Y-1.96850
X1.39300 Y-1.96750
X1.39400 Y-1.96750
X1.39400 Y-1.96650
X1.39500 Y-1.96650
X1.39500 Y-1.96550
X1.39700 Y-1.96550
X1.39700 Y-1.96450
X1.39800 Y-1.96450
X1.39800 Y-1.96350
X1.40000 Y-1.96350
X1.40000 Y-1.96250
X1.40100 Y-1.96250
X1.40100 Y-1.96150
X1.40200 Y-1.96150
X1.40200 Y-1.96050
X1.40400 Y-1.96050
X1.40400 Y-1.95950
X1.40500 Y-1.95950
X1.40500 Y-1.95850
X1.40700 Y-1.95850
X1.40700 Y-1.95750
X1.40800 Y-1.95750
X1.40800 Y-1.95650
X1.40900 Y-1.95650
X1.40900 Y-1.95550
X1.41100 Y-1.95550
X1.41100 Y-1.95450
X1.41200 Y-1.95450
X1.41200 Y-1.95350
X1.41300 Y-1.95350
X1.41300 Y-1.95250
X1.41500 Y-1.95250
X1.41500 Y-1.95150
X1.41600 Y-1.95150
X1.41600 Y-1.95050
X1.41800 Y-1.95050
X1.41800 Y-1.94950
X1.41900 Y-1.94950
X1.41900 Y-1.94850
X1.42000 Y-1.94850
X1.42000 Y-1.94750
X1.42200 Y-1.94750
X1.42200 Y-1.94650
X1.42300 Y-1.94650
X1.42300 Y-1.94550
X1.42400 Y-1.94550
X1.42400 Y-1.94450
X1.42600 Y-1.94450
X1.42600 Y-1.94350
X1.42700 Y-1.94350
X1.42700 Y-1.94250
X1.42900 Y-1.94250
X1.42900 Y-1.94150
X1.43000 Y-1.94150
X1.43000 Y-1.94050
X1.43100 Y-1.94050
X1.43100 Y-1.93950
X1.43300 Y-1.93950
X1.43300 Y-1.93850
X1.43400 Y-1.93850
X1.43400 Y-1.93750
X1.43500 Y-1.93750
X1.43500 Y-1.93650
X1.43700 Y-1.93650
X1.43700 Y-1.93550
X1.43800 Y-1.93550
X1.43800 Y-1.93450
X1.44000 Y-1.93450
X1.44000 Y-1.93350
X1.44100 Y-1.93350
X1.44100 Y-1.93250
X1.44200 Y-1.93250
X1.44200 Y-1.93150
X1.44400 Y-1.93150
X1.44400 Y-1.93050
X1.44500 Y-1.93050
X1.44500 Y-1.92950
X1.44700 Y-1.92950
X1.44700 Y-1.92850
X1.44800 Y-1.92850
X1.44800 Y-1.92750
X1.44900 Y-1.92750
X1.44900 Y-1.92650
X1.45000 Y-1.92650
X1.45000 Y-1.92550
X1.45100 Y-1.92550
X1.45100 Y-1.92450
X1.45200 Y-1.92450
X1.45200 Y-1.92350
X1.45300 Y-1.92350
X1.45300 Y-1.92250
X1.45400 Y-1.92250
X1.45400 Y-1.92150
X1.45500 Y-1.92150
X1.45500 Y-1.92050
X1.45600 Y-1.92050
X1.45600 Y-1.91950
X1.45700 Y-1.91950
X1.45700 Y-1.91850
X1.45800 Y-1.91850
X1.45800 Y-1.91750
X1.45900 Y-1.91750
X1.45900 Y-1.91650
X1.46000 Y-1.91650
X1.46000 Y-1.91550
X1.46100 Y-1.91550
X1.46100 Y-1.91450
X1.46200 Y-1.91450
X1.46200 Y-1.91350
X1.46300 Y-1.91350
X1.46300 Y-1.91150
X1.46400 Y-1.91150
X1.46400 Y-1.90950
X1.46500 Y-1.90950
X1.46500 Y-1.90650
X1.46600 Y-1.90650
X1.46600 Y-1.90350
X1.46700 Y-1.90350
X1.46700 Y-1.90150
X1.46800 Y-1.90150
X1.46800 Y-1.89850
X1.46900 Y-1.89850
X1.46900 Y-1.89550
X1.47000 Y-1.89550
X1.47000 Y-1.87050
X1.47100 Y-1.87050
X1.47100 Y-1.86650
X1.47200 Y-1.86650
X1.47200 Y-1.86350
X1.47300 Y-1.86350
X1.47300 Y-1.85950
X1.47400 Y-1.85950
X1.47400 Y-1.85550
X1.47500 Y-1.85550
X1.47500 Y-1.85250
X1.47600 Y-1.85250
X1.47600 Y-1.84850
X1.47700 Y-1.84850
X1.47700 Y-1.84450
X1.47800 Y-1.84450
X1.47800 Y-1.84150
X1.47900 Y-1.84150
X1.47900 Y-1.83750
X1.48000 Y-1.83750
X1.48000 Y-1.83350
X1.48100 Y-1.83350
X1.48100 Y-1.82950
X1.48200 Y-1.82950
X1.48200 Y-1.82650
X1.48300 Y-1.82650
X1.48300 Y-1.82250
X1.48400 Y-1.82250
X1.48400 Y-1.81850
X1.48500 Y-1.81850
X1.48500 Y-1.81750
X1.48600 Y-1.81750
X1.48600 Y-1.81650
X1.48700 Y-1.81650
X1.48700 Y-1.81550
X1.49400 Y-1.81550
X1.49400 Y-1.81650
X1.49500 Y-1.81650
X1.49500 Y-1.81750
X1.50000 Y-1.81750
X1.50000 Y-1.81850
X1.50500 Y-1.81850
X1.50500 Y-1.81950
X1.51000 Y-1.81950
X1.51000 Y-1.82050
X1.78700 Y-1.82050
X1.78700 Y-1.81950
X1.79100 Y-1.81950
X1.79100 Y-1.81850
X1.79600 Y-1.81850
X1.79600 Y-1.81750
X1.80200 Y-1.81750
X1.80200 Y-1.81650
X1.80300 Y-1.81650
X1.80300 Y-1.81550
X1.80500 Y-1.81550
X1.80500 Y-1.81450
X1.80600 Y-1.81450
X1.80600 Y-1.81350
X1.80700 Y-1.81350
X1.80700 Y-1.81250
X1.80900 Y-1.81250
X1.80900 Y-1.81150
X1.81000 Y-1.81150
X1.81000 Y-1.81050
X1.81200 Y-1.81050
X1.81200 Y-1.80950
X1.81300 Y-1.80950
X1.81300 Y-1.80850
X1.81500 Y-1.80850
X1.81500 Y-1.80750
X1.81600 Y-1.80750
X1.81600 Y-1.80650
X1.81800 Y-1.80650
X1.81800 Y-1.80550
X1.81900 Y-1.80550
X1.81900 Y-1.80450
X1.82000 Y-1.80450
X1.82000 Y-1.80350
X1.82100 Y-1.80350
X1.82100 Y-1.80250
X1.82200 Y-1.80250
X1.82200 Y-1.80150
X1.82300 Y-1.80150
X1.82300 Y-1.80050
X1.82400 Y-1.80050
X1.82400 Y-1.79950
X1.82500 Y-1.79950
X1.82500 Y-1.79850
X1.82600 Y-1.79850
X1.82600 Y-1.79750
X1.82700 Y-1.79750
X1.82700 Y-1.79650
X1.82800 Y-1.79650
X1.82800 Y-1.79550
X1.82900 Y-1.79550
X1.82900 Y-1.79450
X1.83000 Y-1.79450
X1.83000 Y-1.79350
X1.83100 Y-1.79350
X1.83100 Y-1.79250
X1.83200 Y-1.79250
X1.83200 Y-1.79150
X1.83300 Y-1.79150
X1.83300 Y-1.79050
X1.83400 Y-1.79050
X1.83400 Y-1.78950
X1.83500 Y-1.78950
X1.83500 Y-1.78850
X1.83600 Y-1.78850
X1.83600 Y-1.78750
X1.83700 Y-1.78750
X1.83700 Y-1.78550
X1.83800 Y-1.78550
X1.83800 Y-1.78450
X1.83900 Y-1.78450
X1.83900 Y-1.78350
X1.84000 Y-1.78350
X1.84000 Y-1.78250
X1.84100 Y-1.78250
X1.84100 Y-1.78150
X1.84200 Y-1.78150
X1.84200 Y-1.78050
X1.84300 Y-1.78050
X1.84300 Y-1.77950
X1.84400 Y-1.77950
X1.84400 Y-1.77850
X1.84500 Y-1.77850
X1.84500 Y-1.77750
X1.84600 Y-1.77750
X1.84600 Y-1.77650
X1.84700 Y-1.77650
X1.84700 Y-1.77550
X1.84800 Y-1.77550
X1.84800 Y-1.77450
X1.84900 Y-1.77450
X1.84900 Y-1.77350
X1.85000 Y-1.77350
X1.85000 Y-1.77250
X1.85100 Y-1.77250
X1.85100 Y-1.77150
X1.85200 Y-1.77150
X1.85200 Y-1.77050
X1.85300 Y-1.77050
X1.85300 Y-1.76950
X1.85400 Y-1.76950
X1.85400 Y-1.76850
X1.85500 Y-1.76850
X1.85500 Y-1.76750
X1.85600 Y-1.76750
X1.85600 Y-1.76650
X1.85700 Y-1.76650
X1.85700 Y-1.76550
X1.85800 Y-1.76550
X1.85800 Y-1.76450
X1.85900 Y-1.76450
X1.85900 Y-1.76350
X1.86000 Y-1.76350
X1.86000 Y-1.76250
X1.86100 Y-1.76250
X1.86100 Y-1.76150
X1.86200 Y-1.76150
X1.86200 Y-1.76050
X1.86300 Y-1.76050
X1.86300 Y-1.75950
X1.86400 Y-1.75950
X1.86400 Y-1.75850
X1.86500 Y-1.75850
X1.86500 Y-1.75750
X1.86600 Y-1.75750
X1.86600 Y-1.75650
X1.86700 Y-1.75650
X1.86700 Y-1.75550
X1.86800 Y-1.75550
X1.86800 Y-1.75450
X1.86900 Y-1.75450
X1.86900 Y-1.75350
X1.87000 Y-1.75350
X1.87000 Y-1.75250
X1.87100 Y-1.75250
X1.87100 Y-1.75150
X1.87200 Y-1.75150
X1.87200 Y-1.75050
X1.87300 Y-1.75050
X1.87300 Y-1.74950
X1.87400 Y-1.74950
X1.87400 Y-1.74850
X1.87500 Y-1.74850
X1.87500 Y-1.74750
X1.87600 Y-1.74750
X1.87600 Y-1.74650
X1.87700 Y-1.74650
X1.87700 Y-1.74550
X1.87800 Y-1.74550
X1.87800 Y-1.74450
X1.87900 Y-1.74450
X1.87900 Y-1.74350
X1.88000 Y-1.74350
X1.88000 Y-1.74250
X1.88100 Y-1.74250
X1.88100 Y-1.74150
X1.88200 Y-1.74150
X1.88200 Y-1.74050
X1.88300 Y-1.74050
X1.88300 Y-1.73950
X1.88400 Y-1.73950
X1.88400 Y-1.73850
X1.88500 Y-1.73850
X1.88500 Y-1.73750
X1.88600 Y-1.73750
X1.88600 Y-1.73650
X1.88700 Y-1.73650
X1.88700 Y-1.73550
X1.88800 Y-1.73550
X1.88800 Y-1.73450
X1.88900 Y-1.73450
X1.88900 Y-1.73350
X1.89000 Y-1.73350
X1.89000 Y-1.73250
X1.89100 Y-1.73250
X1.89100 Y-1.73150
X1.89200 Y-1.73150
X1.89200 Y-1.73050
X1.89300 Y-1.73050
X1.89300 Y-1.72950
X1.89400 Y-1.72950
X1.89400 Y-1.72750
X1.89500 Y-1.72750
X1.89500 Y-1.72650
X1.89600 Y-1.72650
X1.89600 Y-1.72550
X1.89700 Y-1.72550
X1.89700 Y-1.72450
X1.89800 Y-1.72450
X1.89800 Y-1.72350
X1.89900 Y-1.72350
X1.89900 Y-1.72250
X1.90000 Y-1.72250
X1.90000 Y-1.72150
X1.90100 Y-1.72150
X1.90100 Y-1.72050
X1.90200 Y-1.72050
X1.90200 Y-1.71950
X1.90300 Y-1.71950
X1.90300 Y-1.71850
X1.90400 Y-1.71850
X1.90400 Y-1.71750
X1.90500 Y-1.71750
X1.90500 Y-1.71650
X1.90600 Y-1.71650
X1.90600 Y-1.71550
X1.90700 Y-1.71550
X1.90700 Y-1.71450
X1.90800 Y-1.71450
X1.90800 Y-1.71350
X1.90900 Y-1.71350
X1.90900 Y-1.71250
X1.91000 Y-1.71250
X1.91000 Y-1.71150
X1.91100 Y-1.71150
X1.91100 Y-1.71050
X1.91200 Y-1.71050
X1.91200 Y-1.70950
X1.91300 Y-1.70950
X1.91300 Y-1.70850
X1.91400 Y-1.70850
X1.91400 Y-1.70750
X1.91500 Y-1.70750
X1.91500 Y-1.70650
X1.91600 Y-1.70650
X1.91600 Y-1.70550
X1.91700 Y-1.70550
X1.91700 Y-1.70450
X1.91800 Y-1.70450
X1.91800 Y-1.70350
X1.91900 Y-1.70350
X1.91900 Y-1.70250
X1.92000 Y-1.70250
X1.92000 Y-1.70150
X1.92100 Y-1.70150
X1.92100 Y-1.70050
X1.92200 Y-1.70050
X1.92200 Y-1.69950
X1.92300 Y-1.69950
X1.92300 Y-1.69850
X1.92400 Y-1.69850
X1.92400 Y-1.69750
X1.92500 Y-1.69750
X1.92500 Y-1.69650
X1.92600 Y-1.69650
X1.92600 Y-1.69550
X1.92700 Y-1.69550
X1.92700 Y-1.69450
X1.92800 Y-1.69450
X1.92800 Y-1.69350
X1.92900 Y-1.69350
X1.92900 Y-1.69250
X1.93000 Y-1.69250
X1.93000 Y-1.69150
X1.93100 Y-1.69150
X1.93100 Y-1.69050
X1.93200 Y-1.69050
X1.93200 Y-1.68950
X1.93300 Y-1.68950
X1.93300 Y-1.68850
X1.93400 Y-1.68850
X1.93400 Y-1.68750
X1.93500 Y-1.68750
X1.93500 Y-1.68650
X1.93600 Y-1.68650
X1.93600 Y-1.68550
X1.93700 Y-1.68550
X1.93700 Y-1.68450
X1.93800 Y-1.68450
X1.93800 Y-1.68350
X1.93900 Y-1.68350
X1.93900 Y-1.68250
X1.94000 Y-1.68250
X1.94000 Y-1.68150
X1.94100 Y-1.68150
X1.94100 Y-1.68050
X1.94200 Y-1.68050
X1.94200 Y-1.67950
X1.94300 Y-1.67950
X1.94300 Y-1.67850
X1.94400 Y-1.67850
X1.94400 Y-1.67750
X1.94500 Y-1.67750
X1.94500 Y-1.67650
X1.94600 Y-1.67650
X1.94600 Y-1.67550
X1.94700 Y-1.67550
X1.94700 Y-1.67450
X1.94800 Y-1.67450
X1.94800 Y-1.67350
X1.94900 Y-1.67350
X1.94900 Y-1.67250
X1.95000 Y-1.67250
X1.95000 Y-1.67150
X1.95100 Y-1.67150
X1.95100 Y-1.66950
X1.95200 Y-1.66950
X1.95200 Y-1.66850
X1.95300 Y-1.66850
X1.95300 Y-1.66750
X1.95400 Y-1.66750
X1.95400 Y-1.66650
X1.95500 Y-1.66650
X1.95500 Y-1.66550
X1.95600 Y-1.66550
X1.95600 Y-1.66450
X1.95700 Y-1.66450
X1.95700 Y-1.66350
X1.95800 Y-1.66350
X1.95800 Y-1.66250
X1.95900 Y-1.66250
X1.95900 Y-1.66150
X1.96000 Y-1.66150
X1.96000 Y-1.66050
X1.96100 Y-1.66050
X1.96100 Y-1.65950
X1.96200 Y-1.65950
X1.96200 Y-1.65850
X1.96300 Y-1.65850
X1.96300 Y-1.65750
X1.96400 Y-1.65750
X1.96400 Y-1.65650
X1.96500 Y-1.65650
X1.96500 Y-1.65550
X1.96600 Y-1.65550
X1.96600 Y-1.65450
X1.96700 Y-1.65450
X1.96700 Y-1.65350
X1.96800 Y-1.65350
X1.96800 Y-1.65250
X1.96900 Y-1.65250
X1.96900 Y-1.65150
X1.97000 Y-1.65150
X1.97000 Y-1.65050
X1.97100 Y-1.65050
X1.97100 Y-1.64950
X1.97200 Y-1.64950
X1.97200 Y-1.64850
X1.97300 Y-1.64850
X1.97300 Y-1.64750
X1.97400 Y-1.64750
X1.97400 Y-1.64650
X1.97500 Y-1.64650
X1.97500 Y-1.64550
X1.97600 Y-1.64550
X1.97600 Y-1.64450
X1.97700 Y-1.64450
X1.97700 Y-1.64350
X1.97800 Y-1.64350
X1.97800 Y-1.64250
X1.97900 Y-1.64250
X1.97900 Y-1.64150
X1.98000 Y-1.64150
X1.98000 Y-1.64050
X1.98100 Y-1.64050
X1.98100 Y-1.63950
X1.98200 Y-1.63950
X1.98200 Y-1.63850
X1.98300 Y-1.63850
X1.98300 Y-1.63750
X1.98400 Y-1.63750
X1.98400 Y-1.63650
X1.98500 Y-1.63650
X1.98500 Y-1.63550
X1.98600 Y-1.63550
X1.98600 Y-1.63450
X1.98700 Y-1.63450
X1.98700 Y-1.63350
X1.98800 Y-1.63350
X1.98800 Y-1.63250
X1.98900 Y-1.63250
X1.98900 Y-1.63150
X1.99000 Y-1.63150
X1.99000 Y-1.63050
X1.99100 Y-1.63050
X1.99100 Y-1.62950
X1.99200 Y-1.62950
X1.99200 Y-1.62850
X1.99300 Y-1.62850
X1.99300 Y-1.62750
X1.99400 Y-1.62750
X1.99400 Y-1.62650
X1.99500 Y-1.62650
X1.99500 Y-1.62550
X1.99600 Y-1.62550
X1.99600 Y-1.62450
X1.99700 Y-1.62450
X1.99700 Y-1.62350
X1.99800 Y-1.62350
X1.99800 Y-1.62250
X1.99900 Y-1.62250
X1.99900 Y-1.62150
X2.00000 Y-1.62150
X2.00000 Y-1.62050
X2.00100 Y-1.62050
X2.00100 Y-1.61950
X2.00200 Y-1.61950
X2.00200 Y-1.61850
X2.00300 Y-1.61850
X2.00300 Y-1.61750
X2.00400 Y-1.61750
X2.00400 Y-1.61650
X2.00500 Y-1.61650
X2.00500 Y-1.61550
X2.00600 Y-1.61550
X2.00600 Y-1.61450
X2.00700 Y-1.61450
X2.00700 Y-1.61350
X2.00800 Y-1.61350
X2.00800 Y-1.61150
X2.00900 Y-1.61150
X2.00900 Y-1.61050
X2.01000 Y-1.61050
X2.01000 Y-1.60950
X2.01100 Y-1.60950
X2.01100 Y-1.60850
X2.01200 Y-1.60850
X2.01200 Y-1.60750
X2.01300 Y-1.60750
X2.01300 Y-1.60650
X2.01400 Y-1.60650
X2.01400 Y-1.60550
X2.01500 Y-1.60550
X2.01500 Y-1.60450
X2.01600 Y-1.60450
X2.01600 Y-1.60350
X2.01700 Y-1.60350
X2.01700 Y-1.60250
X2.01800 Y-1.60250
X2.01800 Y-1.60150
X2.01900 Y-1.60150
X2.01900 Y-1.60050
X2.02000 Y-1.60050
X2.02000 Y-1.59950
X2.02100 Y-1.59950
X2.02100 Y-1.59850
X2.02200 Y-1.59850
X2.02200 Y-1.59750
X2.02300 Y-1.59750
X2.02300 Y-1.59650
X2.02400 Y-1.59650
X2.02400 Y-1.59550
X2.02500 Y-1.59550
X2.02500 Y-1.59450
X2.02600 Y-1.59450
X2.02600 Y-1.59350
X2.02700 Y-1.59350
X2.02700 Y-1.59250
X2.02800 Y-1.59250
X2.02800 Y-1.59150
X2.02900 Y-1.59150
X2.02900 Y-1.59050
X2.03000 Y-1.59050
X2.03000 Y-1.58950
X2.03100 Y-1.58950
X2.03100 Y-1.58850
X2.03200 Y-1.58850
X2.03200 Y-1.58750
X2.03300 Y-1.58750
X2.03300 Y-1.58650
X2.03400 Y-1.58650
X2.03400 Y-1.58550
X2.03500 Y-1.58550
X2.03500 Y-1.58450
X2.03600 Y-1.58450
X2.03600 Y-1.58350
X2.03700 Y-1.58350
X2.03700 Y-1.58250
X2.03800 Y-1.58250
X2.03800 Y-1.58150
X2.03900 Y-1.58150
X2.03900 Y-1.58050
X2.04000 Y-1.58050
X2.04000 Y-1.57950
X2.04100 Y-1.57950
X2.04100 Y-1.57850
X2.04200 Y-1.57850
X2.04200 Y-1.57750
X2.04300 Y-1.57750
X2.04300 Y-1.57650
X2.04400 Y-1.57650
X2.04400 Y-1.57550
X2.04500 Y-1.57550
X2.04500 Y-1.57450
X2.04600 Y-1.57450
X2.04600 Y-1.57350
X2.04700 Y-1.57350
X2.04700 Y-1.57250
X2.04800 Y-1.57250
X2.04800 Y-1.57150
X2.04900 Y-1.57150
X2.04900 Y-1.57050
X2.05000 Y-1.57050
X2.05000 Y-1.56950
X2.05100 Y-1.56950
X2.05100 Y-1.56850
X2.05200 Y-1.56850
X2.05200 Y-1.56750
X2.05300 Y-1.56750
X2.05300 Y-1.56650
X2.05400 Y-1.56650
X2.05400 Y-1.56550
X2.05500 Y-1.56550
X2.05500 Y-1.56450
X2.05600 Y-1.56450
X2.05600 Y-1.56350
X2.05700 Y-1.56350
X2.05700 Y-1.56250
X2.05800 Y-1.56250
X2.05800 Y-1.56150
X2.05900 Y-1.56150
X2.05900 Y-1.56050
X2.06000 Y-1.56050
X2.06000 Y-1.55950
X2.06100 Y-1.55950
X2.06100 Y-1.55850
X2.06200 Y-1.55850
X2.06200 Y-1.55750
X2.06300 Y-1.55750
X2.06300 Y-1.55650
X2.06400 Y-1.55650
X2.06400 Y-1.55550
X2.06500 Y-1.55550
X2.06500 Y-1.55350
X2.06600 Y-1.55350
X2.06600 Y-1.55250
X2.06700 Y-1.55250
X2.06700 Y-1.55150
X2.06800 Y-1.55150
X2.06800 Y-1.55050
X2.06900 Y-1.55050
X2.06900 Y-1.54950
X2.07000 Y-1.54950
X2.07000 Y-1.54850
X2.07100 Y-1.54850
X2.07100 Y-1.54750
X2.07200 Y-1.54750
X2.07200 Y-1.54650
X2.07300 Y-1.54650
X2.07300 Y-1.54550
X2.07400 Y-1.54550
X2.07400 Y-1.54450
X2.07500 Y-1.54450
X2.07500 Y-1.54350
X2.07600 Y-1.54350
X2.07600 Y-1.54250
X2.07700 Y-1.54250
X2.07700 Y-1.54150
X2.07800 Y-1.54150
X2.07800 Y-1.54050
X2.07900 Y-1.54050
X2.07900 Y-1.53950
X2.08000 Y-1.53950
X2.08000 Y-1.53850
X2.08100 Y-1.53850
X2.08100 Y-1.53750
X2.08200 Y-1.53750
X2.08200 Y-1.53650
X2.08300 Y-1.53650
X2.08300 Y-1.53550
X2.08400 Y-1.53550
X2.08400 Y-1.53450
X2.08500 Y-1.53450
X2.08500 Y-1.53350
X2.08600 Y-1.53350
X2.08600 Y-1.53250
X2.08700 Y-1.53250
X2.08700 Y-1.53150
X2.08800 Y-1.53150
X2.08800 Y-1.53050
X2.08900 Y-1.53050
X2.08900 Y-1.52950
X2.09000 Y-1.52950
X2.09000 Y-1.52850
X2.09100 Y-1.52850
X2.09100 Y-1.52750
X2.09200 Y-1.52750
X2.09200 Y-1.52650
X2.09300 Y-1.52650
X2.09300 Y-1.52550
X2.09400 Y-1.52550
X2.09400 Y-1.52450
X2.09500 Y-1.52450
X2.09500 Y-1.52350
X2.09600 Y-1.52350
X2.09600 Y-1.52250
X2.09700 Y-1.52250
X2.09700 Y-1.52150
X2.09800 Y-1.52150
X2.09800 Y-1.52050
X2.09900 Y-1.52050
X2.09900 Y-1.51950
X2.10000 Y-1.51950
X2.10000 Y-1.51850
X2.10100 Y-1.51850
X2.10100 Y-1.51750
X2.10200 Y-1.51750
X2.10200 Y-1.51650
X2.10300 Y-1.51650
X2.10300 Y-1.51550
X2.10400 Y-1.51550
X2.10400 Y-1.51450
X2.10500 Y-1.51450
X2.10500 Y-1.51350
X2.10600 Y-1.51350
X2.10600 Y-1.51250
X2.10700 Y-1.51250
X2.10700 Y-1.51150
X2.10800 Y-1.51150
X2.10800 Y-1.51050
X2.10900 Y-1.51050
X2.10900 Y-1.50950
X2.11000 Y-1.50950
X2.11000 Y-1.50850
X2.11100 Y-1.50850
X2.11100 Y-1.50750
X2.11200 Y-1.50750
X2.11200 Y-1.50650
X2.11300 Y-1.50650
X2.11300 Y-1.50550
X2.11400 Y-1.50550
X2.11400 Y-1.50450
X2.11500 Y-1.50450
X2.11500 Y-1.50350
X2.11600 Y-1.50350
X2.11600 Y-1.50250
X2.11700 Y-1.50250
X2.11700 Y-1.50150
X2.11800 Y-1.50150
X2.11800 Y-1.50050
X2.11900 Y-1.50050
X2.11900 Y-1.49950
X2.12000 Y-1.49950
X2.12000 Y-1.49850
X2.12100 Y-1.49850
X2.12100 Y-1.49750
X2.12200 Y-1.49750
X2.12200 Y-1.49650
X2.12300 Y-1.49650
X2.12300 Y-1.49450
X2.12400 Y-1.49450
X2.12400 Y-1.49350
X2.12500 Y-1.49350
X2.12500 Y-1.49250
X2.12600 Y-1.49250
X2.12600 Y-1.49150
X2.12700 Y-1.49150
X2.12700 Y-1.49050
X2.12800 Y-1.49050
X2.12800 Y-1.48950
X2.12900 Y-1.48950
X2.12900 Y-1.48850
X2.13000 Y-1.48850
X2.13000 Y-1.48750
X2.13100 Y-1.48750
X2.13100 Y-1.48650
X2.13200 Y-1.48650
X2.13200 Y-1.48550
X2.13300 Y-1.48550
X2.13300 Y-1.48450
X2.13400 Y-1.48450
X2.13400 Y-1.48350
X2.13500 Y-1.48350
X2.13500 Y-1.48250
X2.13600 Y-1.48250
X2.13600 Y-1.48150
X2.13700 Y-1.48150
X2.13700 Y-1.48050
X2.13800 Y-1.48050
X2.13800 Y-1.47950
X2.13900 Y-1.47950
X2.13900 Y-1.47850
X2.14000 Y-1.47850
X2.14000 Y-1.47750
X2.14100 Y-1.47750
X2.14100 Y-1.47650
X2.14200 Y-1.47650
X2.14200 Y-1.47550
X2.14300 Y-1.47550
X2.14300 Y-1.47450
X2.14400 Y-1.47450
X2.14400 Y-1.47350
X2.14500 Y-1.47350
X2.14500 Y-1.47250
X2.14600 Y-1.47250
X2.14600 Y-1.47150
X2.14700 Y-1.47150
X2.14700 Y-1.47050
X2.14800 Y-1.47050
X2.14800 Y-1.46950
X2.14900 Y-1.46950
X2.14900 Y-1.46850
X2.15000 Y-1.46850
X2.15000 Y-1.46750
X2.15100 Y-1.46750
X2.15100 Y-1.46650
X2.15200 Y-1.46650
X2.15200 Y-1.46550
X2.15300 Y-1.46550
X2.15300 Y-1.46450
X2.15400 Y-1.46450
X2.15400 Y-1.46350
X2.15500 Y-1.46350
X2.15500 Y-1.46250
X2.15600 Y-1.46250
X2.15600 Y-1.46150
X2.15700 Y-1.46150
X2.15700 Y-1.46050
X2.15800 Y-1.46050
X2.15800 Y-1.45950
X2.15900 Y-1.45950
X2.15900 Y-1.45850
X2.16000 Y-1.45850
X2.16000 Y-1.45750
X2.16100 Y-1.45750
X2.16100 Y-1.45650
X2.16200 Y-1.45650
X2.16200 Y-1.45550
X2.16300 Y-1.45550
X2.16300 Y-1.45450
X2.16400 Y-1.45450
X2.16400 Y-1.45350
X2.16500 Y-1.45350
X2.16500 Y-1.45250
X2.16600 Y-1.45250
X2.16600 Y-1.45150
X2.16700 Y-1.45150
X2.16700 Y-1.45050
X2.16800 Y-1.45050
X2.16800 Y-1.44950
X2.16900 Y-1.44950
X2.16900 Y-1.44850
X2.17000 Y-1.44850
X2.17000 Y-1.44750
X2.17100 Y-1.44750
X2.17100 Y-1.44650
X2.17200 Y-1.44650
X2.17200 Y-1.44550
X2.17300 Y-1.44550
X2.17300 Y-1.44450
X2.17400 Y-1.44450
X2.17400 Y-1.44350
X2.17500 Y-1.44350
X2.17500 Y-1.44250
X2.17600 Y-1.44250
X2.17600 Y-1.44150
X2.17700 Y-1.44150
X2.17700 Y-1.44050
X2.17800 Y-1.44050
X2.17800 Y-1.43850
X2.17900 Y-1.43850
X2.17900 Y-1.43750
X2.18000 Y-1.43750
X2.18000 Y-1.43550
X2.18100 Y-1.43550
X2.18100 Y-1.43450
X2.18200 Y-1.43450
X2.18200 Y-1.43250
X2.18300 Y-1.43250
X2.18300 Y-1.43150
X2.18400 Y-1.43150
X2.18400 Y-1.42950
X2.18500 Y-1.42950
X2.18500 Y-1.42850
X2.18600 Y-1.42850
X2.18600 Y-1.42650
X2.18700 Y-1.42650
X2.18700 Y-1.42550
X2.18800 Y-1.42550
X2.18800 Y-1.42350
X2.18900 Y-1.42350
X2.18900 Y-1.41850
X2.19000 Y-1.41850
X2.19000 Y-1.41350
X2.19100 Y-1.41350
X2.19100 Y-1.40850
X2.19200 Y-1.40850
X2.19200 Y-1.01950
X2.19100 Y-1.01950
X2.19100 Y-1.01350
X2.19000 Y-1.01350
X2.19000 Y-1.00850
X2.18900 Y-1.00850
X2.18900 Y-1.00350
X2.18800 Y-1.00350
X2.18800 Y-1.00150
X2.18700 Y-1.00150
X2.18700 Y-1.00050
X2.18600 Y-1.00050
X2.18600 Y-0.99850
X2.18500 Y-0.99850
X2.18500 Y-0.99750
X2.18400 Y-0.99750
X2.18400 Y-0.99550
X2.18300 Y-0.99550
X2.18300 Y-0.99450
X2.18200 Y-0.99450
X2.18200 Y-0.99250
X2.18100 Y-0.99250
X2.18100 Y-0.99150
X2.18000 Y-0.99150
X2.18000 Y-0.98950
X2.17900 Y-0.98950
X2.17900 Y-0.98850
X2.17800 Y-0.98850
X2.17800 Y-0.98750
X2.17700 Y-0.98750
X2.17700 Y-0.98650
X2.17600 Y-0.98650
X2.17600 Y-0.98550
X2.17400 Y-0.98550
X2.17400 Y-0.98450
X2.17300 Y-0.98450
X2.17300 Y-0.98350
X2.17100 Y-0.98350
X2.17100 Y-0.98250
X2.17000 Y-0.98250
X2.17000 Y-0.98150
X2.16800 Y-0.98150
X2.16800 Y-0.98050
X2.16700 Y-0.98050
X2.16700 Y-0.97950
X2.16500 Y-0.97950
X2.16500 Y-0.97850
X2.16400 Y-0.97850
X2.16400 Y-0.97750
X2.16200 Y-0.97750
X2.16200 Y-0.97650
X2.15900 Y-0.97650
X2.15900 Y-0.97550
X2.15400 Y-0.97550
X2.15400 Y-0.97450
X2.14900 Y-0.97450
X2.14900 Y-0.97350
X2.14400 Y-0.97350
X2.14400 Y-0.97250
X2.14000 Y-0.97250
X2.14000 Y-0.97150
X2.13800 Y-0.97150
X2.13800 Y-0.97050
X2.13600 Y-0.97050
X2.13600 Y-0.96950
X2.13400 Y-0.96950
X2.13400 Y-0.96850
X2.13200 Y-0.96850
X2.13200 Y-0.96750
X2.13000 Y-0.96750
X2.13000 Y-0.96650
X2.12800 Y-0.96650
X2.12800 Y-0.96550
X2.12700 Y-0.96550
X2.12700 Y-0.96450
X2.12500 Y-0.96450
X2.12500 Y-0.96350
X2.12300 Y-0.96350
X2.12300 Y-0.96250
X2.12100 Y-0.96250
X2.12100 Y-0.96150
X2.11900 Y-0.96150
X2.11900 Y-0.96050
X2.11700 Y-0.96050
X2.11700 Y-0.95950
X2.11500 Y-0.95950
X2.11500 Y-0.95850
X2.11300 Y-0.95850
X2.11300 Y-0.95750
X2.11000 Y-0.95750
X2.11000 Y-0.95650
X2.10700 Y-0.95650
X2.10700 Y-0.95550
X2.10200 Y-0.95550
X2.10200 Y-0.95450
X2.09800 Y-0.95450
X2.09800 Y-0.95350
X1.77900 Y-0.95350
X1.77900 Y-0.95250
X1.77600 Y-0.95250
X1.77600 Y-0.95150
X1.77500 Y-0.95150
X1.77500 Y-0.95050
X1.77000 Y-0.95050
X1.77000 Y-0.94950
X1.76500 Y-0.94950
X1.76500 Y-0.94850
X1.76000 Y-0.94850
X1.76000 Y-0.94750
X1.75300 Y-0.94750
X1.75300 Y-0.94850
X1.74800 Y-0.94850
X1.74800 Y-0.94950
X1.74300 Y-0.94950
X1.74300 Y-0.95050
X1.73800 Y-0.95050
X1.73800 Y-0.95150
X1.73700 Y-0.95150
X1.73700 Y-0.95250
X1.73500 Y-0.95250
X1.73500 Y-0.95350
X1.73400 Y-0.95350
X1.73400 Y-0.95450
X1.73200 Y-0.95450
X1.73200 Y-0.95550
X1.73100 Y-0.95550
X1.73100 Y-0.95650
X1.72900 Y-0.95650
X1.72900 Y-0.95750
X1.72800 Y-0.95750
X1.72800 Y-0.95850
X1.72600 Y-0.95850
X1.72600 Y-0.95950
X1.72500 Y-0.95950
X1.72500 Y-0.96050
X1.72300 Y-0.96050
X1.72300 Y-0.96150
X1.72200 Y-0.96150
X1.72200 Y-0.96250
X1.72100 Y-0.96250
X1.72100 Y-0.96350
X1.72000 Y-0.96350
X1.72000 Y-0.96450
X1.71900 Y-0.96450
X1.71900 Y-0.96550
X1.71800 Y-0.96550
X1.71800 Y-0.96650
X1.71700 Y-0.96650
X1.71700 Y-0.96750
X1.71600 Y-0.96750
X1.71600 Y-0.96850
X1.71500 Y-0.96850
X1.71500 Y-0.96950
X1.71400 Y-0.96950
X1.71400 Y-0.97050
X1.71300 Y-0.97050
X1.71300 Y-0.97150
X1.71200 Y-0.97150
X1.71200 Y-0.97250
X1.71100 Y-0.97250
X1.71100 Y-0.97350
X1.71000 Y-0.97350
X1.71000 Y-0.97450
X1.70900 Y-0.97450
X1.70900 Y-0.97550
X1.70800 Y-0.97550
X1.70800 Y-0.97650
X1.70700 Y-0.97650
X1.70700 Y-0.97750
X1.70600 Y-0.97750
X1.70600 Y-0.97850
X1.70500 Y-0.97850
X1.70500 Y-0.97950
X1.70400 Y-0.97950
X1.70400 Y-0.98050
X1.70300 Y-0.98050
X1.70300 Y-0.98150
X1.70200 Y-0.98150
X1.70200 Y-0.98250
X1.70100 Y-0.98250
X1.70100 Y-0.98350
X1.70000 Y-0.98350
X1.70000 Y-0.98450
X1.69900 Y-0.98450
X1.69900 Y-0.98550
X1.69800 Y-0.98550
X1.69800 Y-0.98650
X1.69700 Y-0.98650
X1.69700 Y-0.98750
X1.69600 Y-0.98750
X1.69600 Y-0.98850
X1.69500 Y-0.98850
X1.69500 Y-0.98950
X1.69400 Y-0.98950
X1.69400 Y-0.99050
X1.69300 Y-0.99050
X1.69300 Y-0.99150
X1.69200 Y-0.99150
X1.69200 Y-0.99250
X1.69100 Y-0.99250
X1.69100 Y-0.99350
X1.69000 Y-0.99350
X1.69000 Y-0.99450
X1.68900 Y-0.99450
X1.68900 Y-0.99550
X1.68800 Y-0.99550
X1.68800 Y-0.99650
X1.68700 Y-0.99650
X1.68700 Y-0.99750
X1.68600 Y-0.99750
X1.68600 Y-0.99850
X1.68500 Y-0.99850
X1.68500 Y-0.99950
X1.68400 Y-0.99950
X1.68400 Y-1.00050
X1.68300 Y-1.00050
X1.68300 Y-1.00150
X1.68200 Y-1.00150
X1.68200 Y-1.00250
X1.68100 Y-1.00250
X1.68100 Y-1.00350
X1.68000 Y-1.00350
X1.68000 Y-1.00450
X1.67900 Y-1.00450
X1.67900 Y-1.00550
X1.67800 Y-1.00550
X1.67800 Y-1.00650
X1.67700 Y-1.00650
X1.67700 Y-1.00750
X1.67600 Y-1.00750
X1.67600 Y-1.00850
X1.67500 Y-1.00850
X1.67500 Y-1.00950
X1.67400 Y-1.00950
X1.67400 Y-1.01050
X1.67300 Y-1.01050
X1.67300 Y-1.01150
X1.67200 Y-1.01150
X1.67200 Y-1.01250
X1.67100 Y-1.01250
X1.67100 Y-1.01350
X1.66900 Y-1.01350
X1.66900 Y-1.01450
X1.66300 Y-1.01450
X1.66300 Y-1.01350
X1.66200 Y-1.01350
X1.66200 Y-1.01150
X1.66100 Y-1.01150
X1.66100 Y-0.95050
X1.66000 Y-0.95050
X1.66000 Y-0.95150
X1.65900 Y-0.95150
X1.65900 Y-0.95250
X1.65800 Y-0.95250
X1.65800 Y-0.95350
X1.65700 Y-0.95350
X1.65700 Y-0.95450
X1.65600 Y-0.95450
X1.65600 Y-0.95650
X1.65500 Y-0.95650
X1.65500 Y-0.95750
X1.65400 Y-0.95750
X1.65400 Y-0.95850
X1.65300 Y-0.95850
X1.65300 Y-0.95950
X1.65200 Y-0.95950
X1.65200 Y-0.96050
X1.65100 Y-0.96050
X1.65100 Y-0.96150
X1.65000 Y-0.96150
X1.65000 Y-0.96350
X1.64900 Y-0.96350
X1.64900 Y-0.96450
X1.64800 Y-0.96450
X1.64800 Y-0.96550
X1.64700 Y-0.96550
X1.64700 Y-0.96650
X1.64600 Y-0.96650
X1.64600 Y-0.96750
X1.64500 Y-0.96750
X1.64500 Y-0.96850
X1.64400 Y-0.96850
X1.64400 Y-0.97050
X1.64300 Y-0.97050
X1.64300 Y-0.97150
X1.64200 Y-0.97150
X1.64200 Y-0.97250
X1.64100 Y-0.97250
X1.64100 Y-1.24450
X1.64200 Y-1.24450
X1.64200 Y-1.24550
X1.64400 Y-1.24550
X1.64400 Y-1.24650
X1.64500 Y-1.24650
X1.64500 Y-1.24750
X1.64600 Y-1.24750
X1.64600 Y-1.24950
X1.64700 Y-1.24950
X1.64700 Y-1.25250
X1.64800 Y-1.25250
X1.64800 Y-1.50350
X1.64700 Y-1.50350
X1.64700 Y-1.50650
X1.64600 Y-1.50650
X1.64600 Y-1.50850
X1.64500 Y-1.50850
X1.64500 Y-1.50950
X1.64400 Y-1.50950
X1.64400 Y-1.51050
X1.64200 Y-1.51050
X1.64200 Y-1.51150
X1.63900 Y-1.51150
X1.63900 Y-1.51250
X1.63600 Y-1.51250
X1.63600 Y-1.51150
X1.63400 Y-1.51150
X1.63400 Y-1.51250
X1.63300 Y-1.51250
X1.63300 Y-1.51350
X1.63100 Y-1.51350
X1.63100 Y-1.51450
X1.63000 Y-1.51450
X1.63000 Y-1.51550
X1.62900 Y-1.51550
X1.62900 Y-1.51650
X1.62800 Y-1.51650
X1.62800 Y-1.51750
X1.62700 Y-1.51750
X1.62700 Y-1.51850
X1.62600 Y-1.51850
X1.62600 Y-1.51950
X1.62500 Y-1.51950
X1.62500 Y-1.52050
X1.62400 Y-1.52050
X1.62400 Y-1.52150
X1.62300 Y-1.52150
X1.62300 Y-1.52250
X1.62200 Y-1.52250
X1.62200 Y-1.52350
X1.62100 Y-1.52350
X1.62100 Y-1.52450
X1.62000 Y-1.52450
X1.62000 Y-1.52550
X1.61900 Y-1.52550
X1.61900 Y-1.52650
X1.61700 Y-1.52650
X1.61700 Y-1.52750
X1.61600 Y-1.52750
X1.61600 Y-1.52850
X1.61500 Y-1.52850
X1.61500 Y-1.52950
X1.61400 Y-1.52950
X1.61400 Y-1.53050
X1.61300 Y-1.53050
X1.61300 Y-1.53150
X1.61200 Y-1.53150
X1.61200 Y-1.53250
X1.61100 Y-1.53250
X1.61100 Y-1.53350
X1.61000 Y-1.53350
X1.61000 Y-1.53450
X1.60900 Y-1.53450
X1.60900 Y-1.53550
X1.60800 Y-1.53550
X1.60800 Y-1.53650
X1.60700 Y-1.53650
X1.60700 Y-1.53750
X1.60600 Y-1.53750
X1.60600 Y-1.53850
X1.60500 Y-1.53850
X1.60500 Y-1.53950
X1.60300 Y-1.53950
X1.60300 Y-1.54050
X1.60200 Y-1.54050
X1.60200 Y-1.54150
X1.60100 Y-1.54150
X1.60100 Y-1.54250
X1.60000 Y-1.54250
X1.60000 Y-1.54350
X1.59900 Y-1.54350
X1.59900 Y-1.54450
X1.59800 Y-1.54450
X1.59800 Y-1.54550
X1.59700 Y-1.54550
X1.59700 Y-1.54650
X1.59600 Y-1.54650
X1.59600 Y-1.54750
X1.59500 Y-1.54750
X1.59500 Y-1.54850
X1.59400 Y-1.54850
X1.59400 Y-1.54950
X1.59300 Y-1.54950
X1.59300 Y-1.55050
X1.59200 Y-1.55050
X1.59200 Y-1.55150
X1.59100 Y-1.55150
X1.59100 Y-1.55250
X1.58900 Y-1.55250
X1.58900 Y-1.55350
X1.58800 Y-1.55350
X1.58800 Y-1.55450
X1.58700 Y-1.55450
X1.58700 Y-1.55550
X1.58600 Y-1.55550
X1.58600 Y-1.55650
X1.58500 Y-1.55650
X1.58500 Y-1.55750
X1.58400 Y-1.55750
X1.58400 Y-1.55850
X1.58300 Y-1.55850
X1.58300 Y-1.55950
X1.58200 Y-1.55950
X1.58200 Y-1.56050
X1.58100 Y-1.56050
X1.58100 Y-1.56150
X1.58000 Y-1.56150
X1.58000 Y-1.56250
X1.57900 Y-1.56250
X1.57900 Y-1.56350
X1.57800 Y-1.56350
X1.57800 Y-1.56450
X1.57700 Y-1.56450
X1.57700 Y-1.56550
X1.57500 Y-1.56550
X1.57500 Y-1.56650
X1.57400 Y-1.56650
X1.57400 Y-1.56750
X1.57300 Y-1.56750
X1.57300 Y-1.56850
X1.57200 Y-1.56850
X1.57200 Y-1.56950
X1.57100 Y-1.56950
X1.57100 Y-1.57050
X1.57000 Y-1.57050
X1.57000 Y-1.57150
X1.56900 Y-1.57150
X1.56900 Y-1.57250
X1.56800 Y-1.57250
X1.56800 Y-1.57350
X1.56700 Y-1.57350
X1.56700 Y-1.57450
X1.56600 Y-1.57450
X1.56600 Y-1.57550
X1.56500 Y-1.57550
X1.56500 Y-1.57650
X1.56400 Y-1.57650
X1.56400 Y-1.57750
X1.56300 Y-1.57750
X1.56300 Y-1.57850
X1.56100 Y-1.57850
X1.56100 Y-1.57950
X1.56000 Y-1.57950
X1.56000 Y-1.58050
X1.55900 Y-1.58050
X1.55900 Y-1.58150
X1.55800 Y-1.58150
X1.55800 Y-1.58250
X1.55700 Y-1.58250
X1.55700 Y-1.58350
X1.55600 Y-1.58350
X1.55600 Y-1.58450
X1.55500 Y-1.58450
X1.55500 Y-1.58550
X1.55400 Y-1.58550
X1.55400 Y-1.58650
X1.55300 Y-1.58650
X1.55300 Y-1.58750
X1.55200 Y-1.58750
X1.55200 Y-1.58850
X1.55100 Y-1.58850
X1.55100 Y-1.59150
X1.54700 Y-1.59150
X1.54700 Y-1.59250
X1.54600 Y-1.59250
X1.54600 Y-1.59350
X1.54500 Y-1.59350
X1.54500 Y-1.59450
X1.54400 Y-1.59450
X1.54400 Y-1.59550
X1.54300 Y-1.59550
X1.54300 Y-1.59650
X1.54200 Y-1.59650
X1.54200 Y-1.59750
X1.54100 Y-1.59750
X1.54100 Y-1.59850
X1.54000 Y-1.59850
X1.54000 Y-1.59950
X1.53900 Y-1.59950
X1.53900 Y-1.60050
X1.53800 Y-1.60050
X1.53800 Y-1.60150
X1.53700 Y-1.60150
X1.53700 Y-1.60250
X1.53600 Y-1.60250
X1.53600 Y-1.60350
X1.53500 Y-1.60350
X1.53500 Y-1.60450
X1.52900 Y-1.60450
X1.52900 Y-1.60350
X1.52800 Y-1.60350
X1.52800 Y-1.60150
X1.52700 Y-1.60150
X1.52700 Y-1.59850
X1.52800 Y-1.59850
X1.52800 Y-1.59650
X1.53000 Y-1.59650
X1.53000 Y-1.59550
X1.53100 Y-1.59550
X1.53100 Y-1.59450
X1.53200 Y-1.59450
X1.53200 Y-1.59350
X1.53300 Y-1.59350
X1.53300 Y-1.59250
X1.53400 Y-1.59250
X1.53400 Y-1.59150
X1.53500 Y-1.59150
X1.53500 Y-1.59050
X1.53600 Y-1.59050
X1.53600 Y-1.58950
X1.53700 Y-1.58950
X1.53700 Y-1.58850
X1.53800 Y-1.58850
X1.53800 Y-1.58750
X1.53900 Y-1.58750
X1.53900 Y-1.58650
X1.54000 Y-1.58650
X1.54000 Y-1.58550
X1.54100 Y-1.58550
X1.54100 Y-1.58450
X1.54200 Y-1.58450
X1.54200 Y-1.58350
X1.54300 Y-1.58350
X1.54300 Y-1.58250
X1.53900 Y-1.58250
X1.53900 Y-1.57950
X1.54800 Y-1.57950
X1.54800 Y-1.57850
X1.54900 Y-1.57850
X1.54900 Y-1.57750
X1.55000 Y-1.57750
X1.55000 Y-1.57650
X1.55100 Y-1.57650
X1.55100 Y-1.57550
X1.55200 Y-1.57550
X1.55200 Y-1.57450
X1.55300 Y-1.57450
X1.55300 Y-1.57350
X1.55400 Y-1.57350
X1.55400 Y-1.57250
X1.55500 Y-1.57250
X1.55500 Y-1.57150
X1.55600 Y-1.57150
X1.55600 Y-1.57050
X1.55700 Y-1.57050
X1.55700 Y-1.56950
X1.55900 Y-1.56950
X1.55900 Y-1.56850
X1.56000 Y-1.56850
X1.56000 Y-1.56750
X1.56100 Y-1.56750
X1.56100 Y-1.56650
X1.56200 Y-1.56650
X1.56200 Y-1.56550
X1.56300 Y-1.56550
X1.56300 Y-1.56450
X1.56400 Y-1.56450
X1.56400 Y-1.56350
X1.56500 Y-1.56350
X1.56500 Y-1.56250
X1.56600 Y-1.56250
X1.56600 Y-1.56150
X1.56700 Y-1.56150
X1.56700 Y-1.56050
X1.56800 Y-1.56050
X1.56800 Y-1.55950
X1.56900 Y-1.55950
X1.56900 Y-1.55850
X1.57000 Y-1.55850
X1.57000 Y-1.55750
X1.57100 Y-1.55750
X1.57100 Y-1.55650
X1.57300 Y-1.55650
X1.57300 Y-1.55550
X1.57400 Y-1.55550
X1.57400 Y-1.55450
X1.57500 Y-1.55450
X1.57500 Y-1.55350
X1.57600 Y-1.55350
X1.57600 Y-1.55250
X1.57700 Y-1.55250
X1.57700 Y-1.55150
X1.57800 Y-1.55150
X1.57800 Y-1.55050
X1.57900 Y-1.55050
X1.57900 Y-1.54950
X1.58000 Y-1.54950
X1.58000 Y-1.54850
X1.58100 Y-1.54850
X1.58100 Y-1.54750
X1.58200 Y-1.54750
X1.58200 Y-1.54650
X1.58300 Y-1.54650
X1.58300 Y-1.54550
X1.58400 Y-1.54550
X1.58400 Y-1.54450
X1.58500 Y-1.54450
X1.58500 Y-1.54350
X1.58700 Y-1.54350
X1.58700 Y-1.54250
X1.58800 Y-1.54250
X1.58800 Y-1.54150
X1.58900 Y-1.54150
X1.58900 Y-1.54050
X1.59000 Y-1.54050
X1.59000 Y-1.53950
X1.59100 Y-1.53950
X1.59100 Y-1.53850
X1.59200 Y-1.53850
X1.59200 Y-1.53750
X1.59300 Y-1.53750
X1.59300 Y-1.53650
X1.59400 Y-1.53650
X1.59400 Y-1.53550
X1.59500 Y-1.53550
X1.59500 Y-1.53450
X1.59600 Y-1.53450
X1.59600 Y-1.53350
X1.59700 Y-1.53350
X1.59700 Y-1.53250
X1.59800 Y-1.53250
X1.59800 Y-1.53150
X1.59900 Y-1.53150
X1.59900 Y-1.53050
X1.60100 Y-1.53050
X1.60100 Y-1.52950
X1.60200 Y-1.52950
X1.60200 Y-1.52850
X1.60300 Y-1.52850
X1.60300 Y-1.52750
X1.60400 Y-1.52750
X1.60400 Y-1.52650
X1.60500 Y-1.52650
X1.60500 Y-1.52550
X1.60600 Y-1.52550
X1.60600 Y-1.52450
X1.60700 Y-1.52450
X1.60700 Y-1.52350
X1.60800 Y-1.52350
X1.60800 Y-1.52250
X1.60900 Y-1.52250
X1.60900 Y-1.52150
X1.61000 Y-1.52150
X1.61000 Y-1.52050
X1.61100 Y-1.52050
X1.61100 Y-1.51950
X1.61200 Y-1.51950
X1.61200 Y-1.51850
X1.61300 Y-1.51850
X1.61300 Y-1.51750
X1.61500 Y-1.51750
X1.61500 Y-1.51650
X1.61600 Y-1.51650
X1.61600 Y-1.51550
X1.61700 Y-1.51550
X1.61700 Y-1.51450
X1.61800 Y-1.51450
X1.61800 Y-1.51350
X1.61900 Y-1.51350
X1.61900 Y-1.51250
X1.62000 Y-1.51250
X1.62000 Y-1.51150
X1.62100 Y-1.51150
X1.62100 Y-1.51050
X1.62200 Y-1.51050
X1.62200 Y-1.50950
X1.62300 Y-1.50950
X1.62300 Y-1.50850
X1.62400 Y-1.50850
X1.62400 Y-1.50750
X1.62500 Y-1.50750
X1.62500 Y-1.50650
X1.62600 Y-1.50650
X1.62600 Y-1.50550
X1.62700 Y-1.50550
X1.62700 Y-1.50450
X1.62800 Y-1.50450
X1.62800 Y-1.50350
X1.62700 Y-1.50350
X1.62700 Y-1.25250
X1.62800 Y-1.25250
X1.62800 Y-1.24950
X1.62900 Y-1.24950
X1.62900 Y-1.24750
X1.63000 Y-1.24750
X1.63000 Y-1.24650
X1.63100 Y-1.24650
X1.63100 Y-1.24550
X1.63300 Y-1.24550
X1.63300 Y-1.24450
X1.63400 Y-1.24450
X1.63400 Y-0.97250
X1.63300 Y-0.97250
X1.63300 Y-0.96750
X1.63400 Y-0.96750
X1.63400 Y-0.96650
X1.63500 Y-0.96650
X1.63500 Y-0.96550
X1.63600 Y-0.96550
X1.63600 Y-0.96350
X1.63700 Y-0.96350
X1.63700 Y-0.96250
X1.63800 Y-0.96250
X1.63800 Y-0.96150
X1.63900 Y-0.96150
X1.63900 Y-0.96050
X1.64000 Y-0.96050
X1.64000 Y-0.95950
X1.64100 Y-0.95950
X1.64100 Y-0.95850
X1.64200 Y-0.95850
X1.64200 Y-0.95650
X1.64300 Y-0.95650
X1.64300 Y-0.95550
X1.64400 Y-0.95550
X1.64400 Y-0.95450
X1.64500 Y-0.95450
X1.64500 Y-0.95350
X1.64600 Y-0.95350
X1.64600 Y-0.95250
X1.64700 Y-0.95250
X1.64700 Y-0.95150
X1.64800 Y-0.95150
X1.64800 Y-0.94950
X1.64900 Y-0.94950
X1.64900 Y-0.94850
X1.65000 Y-0.94850
X1.65000 Y-0.94750
X1.65100 Y-0.94750
X1.65100 Y-0.94650
X1.65200 Y-0.94650
X1.65200 Y-0.94550
X1.65300 Y-0.94550
X1.65300 Y-0.94450
X1.65400 Y-0.94450
X1.65400 Y-0.94350
X1.65500 Y-0.94350
X1.65500 Y-0.94150
X1.65600 Y-0.94150
X1.65600 Y-0.94050
X1.65700 Y-0.94050
X1.65700 Y-0.93950
X1.65800 Y-0.93950
X1.65800 Y-0.93850
X1.65900 Y-0.93850
X1.65900 Y-0.93750
X1.66000 Y-0.93750
X1.66000 Y-0.93650
X1.66100 Y-0.93650
X1.66100 Y-0.93450
X1.66200 Y-0.93450
X1.66200 Y-0.93350
X1.66300 Y-0.93350
X1.66300 Y-0.93250
X1.66400 Y-0.93250
X1.66400 Y-0.93150
X1.66500 Y-0.93150
X1.66500 Y-0.93050
X1.66600 Y-0.93050
X1.66600 Y-0.92950
X1.66700 Y-0.92950
X1.66700 Y-0.92750
X1.66800 Y-0.92750
X1.66800 Y-0.92650
X1.66700 Y-0.92650
X1.66700 Y-0.92150
X1.66800 Y-0.92150
X1.66800 Y-0.91850
X1.66900 Y-0.91850
X1.66900 Y-0.91650
X1.67000 Y-0.91650
X1.67000 Y-0.91550
X1.67300 Y-0.91550
X1.67300 Y-0.91450
X1.67500 Y-0.91450
X1.67500 Y-0.91350
X1.68400 Y-0.91350
X1.68400 Y-0.91250
X1.68500 Y-0.91250
X1.68500 Y-0.91150
X1.68600 Y-0.91150
X1.68600 Y-0.91050
X1.68700 Y-0.91050
X1.68700 Y-0.90950
X1.68800 Y-0.90950
X1.68800 Y-0.90850
X1.68900 Y-0.90850
X1.68900 Y-0.90750
X1.69000 Y-0.90750
X1.69000 Y-0.90650
X1.69100 Y-0.90650
X1.69100 Y-0.90550
X1.69200 Y-0.90550
X1.69200 Y-0.90450
X1.69300 Y-0.90450
X1.69300 Y-0.90350
X1.69400 Y-0.90350
X1.69400 Y-0.90250
X1.69500 Y-0.90250
X1.69500 Y-0.90150
X1.69600 Y-0.90150
X1.69600 Y-0.90050
X1.69700 Y-0.90050
X1.69700 Y-0.89850
X1.69800 Y-0.89850
X1.69800 Y-0.89750
X1.69900 Y-0.89750
X1.69900 Y-0.89650
X1.70000 Y-0.89650
X1.70000 Y-0.89550
X1.70100 Y-0.89550
X1.70100 Y-0.89450
X1.70200 Y-0.89450
X1.70200 Y-0.89350
X1.70300 Y-0.89350
X1.70300 Y-0.89250
X1.70400 Y-0.89250
X1.70400 Y-0.89150
X1.70500 Y-0.89150
X1.70500 Y-0.89050
X1.70600 Y-0.89050
X1.70600 Y-0.88850
X1.70700 Y-0.88850
X1.70700 Y-0.88750
X1.70800 Y-0.88750
X1.70800 Y-0.88550
X1.70900 Y-0.88550
X1.70900 Y-0.88450
X1.71000 Y-0.88450
X1.71000 Y-0.88250
X1.71100 Y-0.88250
X1.71100 Y-0.88150
X1.71200 Y-0.88150
X1.71200 Y-0.87950
X1.71300 Y-0.87950
X1.71300 Y-0.87850
X1.71400 Y-0.87850
X1.71400 Y-0.87650
X1.71500 Y-0.87650
X1.71500 Y-0.87450
X1.71600 Y-0.87450
X1.71600 Y-0.87250
X1.71700 Y-0.87250
X1.71700 Y-0.87150
X1.71800 Y-0.87150
X1.71800 Y-0.87050
X1.71900 Y-0.87050
X1.71900 Y-0.86950
X1.72000 Y-0.86950
X1.72000 Y-0.86850
X1.72100 Y-0.86850
X1.72100 Y-0.86750
X1.72200 Y-0.86750
X1.72200 Y-0.86650
X1.72300 Y-0.86650
X1.72300 Y-0.86350
X1.72400 Y-0.86350
X1.72400 Y-0.86150
X1.72500 Y-0.86150
X1.72500 Y-0.85950
X1.72600 Y-0.85950
X1.72600 Y-0.85650
X1.72700 Y-0.85650
X1.72700 Y-0.85450
X1.72800 Y-0.85450
X1.72800 Y-0.76750
X1.72900 Y-0.76750
X1.72900 Y-0.76550
X1.73000 Y-0.76550
X1.73000 Y-0.76450
X1.73100 Y-0.76450
X1.73100 Y-0.76350
X1.73200 Y-0.76350
X1.73200 Y-0.76250
X1.73400 Y-0.76250
X1.73400 Y-0.76150
X1.73600 Y-0.76150
X1.73600 Y-0.76050
X1.73900 Y-0.76050
X1.73900 Y-0.75950
X1.74700 Y-0.75950
X1.74700 Y-0.76150
X1.74800 Y-0.76150
X1.74800 Y-0.76250
X1.74900 Y-0.76250
X1.74900 Y-0.79250
X1.75000 Y-0.79250
X1.75000 Y-0.79350
X1.75100 Y-0.79350
X1.75100 Y-0.79450
X1.75200 Y-0.79450
X1.75200 Y-0.79550
X1.76800 Y-0.79550
X1.76800 Y-0.76550
X1.78400 Y-0.76550
X1.78400 Y-0.72450
X1.76500 Y-0.72450
X1.76500 Y-0.66850
X1.80100 Y-0.66850
X1.80100 Y-0.68650
X1.81600 Y-0.68650
X1.81600 Y-0.68550
X1.81700 Y-0.68550
X1.81700 Y-0.68450
X1.81800 Y-0.68450
X1.81800 Y-0.68350
X1.81900 Y-0.68350
X1.81900 Y-0.66350
X1.81800 Y-0.66350
X1.81800 Y-0.66050
X1.81700 Y-0.66050
X1.81700 Y-0.65850
X1.81600 Y-0.65850
X1.81600 Y-0.65750
X1.81500 Y-0.65750
X1.81500 Y-0.65650
X1.81400 Y-0.65650
X1.81400 Y-0.65550
X1.81300 Y-0.65550
X1.81300 Y-0.65450
X1.81200 Y-0.65450
X1.81200 Y-0.65350
X1.81100 Y-0.65350
X1.81100 Y-0.65250
X1.80900 Y-0.65250
X1.80900 Y-0.65150
X1.80700 Y-0.65150
X1.80700 Y-0.65050
X1.80600 Y-0.65050
X1.80600 Y-0.64950
X1.80500 Y-0.64950
X1.80500 Y-0.64750
X1.80400 Y-0.64750
X1.80400 Y-0.64450
X1.80500 Y-0.64450
X1.80500 Y-0.64250
X1.80600 Y-0.64250
X1.80600 Y-0.64150
X1.80700 Y-0.64150
X1.80700 Y-0.64050
X2.27300 Y-0.64050
X2.27300 Y-0.64150
G04 P0 ( dwell for no time -- G64 should not smooth over this point )
G00 Z0.19685 ( retract )

G00 X1.72600 Y-0.66950 ( rapid move to begin. )
G01 Z-0.00394 F39.37008 ( plunge. )
G04 P0 ( dwell for no time -- G64 should not smooth over this point )
X1.72600 Y-0.66950
X1.72600 Y-0.72450
X1.69000 Y-0.72450
X1.69000 Y-0.70050
X1.62500 Y-0.70050
X1.62500 Y-0.69950
X1.61800 Y-0.69950
X1.61800 Y-0.69850
X1.61100 Y-0.69850
X1.61100 Y-0.69750
X1.60500 Y-0.69750
X1.60500 Y-0.69650
X1.50200 Y-0.69650
X1.50200 Y-0.69750
X1.49800 Y-0.69750
X1.49800 Y-0.69850
X1.49500 Y-0.69850
X1.49500 Y-0.69950
X1.49100 Y-0.69950
X1.49100 Y-0.70050
X1.48800 Y-0.70050
X1.48800 Y-0.70150
X1.48400 Y-0.70150
X1.48400 Y-0.70250
X1.48100 Y-0.70250
X1.48100 Y-0.70350
X1.47700 Y-0.70350
X1.47700 Y-0.70450
X1.47400 Y-0.70450
X1.47400 Y-0.70550
X1.47300 Y-0.70550
X1.47300 Y-0.72550
X1.47700 Y-0.72550
X1.47700 Y-0.76550
X1.46100 Y-0.76550
X1.46100 Y-0.72850
X1.46000 Y-0.72850
X1.46000 Y-0.72750
X1.45900 Y-0.72750
X1.45900 Y-0.72650
X1.45800 Y-0.72650
X1.45800 Y-0.72550
X1.45700 Y-0.72550
X1.45700 Y-0.72450
X1.45600 Y-0.72450
X1.45600 Y-0.72350
X1.45500 Y-0.72350
X1.45500 Y-0.72250
X1.45400 Y-0.72250
X1.45400 Y-0.72150
X1.45300 Y-0.72150
X1.45300 Y-0.72050
X1.45200 Y-0.72050
X1.45200 Y-0.71950
X1.45100 Y-0.71950
X1.45100 Y-0.71850
X1.45000 Y-0.71850
X1.45000 Y-0.71750
X1.44900 Y-0.71750
X1.44900 Y-0.71650
X1.21400 Y-0.71650
X1.21400 Y-0.74050
X1.17800 Y-0.74050
X1.17800 Y-0.68450
X1.21400 Y-0.68450
X1.21400 Y-0.70850
X1.45400 Y-0.70850
X1.45400 Y-0.70950
X1.45500 Y-0.70950
X1.45500 Y-0.71050
X1.45600 Y-0.71050
X1.45600 Y-0.71150
X1.45700 Y-0.71150
X1.45700 Y-0.71250
X1.45800 Y-0.71250
X1.45800 Y-0.71350
X1.45900 Y-0.71350
X1.45900 Y-0.71450
X1.46000 Y-0.71450
X1.46000 Y-0.71550
X1.46100 Y-0.71550
X1.46100 Y-0.71650
X1.46200 Y-0.71650
X1.46200 Y-0.71750
X1.46300 Y-0.71750
X1.46300 Y-0.71850
X1.46400 Y-0.71850
X1.46400 Y-0.70150
X1.46500 Y-0.70150
X1.46500 Y-0.69950
X1.46600 Y-0.69950
X1.46600 Y-0.69750
X1.46800 Y-0.69750
X1.46800 Y-0.69650
X1.47200 Y-0.69650
X1.47200 Y-0.69550
X1.47500 Y-0.69550
X1.47500 Y-0.69450
X1.47900 Y-0.69450
X1.47900 Y-0.69350
X1.48200 Y-0.69350
X1.48200 Y-0.69250
X1.48600 Y-0.69250
X1.48600 Y-0.69150
X1.49000 Y-0.69150
X1.49000 Y-0.69050
X1.49300 Y-0.69050
X1.49300 Y-0.68950
X1.49700 Y-0.68950
X1.49700 Y-0.68850
X1.61200 Y-0.68850
X1.61200 Y-0.68950
X1.61900 Y-0.68950
X1.61900 Y-0.69050
X1.62600 Y-0.69050
X1.62600 Y-0.69150
X1.63200 Y-0.69150
X1.63200 Y-0.69250
X1.69000 Y-0.69250
X1.69000 Y-0.66850
X1.72600 Y-0.66850
X1.72600 Y-0.66950
G04 P0 ( dwell for no time -- G64 should not smooth over this point )
G00 Z0.19685 ( retract )

G00 X1.13900 Y-0.68550 ( rapid move to begin. )
G01 Z-0.00394 F39.37008 ( plunge. )
G04 P0 ( dwell for no time -- G64 should not smooth over this point )
X1.13900 Y-0.68550
X1.13900 Y-0.74050
X1.11600 Y-0.74050
X1.11600 Y-0.74150
X1.11500 Y-0.74150
X1.11500 Y-0.74250
X1.11400 Y-0.74250
X1.11400 Y-0.74350
X1.11300 Y-0.74350
X1.11300 Y-0.74450
X1.11200 Y-0.74450
X1.11200 Y-0.74550
X1.11100 Y-0.74550
X1.11100 Y-0.74650
X1.11000 Y-0.74650
X1.11000 Y-0.74750
X1.10900 Y-0.74750
X1.10900 Y-0.74850
X1.10800 Y-0.74850
X1.10800 Y-0.79750
X1.12400 Y-0.79750
X1.12400 Y-0.87750
X1.08400 Y-0.87750
X1.08400 Y-0.85350
X1.01300 Y-0.85350
X1.01300 Y-0.85250
X1.00800 Y-0.85250
X1.00800 Y-0.85150
X1.00700 Y-0.85150
X1.00700 Y-0.85050
X1.00500 Y-0.85050
X1.00500 Y-0.84950
X1.00400 Y-0.84950
X1.00400 Y-0.84850
X1.00200 Y-0.84850
X1.00200 Y-0.84750
X1.00100 Y-0.84750
X1.00100 Y-0.84650
X1.00000 Y-0.84650
X1.00000 Y-0.84550
X0.99900 Y-0.84550
X0.99900 Y-0.84450
X0.99800 Y-0.84450
X0.99800 Y-0.84350
X0.99700 Y-0.84350
X0.99700 Y-0.84250
X0.99600 Y-0.84250
X0.99600 Y-0.84150
X0.99500 Y-0.84150
X0.99500 Y-0.84050
X0.99400 Y-0.84050
X0.99400 Y-0.83950
X0.99300 Y-0.83950
X0.99300 Y-0.83850
X0.99200 Y-0.83850
X0.99200 Y-0.83750
X0.99100 Y-0.83750
X0.99100 Y-0.83650
X0.99000 Y-0.83650
X0.99000 Y-0.83550
X0.98900 Y-0.83550
X0.98900 Y-0.83450
X0.98800 Y-0.83450
X0.98800 Y-0.83350
X0.98700 Y-0.83350
X0.98700 Y-0.83250
X0.98600 Y-0.83250
X0.98600 Y-0.83150
X0.98500 Y-0.83150
X0.98500 Y-0.83050
X0.98400 Y-0.83050
X0.98400 Y-0.82950
X0.98300 Y-0.82950
X0.98300 Y-0.82850
X0.98200 Y-0.82850
X0.98200 Y-0.82750
X0.98100 Y-0.82750
X0.98100 Y-0.82650
X0.98000 Y-0.82650
X0.98000 Y-0.82550
X0.97900 Y-0.82550
X0.97900 Y-0.82450
X0.97800 Y-0.82450
X0.97800 Y-0.82350
X0.97700 Y-0.82350
X0.97700 Y-0.82250
X0.97600 Y-0.82250
X0.97600 Y-0.82150
X0.97500 Y-0.82150
X0.97500 Y-0.82050
X0.97400 Y-0.82050
X0.97400 Y-0.81950
X0.97300 Y-0.81950
X0.97300 Y-0.81850
X0.97200 Y-0.81850
X0.97200 Y-0.81750
X0.97100 Y-0.81750
X0.97100 Y-0.81650
X0.97000 Y-0.81650
X0.97000 Y-0.81550
X0.96900 Y-0.81550
X0.96900 Y-0.81450
X0.96800 Y-0.81450
X0.96800 Y-0.81350
X0.96700 Y-0.81350
X0.96700 Y-0.81250
X0.96600 Y-0.81250
X0.96600 Y-0.81150
X0.96300 Y-0.81150
X0.96300 Y-0.81050
X0.96200 Y-0.81050
X0.96200 Y-0.80950
X0.96000 Y-0.80950
X0.96000 Y-0.80850
X0.95800 Y-0.80850
X0.95800 Y-0.80650
X0.95700 Y-0.80650
X0.95700 Y-0.80550
X0.95600 Y-0.80550
X0.95600 Y-0.80450
X0.95500 Y-0.80450
X0.95500 Y-0.80250
X0.95400 Y-0.80250
X0.95400 Y-0.79750
X0.95300 Y-0.79750
X0.95300 Y-0.79150
X0.95400 Y-0.79150
X0.95400 Y-0.78650
X0.95500 Y-0.78650
X0.95500 Y-0.78450
X0.95600 Y-0.78450
X0.95600 Y-0.78350
X0.95700 Y-0.78350
X0.95700 Y-0.78250
X0.95800 Y-0.78250
X0.95800 Y-0.78050
X0.96000 Y-0.78050
X0.96000 Y-0.77950
X0.96200 Y-0.77950
X0.96200 Y-0.77850
X0.96300 Y-0.77850
X0.96300 Y-0.77750
X0.96800 Y-0.77750
X0.96800 Y-0.77650
X0.97400 Y-0.77650
X0.97400 Y-0.77750
X0.97900 Y-0.77750
X0.97900 Y-0.77850
X0.98000 Y-0.77850
X0.98000 Y-0.77950
X0.98200 Y-0.77950
X0.98200 Y-0.78050
X0.98400 Y-0.78050
X0.98400 Y-0.78250
X0.98500 Y-0.78250
X0.98500 Y-0.78350
X0.98600 Y-0.78350
X0.98600 Y-0.78450
X0.98700 Y-0.78450
X0.98700 Y-0.78650
X0.98800 Y-0.78650
X0.98800 Y-0.78950
X0.98900 Y-0.78950
X0.98900 Y-0.79050
X0.99000 Y-0.79050
X0.99000 Y-0.79150
X0.99100 Y-0.79150
X0.99100 Y-0.79250
X0.99200 Y-0.79250
X0.99200 Y-0.79350
X0.99300 Y-0.79350
X0.99300 Y-0.79450
X0.99400 Y-0.79450
X0.99400 Y-0.79550
X0.99500 Y-0.79550
X0.99500 Y-0.79650
X0.99600 Y-0.79650
X0.99600 Y-0.79750
X0.99700 Y-0.79750
X0.99700 Y-0.79850
X0.99800 Y-0.79850
X0.99800 Y-0.79950
X0.99900 Y-0.79950
X0.99900 Y-0.80050
X1.00000 Y-0.80050
X1.00000 Y-0.80150
X1.00100 Y-0.80150
X1.00100 Y-0.80250
X1.00200 Y-0.80250
X1.00200 Y-0.80350
X1.00300 Y-0.80350
X1.00300 Y-0.80450
X1.00400 Y-0.80450
X1.00400 Y-0.80550
X1.00500 Y-0.80550
X1.00500 Y-0.80650
X1.00600 Y-0.80650
X1.00600 Y-0.80750
X1.00700 Y-0.80750
X1.00700 Y-0.80850
X1.00800 Y-0.80850
X1.00800 Y-0.80950
X1.00900 Y-0.80950
X1.00900 Y-0.81050
X1.01000 Y-0.81050
X1.01000 Y-0.81150
X1.01100 Y-0.81150
X1.01100 Y-0.81250
X1.01200 Y-0.81250
X1.01200 Y-0.81350
X1.01300 Y-0.81350
X1.01300 Y-0.81450
X1.01400 Y-0.81450
X1.01400 Y-0.81550
X1.01500 Y-0.81550
X1.01500 Y-0.81650
X1.01600 Y-0.81650
X1.01600 Y-0.81750
X1.01700 Y-0.81750
X1.01700 Y-0.81850
X1.01800 Y-0.81850
X1.01800 Y-0.81950
X1.01900 Y-0.81950
X1.01900 Y-0.82050
X1.02000 Y-0.82050
X1.02000 Y-0.82150
X1.02100 Y-0.82150
X1.02100 Y-0.82250
X1.08400 Y-0.82250
X1.08400 Y-0.79750
X1.09900 Y-0.79750
X1.09900 Y-0.74550
X1.10000 Y-0.74550
X1.10000 Y-0.74350
X1.10100 Y-0.74350
X1.10100 Y-0.74250
X1.10200 Y-0.74250
X1.10200 Y-0.74150
X1.10300 Y-0.74150
X1.10300 Y-0.74050
X1.10300 Y-0.74050
X1.10300 Y-0.68450
X1.13900 Y-0.68450
X1.13900 Y-0.68550
G04 P0 ( dwell for no time -- G64 should not smooth over this point )
G00 Z0.19685 ( retract )

G00 X1.55300 Y-0.72650 ( rapid move to begin. )
G01 Z-0.00394 F39.37008 ( plunge. )
G04 P0 ( dwell for no time -- G64 should not smooth over this point )
X1.55300 Y-0.72650
X1.55300 Y-0.76650
X1.55000 Y-0.76650
X1.55000 Y-0.78250
X1.54900 Y-0.78250
X1.54900 Y-0.78450
X1.54800 Y-0.78450
X1.54800 Y-0.78550
X1.54700 Y-0.78550
X1.54700 Y-0.78650
X1.54600 Y-0.78650
X1.54600 Y-0.78750
X1.54500 Y-0.78750
X1.54500 Y-0.78850
X1.54400 Y-0.78850
X1.54400 Y-0.78950
X1.54300 Y-0.78950
X1.54300 Y-0.79050
X1.54200 Y-0.79050
X1.54200 Y-0.79150
X1.54100 Y-0.79150
X1.54100 Y-0.79250
X1.54000 Y-0.79250
X1.54000 Y-0.79350
X1.53900 Y-0.79350
X1.53900 Y-0.79450
X1.53800 Y-0.79450
X1.53800 Y-0.79550
X1.53700 Y-0.79550
X1.53700 Y-0.79650
X1.53600 Y-0.79650
X1.53600 Y-0.79750
X1.53500 Y-0.79750
X1.53500 Y-0.79850
X1.53400 Y-0.79850
X1.53400 Y-0.79950
X1.39000 Y-0.79950
X1.39000 Y-0.79850
X1.38900 Y-0.79850
X1.38900 Y-0.79750
X1.38800 Y-0.79750
X1.38800 Y-0.79650
X1.38700 Y-0.79650
X1.38700 Y-0.79550
X1.38600 Y-0.79550
X1.38600 Y-0.79450
X1.38500 Y-0.79450
X1.38500 Y-0.79350
X1.38400 Y-0.79350
X1.38400 Y-0.79250
X1.38300 Y-0.79250
X1.38300 Y-0.79150
X1.38200 Y-0.79150
X1.38200 Y-0.79050
X1.38100 Y-0.79050
X1.38100 Y-0.78950
X1.38000 Y-0.78950
X1.38000 Y-0.78850
X1.37900 Y-0.78850
X1.37900 Y-0.78750
X1.37800 Y-0.78750
X1.37800 Y-0.78650
X1.37700 Y-0.78650
X1.37700 Y-0.78550
X1.37600 Y-0.78550
X1.37600 Y-0.78450
X1.37500 Y-0.78450
X1.37500 Y-0.78350
X1.37400 Y-0.78350
X1.37400 Y-0.78250
X1.37300 Y-0.78250
X1.37300 Y-0.78150
X1.35600 Y-0.78150
X1.35600 Y-0.79550
X1.30000 Y-0.79550
X1.30000 Y-0.75950
X1.35600 Y-0.75950
X1.35600 Y-0.77250
X1.37700 Y-0.77250
X1.37700 Y-0.77350
X1.37800 Y-0.77350
X1.37800 Y-0.77450
X1.37900 Y-0.77450
X1.37900 Y-0.77550
X1.38000 Y-0.77550
X1.38000 Y-0.77650
X1.38100 Y-0.77650
X1.38100 Y-0.77750
X1.38200 Y-0.77750
X1.38200 Y-0.77850
X1.38300 Y-0.77850
X1.38300 Y-0.77950
X1.38400 Y-0.77950
X1.38400 Y-0.78050
X1.38500 Y-0.78050
X1.38500 Y-0.78150
X1.38600 Y-0.78150
X1.38600 Y-0.78250
X1.38700 Y-0.78250
X1.38700 Y-0.78350
X1.38800 Y-0.78350
X1.38800 Y-0.78450
X1.38900 Y-0.78450
X1.38900 Y-0.78550
X1.39000 Y-0.78550
X1.39000 Y-0.78650
X1.39100 Y-0.78650
X1.39100 Y-0.78750
X1.39200 Y-0.78750
X1.39200 Y-0.78850
X1.39300 Y-0.78850
X1.39300 Y-0.78950
X1.39400 Y-0.78950
X1.39400 Y-0.79050
X1.53000 Y-0.79050
X1.53000 Y-0.78950
X1.53100 Y-0.78950
X1.53100 Y-0.78850
X1.53200 Y-0.78850
X1.53200 Y-0.78750
X1.53300 Y-0.78750
X1.53300 Y-0.78650
X1.53400 Y-0.78650
X1.53400 Y-0.78550
X1.53500 Y-0.78550
X1.53500 Y-0.78450
X1.53600 Y-0.78450
X1.53600 Y-0.78350
X1.53700 Y-0.78350
X1.53700 Y-0.78250
X1.53800 Y-0.78250
X1.53800 Y-0.78150
X1.53900 Y-0.78150
X1.53900 Y-0.78050
X1.54000 Y-0.78050
X1.54000 Y-0.77950
X1.54100 Y-0.77950
X1.54100 Y-0.76650
X1.53700 Y-0.76650
X1.53700 Y-0.72550
X1.55300 Y-0.72550
X1.55300 Y-0.72650
G04 P0 ( dwell for no time -- G64 should not smooth over this point )
G00 Z0.19685 ( retract )

G00 X1.69000 Y-0.76650 ( rapid move to begin. )
G01 Z-0.00394 F39.37008 ( plunge. )
G04 P0 ( dwell for no time -- G64 should not smooth over this point )
X1.69000 Y-0.76650
X1.69000 Y-0.84550
X1.68000 Y-0.84550
X1.68000 Y-0.86050
X1.67900 Y-0.86050
X1.67900 Y-0.86250
X1.67800 Y-0.86250
X1.67800 Y-0.86550
X1.67700 Y-0.86550
X1.67700 Y-0.86650
X1.67600 Y-0.86650
X1.67600 Y-0.86750
X1.67500 Y-0.86750
X1.67500 Y-0.86850
X1.67400 Y-0.86850
X1.67400 Y-0.86950
X1.67300 Y-0.86950
X1.67300 Y-0.87050
X1.67200 Y-0.87050
X1.67200 Y-0.87150
X1.67100 Y-0.87150
X1.67100 Y-0.87250
X1.67000 Y-0.87250
X1.67000 Y-0.87350
X1.66900 Y-0.87350
X1.66900 Y-0.87450
X1.66800 Y-0.87450
X1.66800 Y-0.87550
X1.66700 Y-0.87550
X1.66700 Y-0.87650
X1.66600 Y-0.87650
X1.66600 Y-0.87750
X1.66500 Y-0.87750
X1.66500 Y-0.87850
X1.66400 Y-0.87850
X1.66400 Y-0.87950
X1.66300 Y-0.87950
X1.66300 Y-0.88050
X1.66200 Y-0.88050
X1.66200 Y-0.88150
X1.66100 Y-0.88150
X1.66100 Y-0.88250
X1.66000 Y-0.88250
X1.66000 Y-0.88450
X1.65900 Y-0.88450
X1.65900 Y-0.88550
X1.65800 Y-0.88550
X1.65800 Y-0.88650
X1.65700 Y-0.88650
X1.65700 Y-0.88750
X1.65600 Y-0.88750
X1.65600 Y-0.88850
X1.65500 Y-0.88850
X1.65500 Y-0.88950
X1.65400 Y-0.88950
X1.65400 Y-0.89050
X1.65300 Y-0.89050
X1.65300 Y-0.89150
X1.65200 Y-0.89150
X1.65200 Y-0.89250
X1.65100 Y-0.89250
X1.65100 Y-0.89350
X1.65000 Y-0.89350
X1.65000 Y-0.89450
X1.64900 Y-0.89450
X1.64900 Y-0.89550
X1.64800 Y-0.89550
X1.64800 Y-0.89650
X1.64700 Y-0.89650
X1.64700 Y-0.89750
X1.64600 Y-0.89750
X1.64600 Y-0.89850
X1.64500 Y-0.89850
X1.64500 Y-0.89950
X1.64400 Y-0.89950
X1.64400 Y-0.90050
X1.64300 Y-0.90050
X1.64300 Y-0.90150
X1.64200 Y-0.90150
X1.64200 Y-0.90250
X1.64100 Y-0.90250
X1.64100 Y-0.90350
X1.64000 Y-0.90350
X1.64000 Y-0.90550
X1.63900 Y-0.90550
X1.63900 Y-0.90650
X1.63800 Y-0.90650
X1.63800 Y-0.90750
X1.63700 Y-0.90750
X1.63700 Y-0.90850
X1.63600 Y-0.90850
X1.63600 Y-0.90950
X1.63500 Y-0.90950
X1.63500 Y-0.91050
X1.63400 Y-0.91050
X1.63400 Y-0.91150
X1.63300 Y-0.91150
X1.63300 Y-0.91250
X1.63200 Y-0.91250
X1.63200 Y-0.91350
X1.63100 Y-0.91350
X1.63100 Y-0.91450
X1.63000 Y-0.91450
X1.63000 Y-0.91550
X1.62900 Y-0.91550
X1.62900 Y-0.91650
X1.62800 Y-0.91650
X1.62800 Y-0.91750
X1.62700 Y-0.91750
X1.62700 Y-0.91850
X1.62600 Y-0.91850
X1.62600 Y-0.91950
X1.62300 Y-0.91950
X1.62300 Y-0.92050
X1.62200 Y-0.92050
X1.62200 Y-1.14350
X1.62300 Y-1.14350
X1.62300 Y-1.14750
X1.62200 Y-1.14750
X1.62200 Y-1.14950
X1.62100 Y-1.14950
X1.62100 Y-1.15050
X1.62000 Y-1.15050
X1.62000 Y-1.15150
X1.61800 Y-1.15150
X1.61800 Y-1.15250
X1.61700 Y-1.15250
X1.61700 Y-1.15350
X1.61600 Y-1.15350
X1.61600 Y-1.15450
X1.61400 Y-1.15450
X1.61400 Y-1.15550
X1.61300 Y-1.15550
X1.61300 Y-1.15650
X1.61200 Y-1.15650
X1.61200 Y-1.15750
X1.61100 Y-1.15750
X1.61100 Y-1.15850
X1.60900 Y-1.15850
X1.60900 Y-1.15950
X1.53500 Y-1.15950
X1.53500 Y-1.16150
X1.53400 Y-1.16150
X1.53400 Y-1.16250
X1.53300 Y-1.16250
X1.53300 Y-1.16350
X1.53000 Y-1.16350
X1.53000 Y-1.16450
X1.52800 Y-1.16450
X1.52800 Y-1.16550
X1.52500 Y-1.16550
X1.52500 Y-1.16450
X1.52200 Y-1.16450
X1.52200 Y-1.16350
X1.52000 Y-1.16350
X1.52000 Y-1.16250
X1.51800 Y-1.16250
X1.51800 Y-1.16150
X1.51700 Y-1.16150
X1.51700 Y-1.16050
X1.51600 Y-1.16050
X1.51600 Y-1.15950
X1.51500 Y-1.15950
X1.51500 Y-1.15850
X1.51400 Y-1.15850
X1.51400 Y-1.15750
X1.51300 Y-1.15750
X1.51300 Y-1.15650
X1.51200 Y-1.15650
X1.51200 Y-1.15550
X1.51100 Y-1.15550
X1.51100 Y-1.15450
X1.51000 Y-1.15450
X1.51000 Y-1.15350
X1.50900 Y-1.15350
X1.50900 Y-1.15250
X1.50800 Y-1.15250
X1.50800 Y-1.15150
X1.50700 Y-1.15150
X1.50700 Y-1.15050
X1.50600 Y-1.15050
X1.50600 Y-1.14950
X1.50500 Y-1.14950
X1.50500 Y-1.14850
X1.50400 Y-1.14850
X1.50400 Y-1.14750
X1.50300 Y-1.14750
X1.50300 Y-1.14650
X1.50200 Y-1.14650
X1.50200 Y-1.14550
X1.50100 Y-1.14550
X1.50100 Y-1.14450
X1.50000 Y-1.14450
X1.50000 Y-1.14350
X1.49900 Y-1.14350
X1.49900 Y-1.14250
X1.49800 Y-1.14250
X1.49800 Y-1.14150
X1.49700 Y-1.14150
X1.49700 Y-1.14050
X1.49600 Y-1.14050
X1.49600 Y-1.13950
X1.49500 Y-1.13950
X1.49500 Y-1.13850
X1.49400 Y-1.13850
X1.49400 Y-1.13750
X1.49300 Y-1.13750
X1.49300 Y-1.13650
X1.49200 Y-1.13650
X1.49200 Y-1.13550
X1.49100 Y-1.13550
X1.49100 Y-1.13450
X1.49000 Y-1.13450
X1.49000 Y-1.13550
X1.48400 Y-1.13550
X1.48400 Y-1.13650
X1.47100 Y-1.13650
X1.47100 Y-1.13550
X1.46600 Y-1.13550
X1.46600 Y-1.13450
X1.46400 Y-1.13450
X1.46400 Y-1.13350
X1.46300 Y-1.13350
X1.46300 Y-1.13250
X1.46100 Y-1.13250
X1.46100 Y-1.13150
X1.45900 Y-1.13150
X1.45900 Y-1.13250
X1.45800 Y-1.13250
X1.45800 Y-1.13350
X1.45700 Y-1.13350
X1.45700 Y-1.13450
X1.45600 Y-1.13450
X1.45600 Y-1.13550
X1.45500 Y-1.13550
X1.45500 Y-1.13650
X1.45400 Y-1.13650
X1.45400 Y-1.13750
X1.45300 Y-1.13750
X1.45300 Y-1.13850
X1.45200 Y-1.13850
X1.45200 Y-1.13950
X1.45100 Y-1.13950
X1.45100 Y-1.14050
X1.45000 Y-1.14050
X1.45000 Y-1.14150
X1.44900 Y-1.14150
X1.44900 Y-1.14250
X1.44800 Y-1.14250
X1.44800 Y-1.14350
X1.44700 Y-1.14350
X1.44700 Y-1.14450
X1.44600 Y-1.14450
X1.44600 Y-1.14550
X1.44500 Y-1.14550
X1.44500 Y-1.14650
X1.44400 Y-1.14650
X1.44400 Y-1.14750
X1.44300 Y-1.14750
X1.44300 Y-1.14850
X1.44200 Y-1.14850
X1.44200 Y-1.14950
X1.44100 Y-1.14950
X1.44100 Y-1.15050
X1.44000 Y-1.15050
X1.44000 Y-1.15150
X1.43900 Y-1.15150
X1.43900 Y-1.15250
X1.43800 Y-1.15250
X1.43800 Y-1.15350
X1.43700 Y-1.15350
X1.43700 Y-1.15750
X1.43600 Y-1.15750
X1.43600 Y-1.15950
X1.43500 Y-1.15950
X1.43500 Y-1.16150
X1.43400 Y-1.16150
X1.43400 Y-1.16250
X1.43200 Y-1.16250
X1.43200 Y-1.16450
X1.43300 Y-1.16450
X1.43300 Y-1.18050
X1.43400 Y-1.18050
X1.43400 Y-1.19550
X1.43500 Y-1.19550
X1.43500 Y-1.21050
X1.43600 Y-1.21050
X1.43600 Y-1.22650
X1.43700 Y-1.22650
X1.43700 Y-1.24150
X1.43800 Y-1.24150
X1.43800 Y-1.25650
X1.43900 Y-1.25650
X1.43900 Y-1.27250
X1.44000 Y-1.27250
X1.44000 Y-1.28750
X1.44100 Y-1.28750
X1.44100 Y-1.30350
X1.44200 Y-1.30350
X1.44200 Y-1.31850
X1.44300 Y-1.31850
X1.44300 Y-1.33350
X1.44400 Y-1.33350
X1.44400 Y-1.34950
X1.44500 Y-1.34950
X1.44500 Y-1.35850
X1.44700 Y-1.35850
X1.44700 Y-1.35950
X1.44800 Y-1.35950
X1.44800 Y-1.36150
X1.44900 Y-1.36150
X1.44900 Y-1.36550
X1.45000 Y-1.36550
X1.45000 Y-1.36950
X1.45100 Y-1.36950
X1.45100 Y-1.37450
X1.45200 Y-1.37450
X1.45200 Y-1.37850
X1.45300 Y-1.37850
X1.45300 Y-1.38350
X1.45400 Y-1.38350
X1.45400 Y-1.38750
X1.45500 Y-1.38750
X1.45500 Y-1.39250
X1.45600 Y-1.39250
X1.45600 Y-1.39650
X1.45700 Y-1.39650
X1.45700 Y-1.40150
X1.45800 Y-1.40150
X1.45800 Y-1.40550
X1.45900 Y-1.40550
X1.45900 Y-1.41050
X1.46000 Y-1.41050
X1.46000 Y-1.41450
X1.46100 Y-1.41450
X1.46100 Y-1.41950
X1.46200 Y-1.41950
X1.46200 Y-1.42350
X1.46300 Y-1.42350
X1.46300 Y-1.42850
X1.46400 Y-1.42850
X1.46400 Y-1.43250
X1.46500 Y-1.43250
X1.46500 Y-1.43750
X1.46600 Y-1.43750
X1.46600 Y-1.44150
X1.46700 Y-1.44150
X1.46700 Y-1.44650
X1.46800 Y-1.44650
X1.46800 Y-1.45050
X1.46900 Y-1.45050
X1.46900 Y-1.45550
X1.47000 Y-1.45550
X1.47000 Y-1.45950
X1.47100 Y-1.45950
X1.47100 Y-1.46450
X1.47200 Y-1.46450
X1.47200 Y-1.46850
X1.47300 Y-1.46850
X1.47300 Y-1.47350
X1.47400 Y-1.47350
X1.47400 Y-1.47750
X1.47500 Y-1.47750
X1.47500 Y-1.48250
X1.47600 Y-1.48250
X1.47600 Y-1.48650
X1.47700 Y-1.48650
X1.47700 Y-1.49150
X1.47800 Y-1.49150
X1.47800 Y-1.49550
X1.47900 Y-1.49550
X1.47900 Y-1.50050
X1.48000 Y-1.50050
X1.48000 Y-1.50450
X1.48100 Y-1.50450
X1.48100 Y-1.51050
X1.48000 Y-1.51050
X1.48000 Y-1.51250
X1.47900 Y-1.51250
X1.47900 Y-1.51450
X1.47900 Y-1.51450
X1.47900 Y-1.52050
X1.48000 Y-1.52050
X1.48000 Y-1.52750
X1.48100 Y-1.52750
X1.48100 Y-1.53350
X1.48200 Y-1.53350
X1.48200 Y-1.54050
X1.48300 Y-1.54050
X1.48300 Y-1.54950
X1.48200 Y-1.54950
X1.48200 Y-1.55050
X1.48300 Y-1.55050
X1.48300 Y-1.55750
X1.48400 Y-1.55750
X1.48400 Y-1.56450
X1.48500 Y-1.56450
X1.48500 Y-1.58250
X1.48400 Y-1.58250
X1.48400 Y-1.60650
X1.48500 Y-1.60650
X1.48500 Y-1.60850
X1.48600 Y-1.60850
X1.48600 Y-1.60950
X1.48700 Y-1.60950
X1.48700 Y-1.61050
X1.48800 Y-1.61050
X1.48800 Y-1.61150
X1.48900 Y-1.61150
X1.48900 Y-1.61350
X1.49000 Y-1.61350
X1.49000 Y-1.61450
X1.49100 Y-1.61450
X1.49100 Y-1.61550
X1.49200 Y-1.61550
X1.49200 Y-1.61650
X1.49300 Y-1.61650
X1.49300 Y-1.61750
X1.49400 Y-1.61750
X1.49400 Y-1.61850
X1.49500 Y-1.61850
X1.49500 Y-1.62150
X1.49400 Y-1.62150
X1.49400 Y-1.62250
X1.49300 Y-1.62250
X1.49300 Y-1.62350
X1.49100 Y-1.62350
X1.49100 Y-1.62250
X1.49000 Y-1.62250
X1.49000 Y-1.62150
X1.48900 Y-1.62150
X1.48900 Y-1.62050
X1.48800 Y-1.62050
X1.48800 Y-1.61850
X1.48700 Y-1.61850
X1.48700 Y-1.61750
X1.48600 Y-1.61750
X1.48600 Y-1.61650
X1.48500 Y-1.61650
X1.48500 Y-1.61550
X1.48400 Y-1.61550
X1.48400 Y-1.61450
X1.48300 Y-1.61450
X1.48300 Y-1.61250
X1.48200 Y-1.61250
X1.48200 Y-1.61150
X1.48100 Y-1.61150
X1.48100 Y-1.61050
X1.48000 Y-1.61050
X1.48000 Y-1.57350
X1.47900 Y-1.57350
X1.47900 Y-1.56650
X1.47800 Y-1.56650
X1.47800 Y-1.55850
X1.47700 Y-1.55850
X1.47700 Y-1.55150
X1.47600 Y-1.55150
X1.47600 Y-1.54950
X1.47500 Y-1.54950
X1.47500 Y-1.54750
X1.47400 Y-1.54750
X1.47400 Y-1.54150
X1.47300 Y-1.54150
X1.47300 Y-1.53450
X1.47200 Y-1.53450
X1.47200 Y-1.52850
X1.47100 Y-1.52850
X1.47100 Y-1.52150
X1.47000 Y-1.52150
X1.47000 Y-1.51550
X1.46900 Y-1.51550
X1.46900 Y-1.51450
X1.46700 Y-1.51450
X1.46700 Y-1.51350
X1.46600 Y-1.51350
X1.46600 Y-1.51150
X1.46500 Y-1.51150
X1.46500 Y-1.50750
X1.46400 Y-1.50750
X1.46400 Y-1.50350
X1.46300 Y-1.50350
X1.46300 Y-1.49850
X1.46200 Y-1.49850
X1.46200 Y-1.49450
X1.46100 Y-1.49450
X1.46100 Y-1.48950
X1.46000 Y-1.48950
X1.46000 Y-1.48550
X1.45900 Y-1.48550
X1.45900 Y-1.48050
X1.45800 Y-1.48050
X1.45800 Y-1.47650
X1.45700 Y-1.47650
X1.45700 Y-1.47150
X1.45600 Y-1.47150
X1.45600 Y-1.46750
X1.45500 Y-1.46750
X1.45500 Y-1.46250
X1.45400 Y-1.46250
X1.45400 Y-1.45850
X1.45300 Y-1.45850
X1.45300 Y-1.45350
X1.45200 Y-1.45350
X1.45200 Y-1.44950
X1.45100 Y-1.44950
X1.45100 Y-1.44450
X1.45000 Y-1.44450
X1.45000 Y-1.44050
X1.44900 Y-1.44050
X1.44900 Y-1.43550
X1.44800 Y-1.43550
X1.44800 Y-1.43150
X1.44700 Y-1.43150
X1.44700 Y-1.42650
X1.44600 Y-1.42650
X1.44600 Y-1.42250
X1.44500 Y-1.42250
X1.44500 Y-1.41750
X1.44400 Y-1.41750
X1.44400 Y-1.41350
X1.44300 Y-1.41350
X1.44300 Y-1.40850
X1.44200 Y-1.40850
X1.44200 Y-1.40450
X1.44100 Y-1.40450
X1.44100 Y-1.39950
X1.44000 Y-1.39950
X1.44000 Y-1.39550
X1.43900 Y-1.39550
X1.43900 Y-1.39050
X1.43800 Y-1.39050
X1.43800 Y-1.38650
X1.43700 Y-1.38650
X1.43700 Y-1.38150
X1.43600 Y-1.38150
X1.43600 Y-1.37750
X1.43500 Y-1.37750
X1.43500 Y-1.37250
X1.43400 Y-1.37250
X1.43400 Y-1.36850
X1.43300 Y-1.36850
X1.43300 Y-1.36250
X1.43400 Y-1.36250
X1.43400 Y-1.36050
X1.43500 Y-1.36050
X1.43500 Y-1.35850
X1.43600 Y-1.35850
X1.43600 Y-1.34850
X1.43500 Y-1.34850
X1.43500 Y-1.33350
X1.43400 Y-1.33350
X1.43400 Y-1.31850
X1.43300 Y-1.31850
X1.43300 Y-1.30250
X1.43200 Y-1.30250
X1.43200 Y-1.28750
X1.43100 Y-1.28750
X1.43100 Y-1.27250
X1.43000 Y-1.27250
X1.43000 Y-1.25650
X1.42900 Y-1.25650
X1.42900 Y-1.24150
X1.42800 Y-1.24150
X1.42800 Y-1.22550
X1.42700 Y-1.22550
X1.42700 Y-1.21050
X1.42600 Y-1.21050
X1.42600 Y-1.19550
X1.42500 Y-1.19550
X1.42500 Y-1.17950
X1.42400 Y-1.17950
X1.42400 Y-1.16450
X1.42300 Y-1.16450
X1.42300 Y-1.16250
X1.42100 Y-1.16250
X1.42100 Y-1.15950
X1.14100 Y-1.15950
X1.14100 Y-1.15850
X1.14000 Y-1.15850
X1.14000 Y-1.15750
X1.13900 Y-1.15750
X1.13900 Y-1.15650
X1.13800 Y-1.15650
X1.13800 Y-1.15550
X1.13700 Y-1.15550
X1.13700 Y-1.15450
X1.13600 Y-1.15450
X1.13600 Y-1.15350
X1.13500 Y-1.15350
X1.13500 Y-1.15250
X1.13400 Y-1.15250
X1.13400 Y-1.15150
X1.01000 Y-1.15150
X1.01000 Y-1.15250
X1.00900 Y-1.15250
X1.00900 Y-1.15350
X1.00800 Y-1.15350
X1.00800 Y-1.15450
X1.00700 Y-1.15450
X1.00700 Y-1.15550
X1.00600 Y-1.15550
X1.00600 Y-1.15650
X1.00500 Y-1.15650
X1.00500 Y-1.15750
X1.00400 Y-1.15750
X1.00400 Y-1.15850
X1.00300 Y-1.15850
X1.00300 Y-1.15950
X1.00200 Y-1.15950
X1.00200 Y-1.16050
X1.00100 Y-1.16050
X1.00100 Y-1.16150
X1.00000 Y-1.16150
X1.00000 Y-1.16250
X0.99900 Y-1.16250
X0.99900 Y-1.16350
X0.99800 Y-1.16350
X0.99800 Y-1.16450
X0.99700 Y-1.16450
X0.99700 Y-1.16550
X0.99600 Y-1.16550
X0.99600 Y-1.16650
X0.99500 Y-1.16650
X0.99500 Y-1.16750
X0.99400 Y-1.16750
X0.99400 Y-1.16850
X0.99300 Y-1.16850
X0.99300 Y-1.16950
X0.99200 Y-1.16950
X0.99200 Y-1.17050
X0.99100 Y-1.17050
X0.99100 Y-1.17150
X0.99000 Y-1.17150
X0.99000 Y-1.17250
X0.98900 Y-1.17250
X0.98900 Y-1.17350
X0.98800 Y-1.17350
X0.98800 Y-1.17450
X0.98700 Y-1.17450
X0.98700 Y-1.17550
X0.98600 Y-1.17550
X0.98600 Y-1.17650
X0.98500 Y-1.17650
X0.98500 Y-1.17750
X0.98400 Y-1.17750
X0.98400 Y-1.17850
X0.98300 Y-1.17850
X0.98300 Y-1.17950
X0.98200 Y-1.17950
X0.98200 Y-1.18050
X0.98100 Y-1.18050
X0.98100 Y-1.18150
X0.98000 Y-1.18150
X0.98000 Y-1.66850
X0.98100 Y-1.66850
X0.98100 Y-1.66950
X0.98200 Y-1.66950
X0.98200 Y-1.67050
X0.98300 Y-1.67050
X0.98300 Y-1.67150
X0.98400 Y-1.67150
X0.98400 Y-1.67250
X0.98500 Y-1.67250
X0.98500 Y-1.67350
X0.98600 Y-1.67350
X0.98600 Y-1.67450
X0.98700 Y-1.67450
X0.98700 Y-1.67550
X0.98800 Y-1.67550
X0.98800 Y-1.67650
X0.98900 Y-1.67650
X0.98900 Y-1.67750
X0.99000 Y-1.67750
X0.99000 Y-1.67850
X0.99100 Y-1.67850
X0.99100 Y-1.67950
X0.99200 Y-1.67950
X0.99200 Y-1.68050
X0.99300 Y-1.68050
X0.99300 Y-1.68150
X0.99400 Y-1.68150
X0.99400 Y-1.68250
X0.99500 Y-1.68250
X0.99500 Y-1.68350
X0.99600 Y-1.68350
X0.99600 Y-1.68450
X1.10600 Y-1.68450
X1.10600 Y-1.67150
X1.16200 Y-1.67150
X1.16200 Y-1.68650
X1.19900 Y-1.68650
X1.19900 Y-1.67350
X1.25500 Y-1.67350
X1.25500 Y-1.70950
X1.19900 Y-1.70950
X1.19900 Y-1.69550
X1.16200 Y-1.69550
X1.16200 Y-1.70750
X1.10600 Y-1.70750
X1.10600 Y-1.69350
X0.99200 Y-1.69350
X0.99200 Y-1.69250
X0.99100 Y-1.69250
X0.99100 Y-1.69150
X0.99000 Y-1.69150
X0.99000 Y-1.69050
X0.98900 Y-1.69050
X0.98900 Y-1.68950
X0.98800 Y-1.68950
X0.98800 Y-1.68850
X0.98700 Y-1.68850
X0.98700 Y-1.68750
X0.98600 Y-1.68750
X0.98600 Y-1.68650
X0.98500 Y-1.68650
X0.98500 Y-1.68550
X0.98400 Y-1.68550
X0.98400 Y-1.68450
X0.98300 Y-1.68450
X0.98300 Y-1.68350
X0.98200 Y-1.68350
X0.98200 Y-1.68250
X0.98100 Y-1.68250
X0.98100 Y-1.68150
X0.98000 Y-1.68150
X0.98000 Y-1.68050
X0.97900 Y-1.68050
X0.97900 Y-1.67950
X0.97800 Y-1.67950
X0.97800 Y-1.67850
X0.97700 Y-1.67850
X0.97700 Y-1.67750
X0.97600 Y-1.67750
X0.97600 Y-1.67650
X0.97500 Y-1.67650
X0.97500 Y-1.67550
X0.97400 Y-1.67550
X0.97400 Y-1.67450
X0.97300 Y-1.67450
X0.97300 Y-1.67250
X0.97200 Y-1.67250
X0.97200 Y-1.17650
X0.97300 Y-1.17650
X0.97300 Y-1.17550
X0.97400 Y-1.17550
X0.97400 Y-1.17450
X0.97500 Y-1.17450
X0.97500 Y-1.17350
X0.97600 Y-1.17350
X0.97600 Y-1.17250
X0.97700 Y-1.17250
X0.97700 Y-1.17150
X0.97800 Y-1.17150
X0.97800 Y-1.17050
X0.97900 Y-1.17050
X0.97900 Y-1.16950
X0.98000 Y-1.16950
X0.98000 Y-1.16850
X0.98100 Y-1.16850
X0.98100 Y-1.16750
X0.98200 Y-1.16750
X0.98200 Y-1.16650
X0.98300 Y-1.16650
X0.98300 Y-1.16550
X0.98400 Y-1.16550
X0.98400 Y-1.16450
X0.98500 Y-1.16450
X0.98500 Y-1.16350
X0.98600 Y-1.16350
X0.98600 Y-1.16250
X0.98700 Y-1.16250
X0.98700 Y-1.16150
X0.98800 Y-1.16150
X0.98800 Y-1.16050
X0.98900 Y-1.16050
X0.98900 Y-1.15950
X0.99000 Y-1.15950
X0.99000 Y-1.15850
X0.99100 Y-1.15850
X0.99100 Y-1.15750
X0.99200 Y-1.15750
X0.99200 Y-1.15650
X0.99300 Y-1.15650
X0.99300 Y-1.15550
X0.99400 Y-1.15550
X0.99400 Y-1.15450
X0.99500 Y-1.15450
X0.99500 Y-1.15350
X0.99600 Y-1.15350
X0.99600 Y-1.15250
X0.99700 Y-1.15250
X0.99700 Y-1.15150
X0.99800 Y-1.15150
X0.99800 Y-1.15050
X0.99900 Y-1.15050
X0.99900 Y-1.14950
X1.00000 Y-1.14950
X1.00000 Y-1.14850
X1.00100 Y-1.14850
X1.00100 Y-1.14750
X1.00200 Y-1.14750
X1.00200 Y-1.14650
X1.00300 Y-1.14650
X1.00300 Y-1.14550
X1.00400 Y-1.14550
X1.00400 Y-1.14450
X1.00500 Y-1.14450
X1.00500 Y-1.14350
X1.13900 Y-1.14350
X1.13900 Y-1.14450
X1.14000 Y-1.14450
X1.14000 Y-1.14550
X1.14100 Y-1.14550
X1.14100 Y-1.14650
X1.14200 Y-1.14650
X1.14200 Y-1.14750
X1.14300 Y-1.14750
X1.14300 Y-1.14850
X1.14400 Y-1.14850
X1.14400 Y-1.14950
X1.14500 Y-1.14950
X1.14500 Y-1.15050
X1.42300 Y-1.15050
X1.42300 Y-1.14950
X1.42400 Y-1.14950
X1.42400 Y-1.14850
X1.42700 Y-1.14850
X1.42700 Y-1.14750
X1.43100 Y-1.14750
X1.43100 Y-1.14650
X1.43200 Y-1.14650
X1.43200 Y-1.14550
X1.43300 Y-1.14550
X1.43300 Y-1.14450
X1.43400 Y-1.14450
X1.43400 Y-1.14350
X1.43500 Y-1.14350
X1.43500 Y-1.14250
X1.43600 Y-1.14250
X1.43600 Y-1.14150
X1.43700 Y-1.14150
X1.43700 Y-1.14050
X1.43800 Y-1.14050
X1.43800 Y-1.13950
X1.43900 Y-1.13950
X1.43900 Y-1.13850
X1.44000 Y-1.13850
X1.44000 Y-1.13750
X1.44100 Y-1.13750
X1.44100 Y-1.13650
X1.44200 Y-1.13650
X1.44200 Y-1.13550
X1.44300 Y-1.13550
X1.44300 Y-1.13450
X1.44400 Y-1.13450
X1.44400 Y-1.13350
X1.44500 Y-1.13350
X1.44500 Y-1.13250
X1.44600 Y-1.13250
X1.44600 Y-1.13150
X1.44700 Y-1.13150
X1.44700 Y-1.13050
X1.44800 Y-1.13050
X1.44800 Y-1.12950
X1.44900 Y-1.12950
X1.44900 Y-1.12850
X1.45000 Y-1.12850
X1.45000 Y-1.12750
X1.45100 Y-1.12750
X1.45100 Y-1.12650
X1.45200 Y-1.12650
X1.45200 Y-1.12550
X1.45300 Y-1.12550
X1.45300 Y-1.12350
X1.45200 Y-1.12350
X1.45200 Y-1.12250
X1.45100 Y-1.12250
X1.45100 Y-1.12050
X1.45000 Y-1.12050
X1.45000 Y-1.11850
X1.44900 Y-1.11850
X1.44900 Y-1.11350
X1.44800 Y-1.11350
X1.44800 Y-1.10850
X1.44700 Y-1.10850
X1.44700 Y-1.10450
X1.44800 Y-1.10450
X1.44800 Y-1.09950
X1.44900 Y-1.09950
X1.44900 Y-1.09450
X1.45000 Y-1.09450
X1.45000 Y-1.09250
X1.45100 Y-1.09250
X1.45100 Y-1.09050
X1.45200 Y-1.09050
X1.45200 Y-1.08950
X1.45300 Y-1.08950
X1.45300 Y-1.08750
X1.45400 Y-1.08750
X1.45400 Y-1.08650
X1.45500 Y-1.08650
X1.45500 Y-1.08550
X1.45600 Y-1.08550
X1.45600 Y-1.08350
X1.45800 Y-1.08350
X1.45800 Y-1.08250
X1.45900 Y-1.08250
X1.45900 Y-1.08150
X1.46100 Y-1.08150
X1.46100 Y-1.08050
X1.46300 Y-1.08050
X1.46300 Y-1.07950
X1.46400 Y-1.07950
X1.46400 Y-1.07850
X1.46600 Y-1.07850
X1.46600 Y-1.07750
X1.47100 Y-1.07750
X1.47100 Y-1.07650
X1.47300 Y-1.07650
X1.47300 Y-1.04150
X1.47400 Y-1.04150
X1.47400 Y-1.03950
X1.47500 Y-1.03950
X1.47500 Y-1.03850
X1.47600 Y-1.03850
X1.47600 Y-1.03750
X1.47700 Y-1.03750
X1.47700 Y-1.03650
X1.47800 Y-1.03650
X1.47800 Y-1.03550
X1.47900 Y-1.03550
X1.47900 Y-1.03450
X1.48000 Y-1.03450
X1.48000 Y-1.03350
X1.48100 Y-1.03350
X1.48100 Y-1.03250
X1.48200 Y-1.03250
X1.48200 Y-1.03150
X1.48300 Y-1.03150
X1.48300 Y-1.03050
X1.48400 Y-1.03050
X1.48400 Y-1.02950
X1.48500 Y-1.02950
X1.48500 Y-1.02850
X1.48600 Y-1.02850
X1.48600 Y-1.02750
X1.48700 Y-1.02750
X1.48700 Y-1.02650
X1.48800 Y-1.02650
X1.48800 Y-1.02550
X1.48900 Y-1.02550
X1.48900 Y-1.02450
X1.49000 Y-1.02450
X1.49000 Y-1.02350
X1.49100 Y-1.02350
X1.49100 Y-1.02250
X1.49200 Y-1.02250
X1.49200 Y-1.02150
X1.49300 Y-1.02150
X1.49300 Y-1.02050
X1.49400 Y-1.02050
X1.49400 Y-1.01950
X1.49500 Y-1.01950
X1.49500 Y-1.01850
X1.49600 Y-1.01850
X1.49600 Y-1.01750
X1.49700 Y-1.01750
X1.49700 Y-1.01650
X1.49800 Y-1.01650
X1.49800 Y-1.01550
X1.49900 Y-1.01550
X1.49900 Y-1.01450
X1.50000 Y-1.01450
X1.50000 Y-1.01350
X1.50100 Y-1.01350
X1.50100 Y-1.01250
X1.50200 Y-1.01250
X1.50200 Y-0.94250
X1.37400 Y-0.94250
X1.37400 Y-0.94150
X1.37300 Y-0.94150
X1.37300 Y-0.94050
X1.37200 Y-0.94050
X1.37200 Y-0.93950
X1.37100 Y-0.93950
X1.37100 Y-0.93850
X1.37000 Y-0.93850
X1.37000 Y-0.93750
X1.36900 Y-0.93750
X1.36900 Y-0.93650
X1.36800 Y-0.93650
X1.36800 Y-0.93550
X1.36700 Y-0.93550
X1.36700 Y-0.93450
X1.36600 Y-0.93450
X1.36600 Y-0.93350
X1.36500 Y-0.93350
X1.36500 Y-0.93250
X1.36400 Y-0.93250
X1.36400 Y-0.93150
X1.36300 Y-0.93150
X1.36300 Y-0.93050
X1.36200 Y-0.93050
X1.36200 Y-0.92950
X1.36100 Y-0.92950
X1.36100 Y-0.92850
X1.36000 Y-0.92850
X1.36000 Y-0.92750
X1.35900 Y-0.92750
X1.35900 Y-0.92650
X1.35800 Y-0.92650
X1.35800 Y-0.92550
X1.35700 Y-0.92550
X1.35700 Y-0.92450
X1.35600 Y-0.92450
X1.35600 Y-0.92350
X1.35500 Y-0.92350
X1.35500 Y-0.92250
X1.35400 Y-0.92250
X1.35400 Y-0.92150
X1.35300 Y-0.92150
X1.35300 Y-0.92050
X1.35200 Y-0.92050
X1.35200 Y-0.91950
X1.35100 Y-0.91950
X1.35100 Y-0.91850
X1.35000 Y-0.91850
X1.35000 Y-0.91750
X1.34900 Y-0.91750
X1.34900 Y-0.91650
X1.34800 Y-0.91650
X1.34800 Y-0.91550
X1.34700 Y-0.91550
X1.34700 Y-0.91450
X1.34600 Y-0.91450
X1.34600 Y-0.91350
X1.34500 Y-0.91350
X1.34500 Y-0.91250
X1.34400 Y-0.91250
X1.34400 Y-0.91150
X1.34300 Y-0.91150
X1.34300 Y-0.91050
X1.34200 Y-0.91050
X1.34200 Y-0.90950
X1.34100 Y-0.90950
X1.34100 Y-0.90850
X1.34000 Y-0.90850
X1.34000 Y-0.90750
X1.33900 Y-0.90750
X1.33900 Y-0.90650
X1.33800 Y-0.90650
X1.33800 Y-0.90550
X1.33700 Y-0.90550
X1.33700 Y-0.90450
X1.33600 Y-0.90450
X1.33600 Y-0.90350
X1.33500 Y-0.90350
X1.33500 Y-0.90250
X1.33400 Y-0.90250
X1.33400 Y-0.90150
X1.33300 Y-0.90150
X1.33300 Y-0.90050
X1.33200 Y-0.90050
X1.33200 Y-0.89950
X1.33100 Y-0.89950
X1.33100 Y-0.89850
X1.33000 Y-0.89850
X1.33000 Y-0.89750
X1.32900 Y-0.89750
X1.32900 Y-0.89650
X1.32800 Y-0.89650
X1.32800 Y-0.89550
X1.32700 Y-0.89550
X1.32700 Y-0.89450
X1.32600 Y-0.89450
X1.32600 Y-0.89350
X1.32500 Y-0.89350
X1.32500 Y-0.89150
X1.32400 Y-0.89150
X1.32400 Y-0.87050
X1.30000 Y-0.87050
X1.30000 Y-0.85650
X1.24200 Y-0.85650
X1.24200 Y-0.87750
X1.20200 Y-0.87750
X1.20200 Y-0.79750
X1.24200 Y-0.79750
X1.24200 Y-0.84750
X1.30000 Y-0.84750
X1.30000 Y-0.83450
X1.35600 Y-0.83450
X1.35600 Y-0.87050
X1.33200 Y-0.87050
X1.33200 Y-0.88750
X1.33300 Y-0.88750
X1.33300 Y-0.88850
X1.33400 Y-0.88850
X1.33400 Y-0.88950
X1.33500 Y-0.88950
X1.33500 Y-0.89050
X1.33600 Y-0.89050
X1.33600 Y-0.89150
X1.33700 Y-0.89150
X1.33700 Y-0.89250
X1.33800 Y-0.89250
X1.33800 Y-0.89350
X1.33900 Y-0.89350
X1.33900 Y-0.89450
X1.34000 Y-0.89450
X1.34000 Y-0.89550
X1.34100 Y-0.89550
X1.34100 Y-0.89650
X1.34200 Y-0.89650
X1.34200 Y-0.89750
X1.34300 Y-0.89750
X1.34300 Y-0.89850
X1.34400 Y-0.89850
X1.34400 Y-0.89950
X1.34500 Y-0.89950
X1.34500 Y-0.90050
X1.34600 Y-0.90050
X1.34600 Y-0.90150
X1.34700 Y-0.90150
X1.34700 Y-0.90250
X1.34800 Y-0.90250
X1.34800 Y-0.90350
X1.34900 Y-0.90350
X1.34900 Y-0.90450
X1.35000 Y-0.90450
X1.35000 Y-0.90550
X1.35100 Y-0.90550
X1.35100 Y-0.90650
X1.35200 Y-0.90650
X1.35200 Y-0.90750
X1.35300 Y-0.90750
X1.35300 Y-0.90850
X1.35400 Y-0.90850
X1.35400 Y-0.90950
X1.35500 Y-0.90950
X1.35500 Y-0.91050
X1.35600 Y-0.91050
X1.35600 Y-0.91150
X1.35700 Y-0.91150
X1.35700 Y-0.91250
X1.35800 Y-0.91250
X1.35800 Y-0.91350
X1.35900 Y-0.91350
X1.35900 Y-0.91450
X1.36000 Y-0.91450
X1.36000 Y-0.91550
X1.36100 Y-0.91550
X1.36100 Y-0.91650
X1.36200 Y-0.91650
X1.36200 Y-0.91750
X1.36300 Y-0.91750
X1.36300 Y-0.91850
X1.36400 Y-0.91850
X1.36400 Y-0.91950
X1.36500 Y-0.91950
X1.36500 Y-0.92050
X1.36600 Y-0.92050
X1.36600 Y-0.92150
X1.36700 Y-0.92150
X1.36700 Y-0.92250
X1.36800 Y-0.92250
X1.36800 Y-0.92350
X1.36900 Y-0.92350
X1.36900 Y-0.92450
X1.37000 Y-0.92450
X1.37000 Y-0.92550
X1.37100 Y-0.92550
X1.37100 Y-0.92650
X1.37200 Y-0.92650
X1.37200 Y-0.92750
X1.37300 Y-0.92750
X1.37300 Y-0.92850
X1.37400 Y-0.92850
X1.37400 Y-0.92950
X1.37500 Y-0.92950
X1.37500 Y-0.93050
X1.37600 Y-0.93050
X1.37600 Y-0.93150
X1.37700 Y-0.93150
X1.37700 Y-0.93250
X1.37800 Y-0.93250
X1.37800 Y-0.93350
X1.50200 Y-0.93350
X1.50200 Y-0.88750
X1.49900 Y-0.88750
X1.49900 Y-0.84750
X1.51500 Y-0.84750
X1.51500 Y-0.88750
X1.51100 Y-0.88750
X1.51100 Y-1.01650
X1.51000 Y-1.01650
X1.51000 Y-1.01750
X1.50900 Y-1.01750
X1.50900 Y-1.01850
X1.50800 Y-1.01850
X1.50800 Y-1.01950
X1.50700 Y-1.01950
X1.50700 Y-1.02050
X1.50600 Y-1.02050
X1.50600 Y-1.02150
X1.50500 Y-1.02150
X1.50500 Y-1.02250
X1.50400 Y-1.02250
X1.50400 Y-1.02350
X1.50300 Y-1.02350
X1.50300 Y-1.02450
X1.50200 Y-1.02450
X1.50200 Y-1.02550
X1.50100 Y-1.02550
X1.50100 Y-1.02650
X1.50000 Y-1.02650
X1.50000 Y-1.02750
X1.49900 Y-1.02750
X1.49900 Y-1.02850
X1.49800 Y-1.02850
X1.49800 Y-1.02950
X1.49700 Y-1.02950
X1.49700 Y-1.03050
X1.49600 Y-1.03050
X1.49600 Y-1.03150
X1.49500 Y-1.03150
X1.49500 Y-1.03250
X1.49400 Y-1.03250
X1.49400 Y-1.03350
X1.49300 Y-1.03350
X1.49300 Y-1.03450
X1.49200 Y-1.03450
X1.49200 Y-1.03550
X1.49100 Y-1.03550
X1.49100 Y-1.03650
X1.49000 Y-1.03650
X1.49000 Y-1.03750
X1.48900 Y-1.03750
X1.48900 Y-1.03850
X1.48800 Y-1.03850
X1.48800 Y-1.03950
X1.48700 Y-1.03950
X1.48700 Y-1.04050
X1.48600 Y-1.04050
X1.48600 Y-1.04150
X1.48500 Y-1.04150
X1.48500 Y-1.04250
X1.48400 Y-1.04250
X1.48400 Y-1.04350
X1.48300 Y-1.04350
X1.48300 Y-1.04450
X1.48200 Y-1.04450
X1.48200 Y-1.07650
X1.48400 Y-1.07650
X1.48400 Y-1.07750
X1.49000 Y-1.07750
X1.49000 Y-1.07850
X1.49100 Y-1.07850
X1.49100 Y-1.07950
X1.49300 Y-1.07950
X1.49300 Y-1.08050
X1.49500 Y-1.08050
X1.49500 Y-1.08150
X1.49600 Y-1.08150
X1.49600 Y-1.08250
X1.49800 Y-1.08250
X1.49800 Y-1.08350
X1.49900 Y-1.08350
X1.49900 Y-1.08450
X1.50000 Y-1.08450
X1.50000 Y-1.08550
X1.50100 Y-1.08550
X1.50100 Y-1.08750
X1.50200 Y-1.08750
X1.50200 Y-1.08850
X1.50300 Y-1.08850
X1.50300 Y-1.08950
X1.50400 Y-1.08950
X1.50400 Y-1.09150
X1.50500 Y-1.09150
X1.50500 Y-1.09250
X1.50600 Y-1.09250
X1.50600 Y-1.09650
X1.50700 Y-1.09650
X1.50700 Y-1.10150
X1.50800 Y-1.10150
X1.50800 Y-1.11150
X1.50700 Y-1.11150
X1.50700 Y-1.11650
X1.50600 Y-1.11650
X1.50600 Y-1.12050
X1.50700 Y-1.12050
X1.50700 Y-1.12150
X1.50800 Y-1.12150
X1.50800 Y-1.12250
X1.50900 Y-1.12250
X1.50900 Y-1.12350
X1.51000 Y-1.12350
X1.51000 Y-1.12450
X1.51100 Y-1.12450
X1.51100 Y-1.12550
X1.51200 Y-1.12550
X1.51200 Y-1.12650
X1.51300 Y-1.12650
X1.51300 Y-1.12750
X1.51400 Y-1.12750
X1.51400 Y-1.12850
X1.51500 Y-1.12850
X1.51500 Y-1.12950
X1.51600 Y-1.12950
X1.51600 Y-1.13050
X1.51700 Y-1.13050
X1.51700 Y-1.13150
X1.51800 Y-1.13150
X1.51800 Y-1.13250
X1.51900 Y-1.13250
X1.51900 Y-1.13350
X1.52000 Y-1.13350
X1.52000 Y-1.13450
X1.52100 Y-1.13450
X1.52100 Y-1.13550
X1.52200 Y-1.13550
X1.52200 Y-1.13650
X1.52300 Y-1.13650
X1.52300 Y-1.13750
X1.52400 Y-1.13750
X1.52400 Y-1.13850
X1.52500 Y-1.13850
X1.52500 Y-1.13950
X1.52600 Y-1.13950
X1.52600 Y-1.14050
X1.52700 Y-1.14050
X1.52700 Y-1.14150
X1.52800 Y-1.14150
X1.52800 Y-1.14250
X1.52900 Y-1.14250
X1.52900 Y-1.14350
X1.53000 Y-1.14350
X1.53000 Y-1.14450
X1.53100 Y-1.14450
X1.53100 Y-1.14550
X1.53200 Y-1.14550
X1.53200 Y-1.14650
X1.53300 Y-1.14650
X1.53300 Y-1.14750
X1.53400 Y-1.14750
X1.53400 Y-1.14850
X1.53500 Y-1.14850
X1.53500 Y-1.15050
X1.60600 Y-1.15050
X1.60600 Y-1.14950
X1.60700 Y-1.14950
X1.60700 Y-1.14850
X1.60800 Y-1.14850
X1.60800 Y-1.14750
X1.61000 Y-1.14750
X1.61000 Y-1.14650
X1.61100 Y-1.14650
X1.61100 Y-1.14550
X1.61200 Y-1.14550
X1.61200 Y-1.14450
X1.61300 Y-1.14450
X1.61300 Y-1.14350
X1.61500 Y-1.14350
X1.61500 Y-1.14250
X1.61600 Y-1.14250
X1.61600 Y-0.92050
X1.61500 Y-0.92050
X1.61500 Y-0.91950
X1.61200 Y-0.91950
X1.61200 Y-0.91850
X1.61100 Y-0.91850
X1.61100 Y-0.91650
X1.61000 Y-0.91650
X1.61000 Y-0.91350
X1.60900 Y-0.91350
X1.60900 Y-0.90850
X1.61000 Y-0.90850
X1.61000 Y-0.90550
X1.61100 Y-0.90550
X1.61100 Y-0.90350
X1.61200 Y-0.90350
X1.61200 Y-0.90250
X1.61300 Y-0.90250
X1.61300 Y-0.90150
X1.61400 Y-0.90150
X1.61400 Y-0.90050
X1.61500 Y-0.90050
X1.61500 Y-0.89950
X1.61600 Y-0.89950
X1.61600 Y-0.89850
X1.61700 Y-0.89850
X1.61700 Y-0.89750
X1.61800 Y-0.89750
X1.61800 Y-0.89650
X1.61900 Y-0.89650
X1.61900 Y-0.89450
X1.62000 Y-0.89450
X1.62000 Y-0.89350
X1.62100 Y-0.89350
X1.62100 Y-0.89250
X1.62200 Y-0.89250
X1.62200 Y-0.89150
X1.62300 Y-0.89150
X1.62300 Y-0.89050
X1.62400 Y-0.89050
X1.62400 Y-0.88950
X1.62500 Y-0.88950
X1.62500 Y-0.88850
X1.62600 Y-0.88850
X1.62600 Y-0.88750
X1.62700 Y-0.88750
X1.62700 Y-0.88650
X1.62800 Y-0.88650
X1.62800 Y-0.88550
X1.62900 Y-0.88550
X1.62900 Y-0.88450
X1.63000 Y-0.88450
X1.63000 Y-0.88350
X1.63100 Y-0.88350
X1.63100 Y-0.88250
X1.63200 Y-0.88250
X1.63200 Y-0.88150
X1.63300 Y-0.88150
X1.63300 Y-0.88050
X1.63400 Y-0.88050
X1.63400 Y-0.87950
X1.63500 Y-0.87950
X1.63500 Y-0.87850
X1.63600 Y-0.87850
X1.63600 Y-0.87750
X1.63700 Y-0.87750
X1.63700 Y-0.87650
X1.63800 Y-0.87650
X1.63800 Y-0.87550
X1.63900 Y-0.87550
X1.63900 Y-0.87350
X1.64000 Y-0.87350
X1.64000 Y-0.87250
X1.64100 Y-0.87250
X1.64100 Y-0.87150
X1.64200 Y-0.87150
X1.64200 Y-0.87050
X1.64300 Y-0.87050
X1.64300 Y-0.86950
X1.64400 Y-0.86950
X1.64400 Y-0.86850
X1.64500 Y-0.86850
X1.64500 Y-0.86750
X1.64600 Y-0.86750
X1.64600 Y-0.86650
X1.64700 Y-0.86650
X1.64700 Y-0.86550
X1.64800 Y-0.86550
X1.64800 Y-0.86450
X1.64900 Y-0.86450
X1.64900 Y-0.86350
X1.65000 Y-0.86350
X1.65000 Y-0.86250
X1.65100 Y-0.86250
X1.65100 Y-0.86150
X1.65200 Y-0.86150
X1.65200 Y-0.86050
X1.65300 Y-0.86050
X1.65300 Y-0.85950
X1.65400 Y-0.85950
X1.65400 Y-0.85850
X1.65500 Y-0.85850
X1.65500 Y-0.85750
X1.65600 Y-0.85750
X1.65600 Y-0.85650
X1.65700 Y-0.85650
X1.65700 Y-0.85550
X1.65800 Y-0.85550
X1.65800 Y-0.85450
X1.65900 Y-0.85450
X1.65900 Y-0.84550
X1.65000 Y-0.84550
X1.65000 Y-0.76550
X1.69000 Y-0.76550
X1.69000 Y-0.76650
G04 P0 ( dwell for no time -- G64 should not smooth over this point )
G00 Z0.19685 ( retract )

G00 X1.54000 Y-0.81850 ( rapid move to begin. )
G01 Z-0.00394 F39.37008 ( plunge. )
G04 P0 ( dwell for no time -- G64 should not smooth over this point )
X1.54000 Y-0.81850
X1.54200 Y-0.81850
X1.54200 Y-0.81950
X1.54400 Y-0.81950
X1.54400 Y-0.82050
X1.54500 Y-0.82050
X1.54500 Y-0.82150
X1.54700 Y-0.82150
X1.54700 Y-0.82250
X1.54800 Y-0.82250
X1.54800 Y-0.82450
X1.54900 Y-0.82450
X1.54900 Y-0.84650
X1.55300 Y-0.84650
X1.55300 Y-0.86850
X1.55400 Y-0.86850
X1.55400 Y-0.86950
X1.55500 Y-0.86950
X1.55500 Y-0.87050
X1.55600 Y-0.87050
X1.55600 Y-0.87150
X1.55700 Y-0.87150
X1.55700 Y-0.87250
X1.55800 Y-0.87250
X1.55800 Y-0.87350
X1.55900 Y-0.87350
X1.55900 Y-0.87450
X1.56000 Y-0.87450
X1.56000 Y-0.87550
X1.56100 Y-0.87550
X1.56100 Y-0.87650
X1.56200 Y-0.87650
X1.56200 Y-0.87750
X1.56300 Y-0.87750
X1.56300 Y-0.87850
X1.56400 Y-0.87850
X1.56400 Y-0.87950
X1.56500 Y-0.87950
X1.56500 Y-0.88050
X1.56600 Y-0.88050
X1.56600 Y-0.88150
X1.56700 Y-0.88150
X1.56700 Y-0.88250
X1.56800 Y-0.88250
X1.56800 Y-0.88350
X1.56900 Y-0.88350
X1.56900 Y-0.88450
X1.57000 Y-0.88450
X1.57000 Y-0.88550
X1.57100 Y-0.88550
X1.57100 Y-0.88650
X1.57200 Y-0.88650
X1.57200 Y-0.88750
X1.57300 Y-0.88750
X1.57300 Y-0.88850
X1.57400 Y-0.88850
X1.57400 Y-0.88950
X1.57500 Y-0.88950
X1.57500 Y-0.89050
X1.57600 Y-0.89050
X1.57600 Y-0.89150
X1.57700 Y-0.89150
X1.57700 Y-0.89250
X1.57800 Y-0.89250
X1.57800 Y-0.89350
X1.57900 Y-0.89350
X1.57900 Y-0.89450
X1.58000 Y-0.89450
X1.58000 Y-0.89550
X1.58100 Y-0.89550
X1.58100 Y-0.89750
X1.58200 Y-0.89750
X1.58200 Y-1.07850
X1.58700 Y-1.07850
X1.58700 Y-1.07950
X1.59000 Y-1.07950
X1.59000 Y-1.08050
X1.59200 Y-1.08050
X1.59200 Y-1.08150
X1.59400 Y-1.08150
X1.59400 Y-1.08250
X1.59500 Y-1.08250
X1.59500 Y-1.08350
X1.59700 Y-1.08350
X1.59700 Y-1.08450
X1.59900 Y-1.08450
X1.59900 Y-1.08650
X1.60000 Y-1.08650
X1.60000 Y-1.08750
X1.60100 Y-1.08750
X1.60100 Y-1.08950
X1.60200 Y-1.08950
X1.60200 Y-1.09050
X1.60300 Y-1.09050
X1.60300 Y-1.09150
X1.60400 Y-1.09150
X1.60400 Y-1.09350
X1.60500 Y-1.09350
X1.60500 Y-1.09550
X1.60600 Y-1.09550
X1.60600 Y-1.10050
X1.60700 Y-1.10050
X1.60700 Y-1.10550
X1.60800 Y-1.10550
X1.60800 Y-1.11050
X1.60700 Y-1.11050
X1.60700 Y-1.11550
X1.60600 Y-1.11550
X1.60600 Y-1.12050
X1.60500 Y-1.12050
X1.60500 Y-1.12250
X1.60400 Y-1.12250
X1.60400 Y-1.12450
X1.60300 Y-1.12450
X1.60300 Y-1.12550
X1.60200 Y-1.12550
X1.60200 Y-1.12650
X1.60100 Y-1.12650
X1.60100 Y-1.12850
X1.60000 Y-1.12850
X1.60000 Y-1.12950
X1.59900 Y-1.12950
X1.59900 Y-1.13050
X1.59800 Y-1.13050
X1.59800 Y-1.13150
X1.59700 Y-1.13150
X1.59700 Y-1.13250
X1.59500 Y-1.13250
X1.59500 Y-1.13350
X1.59300 Y-1.13350
X1.59300 Y-1.13450
X1.59200 Y-1.13450
X1.59200 Y-1.13550
X1.59000 Y-1.13550
X1.59000 Y-1.13650
X1.58600 Y-1.13650
X1.58600 Y-1.13750
X1.58000 Y-1.13750
X1.58000 Y-1.13850
X1.57500 Y-1.13850
X1.57500 Y-1.13750
X1.56900 Y-1.13750
X1.56900 Y-1.13650
X1.56500 Y-1.13650
X1.56500 Y-1.13550
X1.56300 Y-1.13550
X1.56300 Y-1.13450
X1.56200 Y-1.13450
X1.56200 Y-1.13350
X1.56000 Y-1.13350
X1.56000 Y-1.13250
X1.55800 Y-1.13250
X1.55800 Y-1.13150
X1.55600 Y-1.13150
X1.55600 Y-1.12950
X1.55500 Y-1.12950
X1.55500 Y-1.12850
X1.55400 Y-1.12850
X1.55400 Y-1.12750
X1.55300 Y-1.12750
X1.55300 Y-1.12550
X1.55200 Y-1.12550
X1.55200 Y-1.12450
X1.55100 Y-1.12450
X1.55100 Y-1.12250
X1.55000 Y-1.12250
X1.55000 Y-1.12150
X1.54900 Y-1.12150
X1.54900 Y-1.11650
X1.54800 Y-1.11650
X1.54800 Y-1.11150
X1.54700 Y-1.11150
X1.54700 Y-1.10450
X1.54800 Y-1.10450
X1.54800 Y-1.09950
X1.54900 Y-1.09950
X1.54900 Y-1.09450
X1.55000 Y-1.09450
X1.55000 Y-1.09250
X1.55100 Y-1.09250
X1.55100 Y-1.09150
X1.55200 Y-1.09150
X1.55200 Y-1.09050
X1.55300 Y-1.09050
X1.55300 Y-1.08850
X1.55400 Y-1.08850
X1.55400 Y-1.08750
X1.55500 Y-1.08750
X1.55500 Y-1.08550
X1.55600 Y-1.08550
X1.55600 Y-1.08450
X1.55800 Y-1.08450
X1.55800 Y-1.08350
X1.56000 Y-1.08350
X1.56000 Y-1.08250
X1.56100 Y-1.08250
X1.56100 Y-1.08150
X1.56300 Y-1.08150
X1.56300 Y-1.08050
X1.56500 Y-1.08050
X1.56500 Y-1.07950
X1.56700 Y-1.07950
X1.56700 Y-1.07850
X1.57300 Y-1.07850
X1.57300 Y-0.90050
X1.57200 Y-0.90050
X1.57200 Y-0.89950
X1.57100 Y-0.89950
X1.57100 Y-0.89850
X1.57000 Y-0.89850
X1.57000 Y-0.89750
X1.56900 Y-0.89750
X1.56900 Y-0.89650
X1.56800 Y-0.89650
X1.56800 Y-0.89550
X1.56700 Y-0.89550
X1.56700 Y-0.89450
X1.56600 Y-0.89450
X1.56600 Y-0.89350
X1.56500 Y-0.89350
X1.56500 Y-0.89250
X1.56400 Y-0.89250
X1.56400 Y-0.89150
X1.56300 Y-0.89150
X1.56300 Y-0.89050
X1.56200 Y-0.89050
X1.56200 Y-0.88950
X1.56100 Y-0.88950
X1.56100 Y-0.88850
X1.56000 Y-0.88850
X1.56000 Y-0.88750
X1.55900 Y-0.88750
X1.55900 Y-0.88650
X1.55800 Y-0.88650
X1.55800 Y-0.88550
X1.55700 Y-0.88550
X1.55700 Y-0.88450
X1.55600 Y-0.88450
X1.55600 Y-0.88350
X1.55500 Y-0.88350
X1.55500 Y-0.88250
X1.55400 Y-0.88250
X1.55400 Y-0.88150
X1.55300 Y-0.88150
X1.55300 Y-0.88650
X1.53700 Y-0.88650
X1.53700 Y-0.84650
X1.54000 Y-0.84650
X1.54000 Y-0.82850
X1.53900 Y-0.82850
X1.53900 Y-0.82750
X1.53700 Y-0.82750
X1.53700 Y-0.82650
X1.47800 Y-0.82650
X1.47800 Y-0.82750
X1.47400 Y-0.82750
X1.47400 Y-0.82850
X1.47300 Y-0.82850
X1.47300 Y-0.84650
X1.47700 Y-0.84650
X1.47700 Y-0.88650
X1.46000 Y-0.88650
X1.46000 Y-0.84650
X1.46400 Y-0.84650
X1.46400 Y-0.83150
X1.46500 Y-0.83150
X1.46500 Y-0.82250
X1.46600 Y-0.82250
X1.46600 Y-0.82050
X1.46800 Y-0.82050
X1.46800 Y-0.81950
X1.47200 Y-0.81950
X1.47200 Y-0.81850
X1.47700 Y-0.81850
X1.47700 Y-0.81750
X1.54000 Y-0.81750
X1.54000 Y-0.81850
G04 P0 ( dwell for no time -- G64 should not smooth over this point )
G00 Z0.19685 ( retract )

G00 X1.26000 Y-0.93650 ( rapid move to begin. )
G01 Z-0.00394 F39.37008 ( plunge. )
G04 P0 ( dwell for no time -- G64 should not smooth over this point )
X1.26000 Y-0.93650
X1.26300 Y-0.93650
X1.26300 Y-0.93750
X1.26500 Y-0.93750
X1.26500 Y-0.93850
X1.26600 Y-0.93850
X1.26600 Y-0.93950
X1.26800 Y-0.93950
X1.26800 Y-0.94050
X1.26900 Y-0.94050
X1.26900 Y-0.94150
X1.27000 Y-0.94150
X1.27000 Y-0.94250
X1.27100 Y-0.94250
X1.27100 Y-0.94350
X1.27300 Y-0.94350
X1.27300 Y-0.94450
X1.27400 Y-0.94450
X1.27400 Y-0.94550
X1.27500 Y-0.94550
X1.27500 Y-0.94650
X1.27600 Y-0.94650
X1.27600 Y-0.94750
X1.27800 Y-0.94750
X1.27800 Y-0.94850
X1.27900 Y-0.94850
X1.27900 Y-0.94950
X1.28000 Y-0.94950
X1.28000 Y-0.95050
X1.28100 Y-0.95050
X1.28100 Y-0.95150
X1.28200 Y-0.95150
X1.28200 Y-0.95250
X1.28400 Y-0.95250
X1.28400 Y-0.95350
X1.28500 Y-0.95350
X1.28500 Y-0.95450
X1.28600 Y-0.95450
X1.28600 Y-0.95550
X1.28700 Y-0.95550
X1.28700 Y-0.95650
X1.28900 Y-0.95650
X1.28900 Y-0.95750
X1.29000 Y-0.95750
X1.29000 Y-0.95850
X1.29100 Y-0.95850
X1.29100 Y-0.95950
X1.29200 Y-0.95950
X1.29200 Y-0.96050
X1.29400 Y-0.96050
X1.29400 Y-0.96150
X1.29500 Y-0.96150
X1.29500 Y-0.96250
X1.29600 Y-0.96250
X1.29600 Y-0.96350
X1.29700 Y-0.96350
X1.29700 Y-0.96450
X1.29900 Y-0.96450
X1.29900 Y-0.96550
X1.30000 Y-0.96550
X1.30000 Y-0.96650
X1.30100 Y-0.96650
X1.30100 Y-0.96750
X1.30200 Y-0.96750
X1.30200 Y-0.96850
X1.30300 Y-0.96850
X1.30300 Y-0.96950
X1.30500 Y-0.96950
X1.30500 Y-0.97050
X1.30600 Y-0.97050
X1.30600 Y-0.97150
X1.30700 Y-0.97150
X1.30700 Y-0.97250
X1.30800 Y-0.97250
X1.30800 Y-0.97350
X1.31000 Y-0.97350
X1.31000 Y-0.97450
X1.31100 Y-0.97450
X1.31100 Y-0.97550
X1.31200 Y-0.97550
X1.31200 Y-0.97650
X1.31300 Y-0.97650
X1.31300 Y-0.97750
X1.31500 Y-0.97750
X1.31500 Y-0.97850
X1.31600 Y-0.97850
X1.31600 Y-0.97950
X1.31700 Y-0.97950
X1.31700 Y-0.98050
X1.31800 Y-0.98050
X1.31800 Y-0.98150
X1.32000 Y-0.98150
X1.32000 Y-0.98250
X1.32100 Y-0.98250
X1.32100 Y-0.98350
X1.32200 Y-0.98350
X1.32200 Y-0.98450
X1.32300 Y-0.98450
X1.32300 Y-0.98550
X1.32500 Y-0.98550
X1.32500 Y-0.98650
X1.32600 Y-0.98650
X1.32600 Y-0.98750
X1.32700 Y-0.98750
X1.32700 Y-0.98850
X1.32800 Y-0.98850
X1.32800 Y-0.98950
X1.32900 Y-0.98950
X1.32900 Y-0.99050
X1.33100 Y-0.99050
X1.33100 Y-0.99150
X1.33200 Y-0.99150
X1.33200 Y-0.99250
X1.33300 Y-0.99250
X1.33300 Y-0.99350
X1.33400 Y-0.99350
X1.33400 Y-0.99450
X1.33600 Y-0.99450
X1.33600 Y-0.99550
X1.33700 Y-0.99550
X1.33700 Y-0.99650
X1.33800 Y-0.99650
X1.33800 Y-0.99750
X1.33900 Y-0.99750
X1.33900 Y-0.99850
X1.34100 Y-0.99850
X1.34100 Y-0.99950
X1.34200 Y-0.99950
X1.34200 Y-1.00050
X1.34300 Y-1.00050
X1.34300 Y-1.00150
X1.34400 Y-1.00150
X1.34400 Y-1.00250
X1.34600 Y-1.00250
X1.34600 Y-1.00350
X1.34700 Y-1.00350
X1.34700 Y-1.00450
X1.34800 Y-1.00450
X1.34800 Y-1.00550
X1.34900 Y-1.00550
X1.34900 Y-1.00650
X1.35100 Y-1.00650
X1.35100 Y-1.00750
X1.35200 Y-1.00750
X1.35200 Y-1.00850
X1.35300 Y-1.00850
X1.35300 Y-1.00950
X1.35400 Y-1.00950
X1.35400 Y-1.01050
X1.35500 Y-1.01050
X1.35500 Y-1.01150
X1.35700 Y-1.01150
X1.35700 Y-1.01250
X1.35800 Y-1.01250
X1.35800 Y-1.01350
X1.35900 Y-1.01350
X1.35900 Y-1.01450
X1.36000 Y-1.01450
X1.36000 Y-1.01550
X1.36200 Y-1.01550
X1.36200 Y-1.01650
X1.36300 Y-1.01650
X1.36300 Y-1.01750
X1.36400 Y-1.01750
X1.36400 Y-1.01850
X1.36500 Y-1.01850
X1.36500 Y-1.01950
X1.36700 Y-1.01950
X1.36700 Y-1.02050
X1.36800 Y-1.02050
X1.36800 Y-1.02150
X1.36900 Y-1.02150
X1.36900 Y-1.02250
X1.37000 Y-1.02250
X1.37000 Y-1.02350
X1.37200 Y-1.02350
X1.37200 Y-1.02450
X1.37300 Y-1.02450
X1.37300 Y-1.02550
X1.37400 Y-1.02550
X1.37400 Y-1.02650
X1.37500 Y-1.02650
X1.37500 Y-1.02750
X1.37700 Y-1.02750
X1.37700 Y-1.02850
X1.37800 Y-1.02850
X1.37800 Y-1.02950
X1.37900 Y-1.02950
X1.37900 Y-1.03050
X1.38000 Y-1.03050
X1.38000 Y-1.03150
X1.38100 Y-1.03150
X1.38100 Y-1.03250
X1.38300 Y-1.03250
X1.38300 Y-1.03350
X1.38400 Y-1.03350
X1.38400 Y-1.03450
X1.38500 Y-1.03450
X1.38500 Y-1.03550
X1.38600 Y-1.03550
X1.38600 Y-1.03750
X1.38700 Y-1.03750
X1.38700 Y-1.04050
X1.38800 Y-1.04050
X1.38800 Y-1.07750
X1.39000 Y-1.07750
X1.39000 Y-1.07850
X1.39100 Y-1.07850
X1.39100 Y-1.07950
X1.39300 Y-1.07950
X1.39300 Y-1.08050
X1.39500 Y-1.08050
X1.39500 Y-1.08150
X1.39600 Y-1.08150
X1.39600 Y-1.08250
X1.39800 Y-1.08250
X1.39800 Y-1.08350
X1.39900 Y-1.08350
X1.39900 Y-1.08450
X1.40000 Y-1.08450
X1.40000 Y-1.08550
X1.40100 Y-1.08550
X1.40100 Y-1.08750
X1.40200 Y-1.08750
X1.40200 Y-1.08850
X1.40300 Y-1.08850
X1.40300 Y-1.08950
X1.40400 Y-1.08950
X1.40400 Y-1.09150
X1.40500 Y-1.09150
X1.40500 Y-1.09250
X1.40600 Y-1.09250
X1.40600 Y-1.09650
X1.40700 Y-1.09650
X1.40700 Y-1.10150
X1.40800 Y-1.10150
X1.40800 Y-1.11150
X1.40700 Y-1.11150
X1.40700 Y-1.11650
X1.40600 Y-1.11650
X1.40600 Y-1.12050
X1.40500 Y-1.12050
X1.40500 Y-1.12150
X1.40400 Y-1.12150
X1.40400 Y-1.12350
X1.40300 Y-1.12350
X1.40300 Y-1.12450
X1.40200 Y-1.12450
X1.40200 Y-1.12550
X1.40100 Y-1.12550
X1.40100 Y-1.12750
X1.40000 Y-1.12750
X1.40000 Y-1.12850
X1.39900 Y-1.12850
X1.39900 Y-1.12950
X1.39800 Y-1.12950
X1.39800 Y-1.13050
X1.39600 Y-1.13050
X1.39600 Y-1.13150
X1.39500 Y-1.13150
X1.39500 Y-1.13250
X1.39300 Y-1.13250
X1.39300 Y-1.13350
X1.39100 Y-1.13350
X1.39100 Y-1.13450
X1.39000 Y-1.13450
X1.39000 Y-1.13550
X1.38400 Y-1.13550
X1.38400 Y-1.13650
X1.37100 Y-1.13650
X1.37100 Y-1.13550
X1.36600 Y-1.13550
X1.36600 Y-1.13450
X1.36400 Y-1.13450
X1.36400 Y-1.13350
X1.36300 Y-1.13350
X1.36300 Y-1.13250
X1.36100 Y-1.13250
X1.36100 Y-1.13150
X1.35900 Y-1.13150
X1.35900 Y-1.13050
X1.35800 Y-1.13050
X1.35800 Y-1.12950
X1.35600 Y-1.12950
X1.35600 Y-1.12750
X1.35500 Y-1.12750
X1.35500 Y-1.12650
X1.35400 Y-1.12650
X1.35400 Y-1.12550
X1.35300 Y-1.12550
X1.35300 Y-1.12350
X1.35200 Y-1.12350
X1.35200 Y-1.12250
X1.35100 Y-1.12250
X1.35100 Y-1.12050
X1.35000 Y-1.12050
X1.35000 Y-1.11850
X1.34900 Y-1.11850
X1.34900 Y-1.11350
X1.34800 Y-1.11350
X1.34800 Y-1.10850
X1.34700 Y-1.10850
X1.34700 Y-1.10450
X1.34800 Y-1.10450
X1.34800 Y-1.09950
X1.34900 Y-1.09950
X1.34900 Y-1.09450
X1.35000 Y-1.09450
X1.35000 Y-1.09250
X1.35100 Y-1.09250
X1.35100 Y-1.09050
X1.35200 Y-1.09050
X1.35200 Y-1.08950
X1.35300 Y-1.08950
X1.35300 Y-1.08750
X1.35400 Y-1.08750
X1.35400 Y-1.08650
X1.35500 Y-1.08650
X1.35500 Y-1.08550
X1.35600 Y-1.08550
X1.35600 Y-1.08350
X1.35800 Y-1.08350
X1.35800 Y-1.08250
X1.35900 Y-1.08250
X1.35900 Y-1.08150
X1.36100 Y-1.08150
X1.36100 Y-1.08050
X1.36300 Y-1.08050
X1.36300 Y-1.07950
X1.36400 Y-1.07950
X1.36400 Y-1.07850
X1.36600 Y-1.07850
X1.36600 Y-1.07750
X1.36700 Y-1.07750
X1.36700 Y-1.04750
X1.36600 Y-1.04750
X1.36600 Y-1.04650
X1.36500 Y-1.04650
X1.36500 Y-1.04550
X1.36300 Y-1.04550
X1.36300 Y-1.04450
X1.36200 Y-1.04450
X1.36200 Y-1.04350
X1.36100 Y-1.04350
X1.36100 Y-1.04250
X1.36000 Y-1.04250
X1.36000 Y-1.04150
X1.35900 Y-1.04150
X1.35900 Y-1.04050
X1.35700 Y-1.04050
X1.35700 Y-1.03950
X1.35600 Y-1.03950
X1.35600 Y-1.03850
X1.35500 Y-1.03850
X1.35500 Y-1.03750
X1.35400 Y-1.03750
X1.35400 Y-1.03650
X1.35200 Y-1.03650
X1.35200 Y-1.03550
X1.35100 Y-1.03550
X1.35100 Y-1.03450
X1.35000 Y-1.03450
X1.35000 Y-1.03350
X1.34900 Y-1.03350
X1.34900 Y-1.03250
X1.34700 Y-1.03250
X1.34700 Y-1.03150
X1.34600 Y-1.03150
X1.34600 Y-1.03050
X1.34500 Y-1.03050
X1.34500 Y-1.02950
X1.34400 Y-1.02950
X1.34400 Y-1.02850
X1.34200 Y-1.02850
X1.34200 Y-1.02750
X1.34100 Y-1.02750
X1.34100 Y-1.02650
X1.34000 Y-1.02650
X1.34000 Y-1.02550
X1.33900 Y-1.02550
X1.33900 Y-1.02450
X1.33800 Y-1.02450
X1.33800 Y-1.02350
X1.33600 Y-1.02350
X1.33600 Y-1.02250
X1.33500 Y-1.02250
X1.33500 Y-1.02150
X1.33400 Y-1.02150
X1.33400 Y-1.02050
X1.33300 Y-1.02050
X1.33300 Y-1.01950
X1.33100 Y-1.01950
X1.33100 Y-1.01850
X1.33000 Y-1.01850
X1.33000 Y-1.01750
X1.32900 Y-1.01750
X1.32900 Y-1.01650
X1.32800 Y-1.01650
X1.32800 Y-1.01550
X1.32600 Y-1.01550
X1.32600 Y-1.01450
X1.32500 Y-1.01450
X1.32500 Y-1.01350
X1.32400 Y-1.01350
X1.32400 Y-1.01250
X1.32300 Y-1.01250
X1.32300 Y-1.01150
X1.32100 Y-1.01150
X1.32100 Y-1.01050
X1.32000 Y-1.01050
X1.32000 Y-1.00950
X1.31900 Y-1.00950
X1.31900 Y-1.00850
X1.31800 Y-1.00850
X1.31800 Y-1.00750
X1.31600 Y-1.00750
X1.31600 Y-1.00650
X1.31500 Y-1.00650
X1.31500 Y-1.00550
X1.31400 Y-1.00550
X1.31400 Y-1.00450
X1.31300 Y-1.00450
X1.31300 Y-1.00350
X1.31200 Y-1.00350
X1.31200 Y-1.00250
X1.31000 Y-1.00250
X1.31000 Y-1.00150
X1.30900 Y-1.00150
X1.30900 Y-1.00050
X1.30800 Y-1.00050
X1.30800 Y-0.99950
X1.30700 Y-0.99950
X1.30700 Y-0.99850
X1.30500 Y-0.99850
X1.30500 Y-0.99750
X1.30400 Y-0.99750
X1.30400 Y-0.99650
X1.30300 Y-0.99650
X1.30300 Y-0.99550
X1.30200 Y-0.99550
X1.30200 Y-0.99450
X1.30000 Y-0.99450
X1.30000 Y-0.99350
X1.29900 Y-0.99350
X1.29900 Y-0.99250
X1.29800 Y-0.99250
X1.29800 Y-0.99150
X1.29700 Y-0.99150
X1.29700 Y-0.99050
X1.29500 Y-0.99050
X1.29500 Y-0.98950
X1.29400 Y-0.98950
X1.29400 Y-0.98850
X1.29300 Y-0.98850
X1.29300 Y-0.98750
X1.29200 Y-0.98750
X1.29200 Y-0.98650
X1.29000 Y-0.98650
X1.29000 Y-0.98550
X1.28900 Y-0.98550
X1.28900 Y-0.98450
X1.28800 Y-0.98450
X1.28800 Y-0.98350
X1.28700 Y-0.98350
X1.28700 Y-0.98250
X1.28600 Y-0.98250
X1.28600 Y-0.98150
X1.28400 Y-0.98150
X1.28400 Y-0.98050
X1.28300 Y-0.98050
X1.28300 Y-0.97950
X1.28200 Y-0.97950
X1.28200 Y-0.97850
X1.28100 Y-0.97850
X1.28100 Y-0.97750
X1.27900 Y-0.97750
X1.27900 Y-0.97650
X1.27800 Y-0.97650
X1.27800 Y-0.97550
X1.27700 Y-0.97550
X1.27700 Y-0.97450
X1.27600 Y-0.97450
X1.27600 Y-0.97350
X1.27400 Y-0.97350
X1.27400 Y-0.97250
X1.27300 Y-0.97250
X1.27300 Y-0.97150
X1.27200 Y-0.97150
X1.27200 Y-0.97050
X1.27100 Y-0.97050
X1.27100 Y-0.96950
X1.26900 Y-0.96950
X1.26900 Y-0.96850
X1.26800 Y-0.96850
X1.26800 Y-0.96750
X1.26700 Y-0.96750
X1.26700 Y-0.96650
X1.26600 Y-0.96650
X1.26600 Y-0.96550
X1.26400 Y-0.96550
X1.26400 Y-0.96450
X1.26300 Y-0.96450
X1.26300 Y-0.96350
X1.26200 Y-0.96350
X1.26200 Y-0.96250
X1.26100 Y-0.96250
X1.26100 Y-0.96150
X1.26000 Y-0.96150
X1.26000 Y-0.96050
X1.25800 Y-0.96050
X1.25800 Y-0.95950
X1.25700 Y-0.95950
X1.25700 Y-0.95850
X1.25600 Y-0.95850
X1.25600 Y-0.95750
X1.25500 Y-0.95750
X1.25500 Y-0.95650
X0.94200 Y-0.95650
X0.94200 Y-0.95750
X0.94100 Y-0.95750
X0.94100 Y-0.95850
X0.94000 Y-0.95850
X0.94000 Y-0.95950
X0.93800 Y-0.95950
X0.93800 Y-0.96050
X0.93700 Y-0.96050
X0.93700 Y-0.96150
X0.93500 Y-0.96150
X0.93500 Y-0.96250
X0.93400 Y-0.96250
X0.93400 Y-0.96350
X0.93300 Y-0.96350
X0.93300 Y-0.96450
X0.93100 Y-0.96450
X0.93100 Y-0.96550
X0.93000 Y-0.96550
X0.93000 Y-0.96650
X0.92800 Y-0.96650
X0.92800 Y-0.96750
X0.92700 Y-0.96750
X0.92700 Y-0.96850
X0.92500 Y-0.96850
X0.92500 Y-0.96950
X0.92400 Y-0.96950
X0.92400 Y-0.97050
X0.92300 Y-0.97050
X0.92300 Y-0.97150
X0.92100 Y-0.97150
X0.92100 Y-0.97250
X0.92000 Y-0.97250
X0.92000 Y-0.97350
X0.91800 Y-0.97350
X0.91800 Y-0.97450
X0.91700 Y-0.97450
X0.91700 Y-0.97550
X0.91600 Y-0.97550
X0.91600 Y-0.97650
X0.91400 Y-0.97650
X0.91400 Y-0.97750
X0.91300 Y-0.97750
X0.91300 Y-0.97850
X0.91100 Y-0.97850
X0.91100 Y-0.97950
X0.91000 Y-0.97950
X0.91000 Y-0.98050
X0.90800 Y-0.98050
X0.90800 Y-0.98150
X0.90700 Y-0.98150
X0.90700 Y-0.98250
X0.90600 Y-0.98250
X0.90600 Y-0.98350
X0.90400 Y-0.98350
X0.90400 Y-0.98450
X0.90300 Y-0.98450
X0.90300 Y-0.98550
X0.90100 Y-0.98550
X0.90100 Y-0.98650
X0.90000 Y-0.98650
X0.90000 Y-0.98750
X0.89900 Y-0.98750
X0.89900 Y-0.98850
X0.89700 Y-0.98850
X0.89700 Y-0.98950
X0.89600 Y-0.98950
X0.89600 Y-0.99050
X0.89400 Y-0.99050
X0.89400 Y-0.99150
X0.89300 Y-0.99150
X0.89300 Y-0.99250
X0.89100 Y-0.99250
X0.89100 Y-0.99350
X0.89000 Y-0.99350
X0.89000 Y-0.99450
X0.88900 Y-0.99450
X0.88900 Y-0.99550
X0.88700 Y-0.99550
X0.88700 Y-0.99650
X0.88600 Y-0.99650
X0.88600 Y-0.99750
X0.88400 Y-0.99750
X0.88400 Y-0.99850
X0.88300 Y-0.99850
X0.88300 Y-0.99950
X0.88200 Y-0.99950
X0.88200 Y-1.00050
X0.88000 Y-1.00050
X0.88000 Y-1.00150
X0.87900 Y-1.00150
X0.87900 Y-1.00250
X0.87700 Y-1.00250
X0.87700 Y-1.00350
X0.87600 Y-1.00350
X0.87600 Y-1.00450
X0.87400 Y-1.00450
X0.87400 Y-1.00550
X0.87300 Y-1.00550
X0.87300 Y-1.00650
X0.87200 Y-1.00650
X0.87200 Y-1.00750
X0.87000 Y-1.00750
X0.87000 Y-1.00850
X0.86900 Y-1.00850
X0.86900 Y-1.00950
X0.86700 Y-1.00950
X0.86700 Y-1.01050
X0.86600 Y-1.01050
X0.86600 Y-1.01150
X0.86400 Y-1.01150
X0.86400 Y-1.01250
X0.86300 Y-1.01250
X0.86300 Y-1.01350
X0.86200 Y-1.01350
X0.86200 Y-1.01450
X0.86000 Y-1.01450
X0.86000 Y-1.01550
X0.85900 Y-1.01550
X0.85900 Y-1.01650
X0.85700 Y-1.01650
X0.85700 Y-1.01750
X0.85600 Y-1.01750
X0.85600 Y-1.01850
X0.85500 Y-1.01850
X0.85500 Y-1.01950
X0.85300 Y-1.01950
X0.85300 Y-1.02050
X0.85200 Y-1.02050
X0.85200 Y-1.02150
X0.85000 Y-1.02150
X0.85000 Y-1.02250
X0.84900 Y-1.02250
X0.84900 Y-1.02350
X0.84700 Y-1.02350
X0.84700 Y-1.02450
X0.84600 Y-1.02450
X0.84600 Y-1.02550
X0.84500 Y-1.02550
X0.84500 Y-1.02650
X0.84300 Y-1.02650
X0.84300 Y-1.02750
X0.84200 Y-1.02750
X0.84200 Y-1.02850
X0.84000 Y-1.02850
X0.84000 Y-1.02950
X0.83900 Y-1.02950
X0.83900 Y-1.03050
X0.83800 Y-1.03050
X0.83800 Y-1.03150
X0.83600 Y-1.03150
X0.83600 Y-1.03250
X0.83500 Y-1.03250
X0.83500 Y-1.03350
X0.83300 Y-1.03350
X0.83300 Y-1.03450
X0.83200 Y-1.03450
X0.83200 Y-1.03550
X0.83000 Y-1.03550
X0.83000 Y-1.03650
X0.82900 Y-1.03650
X0.82900 Y-1.03750
X0.82800 Y-1.03750
X0.82800 Y-1.03850
X0.82600 Y-1.03850
X0.82600 Y-1.03950
X0.82500 Y-1.03950
X0.82500 Y-1.04050
X0.82300 Y-1.04050
X0.82300 Y-1.04150
X0.82200 Y-1.04150
X0.82200 Y-1.04250
X0.82100 Y-1.04250
X0.82100 Y-1.04350
X0.81900 Y-1.04350
X0.81900 Y-1.04450
X0.81800 Y-1.04450
X0.81800 Y-1.04550
X0.81600 Y-1.04550
X0.81600 Y-1.04650
X0.81500 Y-1.04650
X0.81500 Y-1.04750
X0.81300 Y-1.04750
X0.81300 Y-1.04850
X0.81200 Y-1.04850
X0.81200 Y-1.04950
X0.81100 Y-1.04950
X0.81100 Y-1.05050
X0.80900 Y-1.05050
X0.80900 Y-1.05150
X0.80800 Y-1.05150
X0.80800 Y-1.05250
X0.80600 Y-1.05250
X0.80600 Y-1.05350
X0.80500 Y-1.05350
X0.80500 Y-1.05450
X0.80400 Y-1.05450
X0.80400 Y-1.05550
X0.80200 Y-1.05550
X0.80200 Y-1.05650
X0.80100 Y-1.05650
X0.80100 Y-1.05750
X0.79900 Y-1.05750
X0.79900 Y-1.05850
X0.79800 Y-1.05850
X0.79800 Y-1.05950
X0.79600 Y-1.05950
X0.79600 Y-1.06050
X0.79500 Y-1.06050
X0.79500 Y-1.06150
X0.79400 Y-1.06150
X0.79400 Y-1.06250
X0.79200 Y-1.06250
X0.79200 Y-1.06350
X0.79100 Y-1.06350
X0.79100 Y-1.06450
X0.78900 Y-1.06450
X0.78900 Y-1.06550
X0.78800 Y-1.06550
X0.78800 Y-1.06650
X0.78700 Y-1.06650
X0.78700 Y-1.06750
X0.78500 Y-1.06750
X0.78500 Y-1.06850
X0.78400 Y-1.06850
X0.78400 Y-1.06950
X0.78200 Y-1.06950
X0.78200 Y-1.74150
X0.78300 Y-1.74150
X0.78300 Y-1.74350
X0.78400 Y-1.74350
X0.78400 Y-1.74450
X0.78500 Y-1.74450
X0.78500 Y-1.74650
X0.78600 Y-1.74650
X0.78600 Y-1.74750
X0.78700 Y-1.74750
X0.78700 Y-1.74850
X0.78800 Y-1.74850
X0.78800 Y-1.75050
X0.78900 Y-1.75050
X0.78900 Y-1.75150
X0.79000 Y-1.75150
X0.79000 Y-1.75250
X0.79100 Y-1.75250
X0.79100 Y-1.75450
X0.79200 Y-1.75450
X0.79200 Y-1.75550
X0.79300 Y-1.75550
X0.79300 Y-1.75650
X0.79400 Y-1.75650
X0.79400 Y-1.75850
X0.79500 Y-1.75850
X0.79500 Y-1.75950
X0.79600 Y-1.75950
X0.79600 Y-1.76150
X0.79700 Y-1.76150
X0.79700 Y-1.76250
X0.79800 Y-1.76250
X0.79800 Y-1.76350
X0.79900 Y-1.76350
X0.79900 Y-1.76550
X0.80000 Y-1.76550
X0.80000 Y-1.76650
X0.80100 Y-1.76650
X0.80100 Y-1.76750
X0.80200 Y-1.76750
X0.80200 Y-1.76950
X0.80300 Y-1.76950
X0.80300 Y-1.77050
X0.80400 Y-1.77050
X0.80400 Y-1.77250
X0.80500 Y-1.77250
X0.80500 Y-1.77350
X0.80600 Y-1.77350
X0.80600 Y-1.77450
X0.80700 Y-1.77450
X0.80700 Y-1.77650
X0.80800 Y-1.77650
X0.80800 Y-1.77750
X0.80900 Y-1.77750
X0.80900 Y-1.77850
X0.81000 Y-1.77850
X0.81000 Y-1.78050
X0.81100 Y-1.78050
X0.81100 Y-1.78150
X0.81200 Y-1.78150
X0.81200 Y-1.78350
X0.81300 Y-1.78350
X0.81300 Y-1.78450
X0.81400 Y-1.78450
X0.81400 Y-1.78550
X0.81500 Y-1.78550
X0.81500 Y-1.78750
X0.81600 Y-1.78750
X0.81600 Y-1.78850
X0.81700 Y-1.78850
X0.81700 Y-1.78950
X0.81800 Y-1.78950
X0.81800 Y-1.79150
X0.81900 Y-1.79150
X0.81900 Y-1.79250
X0.82000 Y-1.79250
X0.82000 Y-1.79350
X0.82100 Y-1.79350
X0.82100 Y-1.79550
X0.82200 Y-1.79550
X0.82200 Y-1.79650
X0.82300 Y-1.79650
X0.82300 Y-1.79850
X0.82400 Y-1.79850
X0.82400 Y-1.79950
X0.82500 Y-1.79950
X0.82500 Y-1.80050
X0.82600 Y-1.80050
X0.82600 Y-1.80250
X0.82700 Y-1.80250
X0.82700 Y-1.80350
X0.82800 Y-1.80350
X0.82800 Y-1.80450
X0.82900 Y-1.80450
X0.82900 Y-1.80650
X0.83000 Y-1.80650
X0.83000 Y-1.80750
X0.83100 Y-1.80750
X0.83100 Y-1.80950
X0.83200 Y-1.80950
X0.83200 Y-1.81050
X0.83300 Y-1.81050
X0.83300 Y-1.81150
X0.83400 Y-1.81150
X0.83400 Y-1.81350
X0.83500 Y-1.81350
X0.83500 Y-1.81450
X0.83600 Y-1.81450
X0.83600 Y-1.81550
X0.83700 Y-1.81550
X0.83700 Y-1.81750
X0.83800 Y-1.81750
X0.83800 Y-1.81850
X0.83900 Y-1.81850
X0.83900 Y-1.82050
X0.84000 Y-1.82050
X0.84000 Y-1.82150
X0.84100 Y-1.82150
X0.84100 Y-1.82250
X0.84200 Y-1.82250
X0.84200 Y-1.82450
X0.84300 Y-1.82450
X0.84300 Y-1.82550
X0.84400 Y-1.82550
X0.84400 Y-1.82650
X0.84500 Y-1.82650
