( pcb2gcode 1.1.4 )

G94     ( Inches per minute feed rate. )
G20     ( Units == INCHES.             )
G90     ( Absolute coordinates.        )
S30000  ( RPM spindle speed.           )
M3      ( Spindle on clockwise.        )

G64 P0.00500 ( set maximum deviation from commanded toolpath )

G04 P0 ( dwell for no time -- G64 should not smooth over this point )
G00 Z0.19685 ( retract )

G00 X-6.23700 Y-3.71200 ( rapid move to begin. )
G01 Z-0.00591 F39.37008 ( plunge. )
G04 P0 ( dwell for no time -- G64 should not smooth over this point )
X-6.23700 Y-3.71200
X-6.23800 Y-3.71200
X-6.23800 Y-3.71300
X-6.23900 Y-3.71300
X-6.23900 Y-3.71500
X-6.24000 Y-3.71500
X-6.24000 Y-3.82300
X-6.24100 Y-3.82300
X-6.24100 Y-4.03700
X-6.24200 Y-4.03700
X-6.24200 Y-4.25100
X-6.24300 Y-4.25100
X-6.24300 Y-4.46500
X-6.24400 Y-4.46500
X-6.24400 Y-4.67900
X-6.24500 Y-4.67900
X-6.24500 Y-4.89300
X-6.24600 Y-4.89300
X-6.24600 Y-5.10700
X-6.24700 Y-5.10700
X-6.24700 Y-5.32100
X-6.24800 Y-5.32100
X-6.24800 Y-5.53500
X-6.24900 Y-5.53500
X-6.24900 Y-5.74900
X-6.25000 Y-5.74900
X-6.25000 Y-5.83600
X-6.24900 Y-5.83600
X-6.24900 Y-5.83700
X-6.24800 Y-5.83700
X-6.24800 Y-5.83900
X-6.24700 Y-5.83900
X-6.24700 Y-5.84000
X-3.08700 Y-5.84000
X-3.08700 Y-5.83900
X-3.08600 Y-5.83900
X-3.08600 Y-5.83800
X-3.08500 Y-5.83800
X-3.08500 Y-5.83600
X-3.08400 Y-5.83600
X-3.08400 Y-5.46900
X-3.08500 Y-5.46900
X-3.08500 Y-4.73800
X-3.08600 Y-4.73800
X-3.08600 Y-4.00700
X-3.08700 Y-4.00700
X-3.08700 Y-3.71500
X-3.08800 Y-3.71500
X-3.08800 Y-3.71300
X-3.08900 Y-3.71300
X-3.08900 Y-3.71200
X-3.09000 Y-3.71200
X-3.09000 Y-3.71100
X-6.23700 Y-3.71100
X-6.23700 Y-3.71200
G04 P0 ( dwell for no time -- G64 should not smooth over this point )
G00 Z0.19685 ( retract )

G00 X-5.34500 Y-3.75500 ( rapid move to begin. )
G01 Z-0.00591 F39.37008 ( plunge. )
G04 P0 ( dwell for no time -- G64 should not smooth over this point )
X-5.34500 Y-3.75500
X-5.35200 Y-3.75500
X-5.35200 Y-3.75600
X-5.35400 Y-3.75600
X-5.35400 Y-3.75700
X-5.35600 Y-3.75700
X-5.35600 Y-3.75800
X-5.35800 Y-3.75800
X-5.35800 Y-3.75900
X-5.36000 Y-3.75900
X-5.36000 Y-3.76000
X-5.36300 Y-3.76000
X-5.36300 Y-3.76100
X-5.36400 Y-3.76100
X-5.36400 Y-3.76200
X-5.36500 Y-3.76200
X-5.36500 Y-3.76300
X-5.36600 Y-3.76300
X-5.36600 Y-3.76400
X-5.36700 Y-3.76400
X-5.36700 Y-3.76500
X-5.36800 Y-3.76500
X-5.36800 Y-3.76600
X-5.36900 Y-3.76600
X-5.36900 Y-3.76700
X-5.37000 Y-3.76700
X-5.37000 Y-3.76800
X-5.37100 Y-3.76800
X-5.37100 Y-3.76900
X-5.37200 Y-3.76900
X-5.37200 Y-3.77000
X-5.37300 Y-3.77000
X-5.37300 Y-3.77100
X-5.37400 Y-3.77100
X-5.37400 Y-3.77200
X-5.37500 Y-3.77200
X-5.37500 Y-3.77300
X-5.37600 Y-3.77300
X-5.37600 Y-3.77400
X-5.37700 Y-3.77400
X-5.37700 Y-3.77500
X-5.37800 Y-3.77500
X-5.37800 Y-3.77600
X-5.37900 Y-3.77600
X-5.37900 Y-3.77700
X-5.38000 Y-3.77700
X-5.38000 Y-3.77800
X-5.38100 Y-3.77800
X-5.38100 Y-3.77900
X-5.38200 Y-3.77900
X-5.38200 Y-3.78000
X-5.38300 Y-3.78000
X-5.38300 Y-3.78100
X-5.38400 Y-3.78100
X-5.38400 Y-3.78200
X-5.38500 Y-3.78200
X-5.38500 Y-3.78300
X-5.38600 Y-3.78300
X-5.38600 Y-3.78400
X-5.38700 Y-3.78400
X-5.38700 Y-3.78500
X-5.38800 Y-3.78500
X-5.38800 Y-3.78600
X-5.38900 Y-3.78600
X-5.38900 Y-3.78700
X-5.39000 Y-3.78700
X-5.39000 Y-3.78800
X-5.39100 Y-3.78800
X-5.39100 Y-3.78900
X-5.39200 Y-3.78900
X-5.39200 Y-3.79000
X-5.39300 Y-3.79000
X-5.39300 Y-3.79100
X-5.39400 Y-3.79100
X-5.39400 Y-3.79200
X-5.39500 Y-3.79200
X-5.39500 Y-3.79300
X-5.39600 Y-3.79300
X-5.39600 Y-3.79400
X-5.39700 Y-3.79400
X-5.39700 Y-3.79500
X-5.39800 Y-3.79500
X-5.39800 Y-3.79600
X-5.39900 Y-3.79600
X-5.39900 Y-3.79700
X-5.40000 Y-3.79700
X-5.40000 Y-3.79800
X-5.40100 Y-3.79800
X-5.40100 Y-3.79900
X-5.40200 Y-3.79900
X-5.40200 Y-3.80000
X-5.40300 Y-3.80000
X-5.40300 Y-3.80100
X-5.40400 Y-3.80100
X-5.40400 Y-3.80200
X-5.40500 Y-3.80200
X-5.40500 Y-3.80300
X-5.40600 Y-3.80300
X-5.40600 Y-3.80400
X-5.40700 Y-3.80400
X-5.40700 Y-3.80500
X-5.40800 Y-3.80500
X-5.40800 Y-3.80600
X-5.40900 Y-3.80600
X-5.40900 Y-3.80700
X-5.41000 Y-3.80700
X-5.41000 Y-3.80800
X-5.41100 Y-3.80800
X-5.41100 Y-3.80900
X-5.41200 Y-3.80900
X-5.41200 Y-3.81000
X-5.41300 Y-3.81000
X-5.41300 Y-3.81100
X-5.41400 Y-3.81100
X-5.41400 Y-3.81200
X-5.41500 Y-3.81200
X-5.41500 Y-3.81300
X-5.41600 Y-3.81300
X-5.41600 Y-3.81400
X-5.41700 Y-3.81400
X-5.41700 Y-3.81500
X-5.41800 Y-3.81500
X-5.41800 Y-3.81600
X-5.41900 Y-3.81600
X-5.41900 Y-3.81700
X-5.42000 Y-3.81700
X-5.42000 Y-3.81800
X-5.42100 Y-3.81800
X-5.42100 Y-3.81900
X-5.42200 Y-3.81900
X-5.42200 Y-3.82000
X-5.42300 Y-3.82000
X-5.42300 Y-3.82100
X-5.42400 Y-3.82100
X-5.42400 Y-3.82200
X-5.42500 Y-3.82200
X-5.42500 Y-3.82300
X-5.42600 Y-3.82300
X-5.42600 Y-3.82400
X-5.42700 Y-3.82400
X-5.42700 Y-3.82500
X-5.42800 Y-3.82500
X-5.42800 Y-3.82600
X-5.42900 Y-3.82600
X-5.42900 Y-3.82700
X-5.43000 Y-3.82700
X-5.43000 Y-3.82800
X-5.43100 Y-3.82800
X-5.43100 Y-3.82900
X-5.43200 Y-3.82900
X-5.43200 Y-3.83000
X-5.43300 Y-3.83000
X-5.43300 Y-3.83100
X-5.43400 Y-3.83100
X-5.43400 Y-3.83200
X-5.43500 Y-3.83200
X-5.43500 Y-3.83300
X-5.43600 Y-3.83300
X-5.43600 Y-3.83400
X-5.43700 Y-3.83400
X-5.43700 Y-3.83500
X-5.43800 Y-3.83500
X-5.43800 Y-3.83600
X-5.43900 Y-3.83600
X-5.43900 Y-3.83700
X-5.44000 Y-3.83700
X-5.44000 Y-3.83800
X-5.44100 Y-3.83800
X-5.44100 Y-3.83900
X-5.44200 Y-3.83900
X-5.44200 Y-3.84000
X-5.44300 Y-3.84000
X-5.44300 Y-3.84100
X-5.44400 Y-3.84100
X-5.44400 Y-3.84200
X-5.44500 Y-3.84200
X-5.44500 Y-3.84300
X-5.44600 Y-3.84300
X-5.44600 Y-3.84400
X-5.44700 Y-3.84400
X-5.44700 Y-3.84500
X-5.44800 Y-3.84500
X-5.44800 Y-3.84600
X-5.44900 Y-3.84600
X-5.44900 Y-3.84700
X-5.45000 Y-3.84700
X-5.45000 Y-3.84800
X-5.45100 Y-3.84800
X-5.45100 Y-3.84900
X-5.45200 Y-3.84900
X-5.45200 Y-3.85000
X-5.45300 Y-3.85000
X-5.45300 Y-3.85100
X-5.45400 Y-3.85100
X-5.45400 Y-3.85200
X-5.45500 Y-3.85200
X-5.45500 Y-3.85300
X-5.45600 Y-3.85300
X-5.45600 Y-3.85400
X-5.45700 Y-3.85400
X-5.45700 Y-3.85500
X-5.45800 Y-3.85500
X-5.45800 Y-3.85600
X-5.45900 Y-3.85600
X-5.45900 Y-3.85700
X-5.46000 Y-3.85700
X-5.46000 Y-3.85800
X-5.46100 Y-3.85800
X-5.46100 Y-3.85900
X-5.46200 Y-3.85900
X-5.46200 Y-3.86000
X-5.46300 Y-3.86000
X-5.46300 Y-3.86100
X-5.46400 Y-3.86100
X-5.46400 Y-3.86200
X-5.46500 Y-3.86200
X-5.46500 Y-3.86300
X-5.46600 Y-3.86300
X-5.46600 Y-3.86400
X-5.46700 Y-3.86400
X-5.46700 Y-3.86500
X-5.46800 Y-3.86500
X-5.46800 Y-3.86600
X-5.46900 Y-3.86600
X-5.46900 Y-3.86700
X-5.47000 Y-3.86700
X-5.47000 Y-3.86800
X-5.47100 Y-3.86800
X-5.47100 Y-3.86900
X-5.47200 Y-3.86900
X-5.47200 Y-3.87000
X-5.47300 Y-3.87000
X-5.47300 Y-3.87100
X-5.47400 Y-3.87100
X-5.47400 Y-3.87200
X-5.47500 Y-3.87200
X-5.47500 Y-3.87300
X-5.47600 Y-3.87300
X-5.47600 Y-3.87400
X-5.47700 Y-3.87400
X-5.47700 Y-3.87500
X-5.47800 Y-3.87500
X-5.47800 Y-3.87600
X-5.47900 Y-3.87600
X-5.47900 Y-3.87700
X-5.48000 Y-3.87700
X-5.48000 Y-3.87800
X-5.48100 Y-3.87800
X-5.48100 Y-3.87900
X-5.48200 Y-3.87900
X-5.48200 Y-3.88000
X-5.48300 Y-3.88000
X-5.48300 Y-3.88100
X-5.48400 Y-3.88100
X-5.48400 Y-3.88200
X-5.48500 Y-3.88200
X-5.48500 Y-3.88300
X-5.48600 Y-3.88300
X-5.48600 Y-3.88400
X-5.48700 Y-3.88400
X-5.48700 Y-3.88500
X-5.48800 Y-3.88500
X-5.48800 Y-3.88600
X-5.48900 Y-3.88600
X-5.48900 Y-3.88700
X-5.49000 Y-3.88700
X-5.49000 Y-3.88800
X-5.49100 Y-3.88800
X-5.49100 Y-3.88900
X-5.49200 Y-3.88900
X-5.49200 Y-3.89000
X-5.49300 Y-3.89000
X-5.49300 Y-3.89100
X-5.49400 Y-3.89100
X-5.49400 Y-3.89200
X-5.49500 Y-3.89200
X-5.49500 Y-3.89300
X-5.49600 Y-3.89300
X-5.49600 Y-3.89400
X-5.49700 Y-3.89400
X-5.49700 Y-3.89500
X-5.49800 Y-3.89500
X-5.49800 Y-3.89600
X-5.49900 Y-3.89600
X-5.49900 Y-3.89700
X-5.50000 Y-3.89700
X-5.50000 Y-3.89800
X-5.50100 Y-3.89800
X-5.50100 Y-3.89900
X-5.50200 Y-3.89900
X-5.50200 Y-3.90000
X-5.50300 Y-3.90000
X-5.50300 Y-3.90100
X-5.50400 Y-3.90100
X-5.50400 Y-3.90200
X-5.50500 Y-3.90200
X-5.50500 Y-3.90300
X-5.50600 Y-3.90300
X-5.50600 Y-3.90400
X-5.50700 Y-3.90400
X-5.50700 Y-3.90500
X-5.50800 Y-3.90500
X-5.50800 Y-3.90600
X-5.50900 Y-3.90600
X-5.50900 Y-3.90700
X-5.51000 Y-3.90700
X-5.51000 Y-3.90800
X-5.51100 Y-3.90800
X-5.51100 Y-3.90900
X-5.51200 Y-3.90900
X-5.51200 Y-3.91000
X-5.51300 Y-3.91000
X-5.51300 Y-3.91100
X-5.51400 Y-3.91100
X-5.51400 Y-3.91200
X-5.51500 Y-3.91200
X-5.51500 Y-3.91300
X-5.51600 Y-3.91300
X-5.51600 Y-3.91400
X-5.51700 Y-3.91400
X-5.51700 Y-3.91500
X-5.51800 Y-3.91500
X-5.51800 Y-3.91600
X-5.51900 Y-3.91600
X-5.51900 Y-3.91700
X-5.52000 Y-3.91700
X-5.52000 Y-3.91800
X-5.52100 Y-3.91800
X-5.52100 Y-3.91900
X-5.52200 Y-3.91900
X-5.52200 Y-3.92000
X-5.52300 Y-3.92000
X-5.52300 Y-3.92100
X-5.52400 Y-3.92100
X-5.52400 Y-3.92200
X-5.52500 Y-3.92200
X-5.52500 Y-3.92300
X-5.52600 Y-3.92300
X-5.52600 Y-3.92400
X-5.52700 Y-3.92400
X-5.52700 Y-3.92500
X-5.52800 Y-3.92500
X-5.52800 Y-3.92600
X-5.52900 Y-3.92600
X-5.52900 Y-3.92700
X-5.53000 Y-3.92700
X-5.53000 Y-3.92800
X-5.53100 Y-3.92800
X-5.53100 Y-3.92900
X-5.53200 Y-3.92900
X-5.53200 Y-3.93000
X-5.53300 Y-3.93000
X-5.53300 Y-3.93100
X-5.53400 Y-3.93100
X-5.53400 Y-3.93200
X-5.53500 Y-3.93200
X-5.53500 Y-3.93300
X-5.53600 Y-3.93300
X-5.53600 Y-3.93400
X-5.53700 Y-3.93400
X-5.53700 Y-3.93500
X-5.53800 Y-3.93500
X-5.53800 Y-3.93600
X-5.53900 Y-3.93600
X-5.53900 Y-3.93700
X-5.54000 Y-3.93700
X-5.54000 Y-3.93900
X-5.54100 Y-3.93900
X-5.54100 Y-3.94000
X-5.54200 Y-3.94000
X-5.54200 Y-3.94100
X-5.54300 Y-3.94100
X-5.54300 Y-3.94200
X-5.54400 Y-3.94200
X-5.54400 Y-3.94400
X-5.54500 Y-3.94400
X-5.54500 Y-3.94500
X-5.54600 Y-3.94500
X-5.54600 Y-3.94600
X-5.54700 Y-3.94600
X-5.54700 Y-3.95000
X-5.54800 Y-3.95000
X-5.54800 Y-3.95500
X-5.54900 Y-3.95500
X-5.54900 Y-3.98100
X-5.54800 Y-3.98100
X-5.54800 Y-3.98600
X-5.54700 Y-3.98600
X-5.54700 Y-3.98900
X-5.54600 Y-3.98900
X-5.54600 Y-3.99100
X-5.54500 Y-3.99100
X-5.54500 Y-3.99200
X-5.54400 Y-3.99200
X-5.54400 Y-3.99400
X-5.54300 Y-3.99400
X-5.54300 Y-3.99500
X-5.54200 Y-3.99500
X-5.54200 Y-3.99600
X-5.54100 Y-3.99600
X-5.54100 Y-3.99800
X-5.54000 Y-3.99800
X-5.54000 Y-3.99900
X-5.53800 Y-3.99900
X-5.53800 Y-4.00000
X-5.53600 Y-4.00000
X-5.53600 Y-4.00100
X-5.53400 Y-4.00100
X-5.53400 Y-4.00200
X-5.53300 Y-4.00200
X-5.53300 Y-4.00300
X-5.53100 Y-4.00300
X-5.53100 Y-4.00400
X-5.52700 Y-4.00400
X-5.52700 Y-4.00500
X-5.51200 Y-4.00500
X-5.51200 Y-4.00400
X-5.50800 Y-4.00400
X-5.50800 Y-4.00300
X-5.50600 Y-4.00300
X-5.50600 Y-4.00200
X-5.50400 Y-4.00200
X-5.50400 Y-4.00100
X-5.50300 Y-4.00100
X-5.50300 Y-4.00000
X-5.50100 Y-4.00000
X-5.50100 Y-3.99900
X-5.49900 Y-3.99900
X-5.49900 Y-3.99800
X-5.49800 Y-3.99800
X-5.49800 Y-3.99700
X-5.49700 Y-3.99700
X-5.49700 Y-3.99500
X-5.49600 Y-3.99500
X-5.49600 Y-3.99400
X-5.49500 Y-3.99400
X-5.49500 Y-3.99200
X-5.49400 Y-3.99200
X-5.49400 Y-3.99100
X-5.49300 Y-3.99100
X-5.49300 Y-3.99000
X-5.49200 Y-3.99000
X-5.49200 Y-3.98700
X-5.49100 Y-3.98700
X-5.49100 Y-3.98200
X-5.49000 Y-3.98200
X-5.49000 Y-3.97700
X-5.48900 Y-3.97700
X-5.48900 Y-3.97100
X-5.48800 Y-3.97100
X-5.48800 Y-3.97000
X-5.48700 Y-3.97000
X-5.48700 Y-3.96900
X-5.48600 Y-3.96900
X-5.48600 Y-3.96800
X-5.48500 Y-3.96800
X-5.48500 Y-3.96700
X-5.48400 Y-3.96700
X-5.48400 Y-3.96600
X-5.48300 Y-3.96600
X-5.48300 Y-3.96500
X-5.48200 Y-3.96500
X-5.48200 Y-3.96400
X-5.48100 Y-3.96400
X-5.48100 Y-3.96300
X-5.48000 Y-3.96300
X-5.48000 Y-3.96200
X-5.47900 Y-3.96200
X-5.47900 Y-3.96100
X-5.47800 Y-3.96100
X-5.47800 Y-3.96000
X-5.47700 Y-3.96000
X-5.47700 Y-3.95900
X-5.47600 Y-3.95900
X-5.47600 Y-3.95800
X-5.47500 Y-3.95800
X-5.47500 Y-3.95700
X-5.47400 Y-3.95700
X-5.47400 Y-3.95600
X-5.47300 Y-3.95600
X-5.47300 Y-3.95500
X-5.47200 Y-3.95500
X-5.47200 Y-3.95400
X-5.47100 Y-3.95400
X-5.47100 Y-3.95300
X-5.47000 Y-3.95300
X-5.47000 Y-3.95200
X-5.46900 Y-3.95200
X-5.46900 Y-3.95100
X-5.46800 Y-3.95100
X-5.46800 Y-3.95000
X-5.46700 Y-3.95000
X-5.46700 Y-3.94900
X-5.46600 Y-3.94900
X-5.46600 Y-3.94800
X-5.46500 Y-3.94800
X-5.46500 Y-3.94700
X-5.46400 Y-3.94700
X-5.46400 Y-3.94600
X-5.46300 Y-3.94600
X-5.46300 Y-3.94500
X-5.46200 Y-3.94500
X-5.46200 Y-3.94400
X-5.46100 Y-3.94400
X-5.46100 Y-3.94300
X-5.46000 Y-3.94300
X-5.46000 Y-3.94200
X-5.45900 Y-3.94200
X-5.45900 Y-3.94100
X-5.45800 Y-3.94100
X-5.45800 Y-3.94000
X-5.45700 Y-3.94000
X-5.45700 Y-3.93900
X-5.45600 Y-3.93900
X-5.45600 Y-3.93800
X-5.45500 Y-3.93800
X-5.45500 Y-3.93700
X-5.45400 Y-3.93700
X-5.45400 Y-3.93600
X-5.45300 Y-3.93600
X-5.45300 Y-3.93500
X-5.45200 Y-3.93500
X-5.45200 Y-3.93400
X-5.45100 Y-3.93400
X-5.45100 Y-3.93300
X-5.45000 Y-3.93300
X-5.45000 Y-3.93200
X-5.44900 Y-3.93200
X-5.44900 Y-3.93100
X-5.44800 Y-3.93100
X-5.44800 Y-3.93000
X-5.44700 Y-3.93000
X-5.44700 Y-3.92900
X-5.44600 Y-3.92900
X-5.44600 Y-3.92800
X-5.44500 Y-3.92800
X-5.44500 Y-3.92700
X-5.44400 Y-3.92700
X-5.44400 Y-3.92600
X-5.44300 Y-3.92600
X-5.44300 Y-3.92500
X-5.44200 Y-3.92500
X-5.44200 Y-3.92400
X-5.44100 Y-3.92400
X-5.44100 Y-3.92300
X-5.44000 Y-3.92300
X-5.44000 Y-3.92200
X-5.43900 Y-3.92200
X-5.43900 Y-3.92100
X-5.43800 Y-3.92100
X-5.43800 Y-3.92000
X-5.43700 Y-3.92000
X-5.43700 Y-3.91900
X-5.43600 Y-3.91900
X-5.43600 Y-3.91800
X-5.43500 Y-3.91800
X-5.43500 Y-3.91700
X-5.43400 Y-3.91700
X-5.43400 Y-3.91600
X-5.43300 Y-3.91600
X-5.43300 Y-3.91500
X-5.43200 Y-3.91500
X-5.43200 Y-3.91400
X-5.43100 Y-3.91400
X-5.43100 Y-3.91300
X-5.43000 Y-3.91300
X-5.43000 Y-3.91200
X-5.42900 Y-3.91200
X-5.42900 Y-3.91100
X-5.42800 Y-3.91100
X-5.42800 Y-3.91000
X-5.42700 Y-3.91000
X-5.42700 Y-3.90900
X-5.42600 Y-3.90900
X-5.42600 Y-3.90800
X-5.42500 Y-3.90800
X-5.42500 Y-3.90700
X-5.42400 Y-3.90700
X-5.42400 Y-3.90600
X-5.42300 Y-3.90600
X-5.42300 Y-3.90500
X-5.42200 Y-3.90500
X-5.42200 Y-3.90400
X-5.42100 Y-3.90400
X-5.42100 Y-3.90300
X-5.42000 Y-3.90300
X-5.42000 Y-3.90200
X-5.41900 Y-3.90200
X-5.41900 Y-3.90100
X-5.41800 Y-3.90100
X-5.41800 Y-3.90000
X-5.41700 Y-3.90000
X-5.41700 Y-3.89900
X-5.41600 Y-3.89900
X-5.41600 Y-3.89800
X-5.41500 Y-3.89800
X-5.41500 Y-3.89700
X-5.41400 Y-3.89700
X-5.41400 Y-3.89600
X-5.41300 Y-3.89600
X-5.41300 Y-3.89500
X-5.41200 Y-3.89500
X-5.41200 Y-3.89400
X-5.41100 Y-3.89400
X-5.41100 Y-3.89300
X-5.41000 Y-3.89300
X-5.41000 Y-3.89200
X-5.40900 Y-3.89200
X-5.40900 Y-3.89100
X-5.40800 Y-3.89100
X-5.40800 Y-3.89000
X-5.40700 Y-3.89000
X-5.40700 Y-3.88900
X-5.40600 Y-3.88900
X-5.40600 Y-3.88800
X-5.40500 Y-3.88800
X-5.40500 Y-3.88700
X-5.40400 Y-3.88700
X-5.40400 Y-3.88600
X-5.40300 Y-3.88600
X-5.40300 Y-3.88500
X-5.40200 Y-3.88500
X-5.40200 Y-3.88400
X-5.40100 Y-3.88400
X-5.40100 Y-3.88300
X-5.40000 Y-3.88300
X-5.40000 Y-3.88200
X-5.39900 Y-3.88200
X-5.39900 Y-3.88100
X-5.39800 Y-3.88100
X-5.39800 Y-3.88000
X-5.39700 Y-3.88000
X-5.39700 Y-3.87900
X-5.39600 Y-3.87900
X-5.39600 Y-3.87800
X-5.39500 Y-3.87800
X-5.39500 Y-3.87700
X-5.39400 Y-3.87700
X-5.39400 Y-3.87600
X-5.39300 Y-3.87600
X-5.39300 Y-3.87500
X-5.39200 Y-3.87500
X-5.39200 Y-3.87400
X-5.39100 Y-3.87400
X-5.39100 Y-3.87300
X-5.39000 Y-3.87300
X-5.39000 Y-3.87200
X-5.38900 Y-3.87200
X-5.38900 Y-3.87100
X-5.38800 Y-3.87100
X-5.38800 Y-3.87000
X-5.38700 Y-3.87000
X-5.38700 Y-3.86900
X-5.38600 Y-3.86900
X-5.38600 Y-3.86800
X-5.38500 Y-3.86800
X-5.38500 Y-3.86700
X-5.38400 Y-3.86700
X-5.38400 Y-3.86600
X-5.38300 Y-3.86600
X-5.38300 Y-3.86500
X-5.38200 Y-3.86500
X-5.38200 Y-3.86400
X-5.38100 Y-3.86400
X-5.38100 Y-3.86300
X-5.38000 Y-3.86300
X-5.38000 Y-3.86200
X-5.37900 Y-3.86200
X-5.37900 Y-3.86100
X-5.37800 Y-3.86100
X-5.37800 Y-3.86000
X-5.37700 Y-3.86000
X-5.37700 Y-3.85900
X-5.37600 Y-3.85900
X-5.37600 Y-3.85800
X-5.37500 Y-3.85800
X-5.37500 Y-3.85700
X-5.37400 Y-3.85700
X-5.37400 Y-3.85600
X-5.37300 Y-3.85600
X-5.37300 Y-3.85500
X-5.37200 Y-3.85500
X-5.37200 Y-3.85400
X-5.37100 Y-3.85400
X-5.37100 Y-3.85300
X-5.37000 Y-3.85300
X-5.37000 Y-3.85200
X-5.36900 Y-3.85200
X-5.36900 Y-3.85100
X-5.36800 Y-3.85100
X-5.36800 Y-3.85000
X-5.36700 Y-3.85000
X-5.36700 Y-3.84900
X-5.36600 Y-3.84900
X-5.36600 Y-3.84800
X-5.36500 Y-3.84800
X-5.36500 Y-3.84700
X-5.36400 Y-3.84700
X-5.36400 Y-3.84600
X-5.36300 Y-3.84600
X-5.36300 Y-3.84500
X-5.36200 Y-3.84500
X-5.36200 Y-3.84400
X-5.36100 Y-3.84400
X-5.36100 Y-3.84300
X-5.36000 Y-3.84300
X-5.36000 Y-3.84200
X-5.35900 Y-3.84200
X-5.35900 Y-3.84100
X-5.35800 Y-3.84100
X-5.35800 Y-3.84000
X-5.35700 Y-3.84000
X-5.35700 Y-3.83900
X-5.35600 Y-3.83900
X-5.35600 Y-3.83800
X-5.35500 Y-3.83800
X-5.35500 Y-3.83700
X-5.35400 Y-3.83700
X-5.35400 Y-3.83600
X-5.35300 Y-3.83600
X-5.35300 Y-3.83500
X-5.35200 Y-3.83500
X-5.35200 Y-3.83400
X-5.35100 Y-3.83400
X-5.35100 Y-3.83300
X-5.35000 Y-3.83300
X-5.35000 Y-3.83200
X-5.34900 Y-3.83200
X-5.34900 Y-3.83100
X-5.34800 Y-3.83100
X-5.34800 Y-3.83000
X-5.34700 Y-3.83000
X-5.34700 Y-3.82900
X-5.34600 Y-3.82900
X-5.34600 Y-3.82800
X-5.34500 Y-3.82800
X-5.34500 Y-3.82700
X-5.34400 Y-3.82700
X-5.34400 Y-3.82600
X-5.34300 Y-3.82600
X-5.34300 Y-3.82500
X-5.34200 Y-3.82500
X-5.34200 Y-3.82400
X-5.34100 Y-3.82400
X-5.34100 Y-3.82300
X-5.34000 Y-3.82300
X-5.34000 Y-3.82200
X-5.33900 Y-3.82200
X-5.33900 Y-3.82100
X-5.33800 Y-3.82100
X-5.33800 Y-3.82000
X-5.33700 Y-3.82000
X-5.33700 Y-3.81900
X-5.33600 Y-3.81900
X-5.33600 Y-3.81800
X-5.33500 Y-3.81800
X-5.33500 Y-3.81700
X-5.33400 Y-3.81700
X-5.33400 Y-3.81600
X-5.33300 Y-3.81600
X-5.33300 Y-3.81500
X-5.03800 Y-3.81500
X-5.03800 Y-3.81600
X-5.03900 Y-3.81600
X-5.03900 Y-3.81700
X-5.04000 Y-3.81700
X-5.04000 Y-3.81800
X-5.04100 Y-3.81800
X-5.04100 Y-3.81900
X-5.04200 Y-3.81900
X-5.04200 Y-3.82000
X-5.04300 Y-3.82000
X-5.04300 Y-3.82100
X-5.04400 Y-3.82100
X-5.04400 Y-3.82200
X-5.04500 Y-3.82200
X-5.04500 Y-3.82300
X-5.04600 Y-3.82300
X-5.04600 Y-3.82400
X-5.04700 Y-3.82400
X-5.04700 Y-3.82500
X-5.04800 Y-3.82500
X-5.04800 Y-3.82600
X-5.04900 Y-3.82600
X-5.04900 Y-3.82700
X-5.05000 Y-3.82700
X-5.05000 Y-3.82800
X-5.05100 Y-3.82800
X-5.05100 Y-3.82900
X-5.05200 Y-3.82900
X-5.05200 Y-3.83000
X-5.05300 Y-3.83000
X-5.05300 Y-3.83100
X-5.05400 Y-3.83100
X-5.05400 Y-3.83200
X-5.05500 Y-3.83200
X-5.05500 Y-3.83300
X-5.05600 Y-3.83300
X-5.05600 Y-3.83400
X-5.05700 Y-3.83400
X-5.05700 Y-3.83500
X-5.05800 Y-3.83500
X-5.05800 Y-3.83600
X-5.05900 Y-3.83600
X-5.05900 Y-3.83700
X-5.06000 Y-3.83700
X-5.06000 Y-3.83800
X-5.06100 Y-3.83800
X-5.06100 Y-3.83900
X-5.06200 Y-3.83900
X-5.06200 Y-3.84000
X-5.06300 Y-3.84000
X-5.06300 Y-3.84100
X-5.06400 Y-3.84100
X-5.06400 Y-3.84200
X-5.06500 Y-3.84200
X-5.06500 Y-3.84300
X-5.06600 Y-3.84300
X-5.06600 Y-3.84400
X-5.06700 Y-3.84400
X-5.06700 Y-3.84500
X-5.06800 Y-3.84500
X-5.06800 Y-3.84600
X-5.06900 Y-3.84600
X-5.06900 Y-3.84700
X-5.07000 Y-3.84700
X-5.07000 Y-3.84800
X-5.07100 Y-3.84800
X-5.07100 Y-3.84900
X-5.07200 Y-3.84900
X-5.07200 Y-3.85000
X-5.07300 Y-3.85000
X-5.07300 Y-3.85100
X-5.07400 Y-3.85100
X-5.07400 Y-3.85200
X-5.07500 Y-3.85200
X-5.07500 Y-3.85300
X-5.07600 Y-3.85300
X-5.07600 Y-3.85400
X-5.07700 Y-3.85400
X-5.07700 Y-3.85500
X-5.07800 Y-3.85500
X-5.07800 Y-3.85600
X-5.07900 Y-3.85600
X-5.07900 Y-3.85700
X-5.08000 Y-3.85700
X-5.08000 Y-3.85800
X-5.08100 Y-3.85800
X-5.08100 Y-3.85900
X-5.08200 Y-3.85900
X-5.08200 Y-3.86000
X-5.08300 Y-3.86000
X-5.08300 Y-3.86100
X-5.08400 Y-3.86100
X-5.08400 Y-3.86200
X-5.08500 Y-3.86200
X-5.08500 Y-3.86300
X-5.08600 Y-3.86300
X-5.08600 Y-3.86400
X-5.08700 Y-3.86400
X-5.08700 Y-3.86500
X-5.08800 Y-3.86500
X-5.08800 Y-3.86600
X-5.08900 Y-3.86600
X-5.08900 Y-3.86700
X-5.09000 Y-3.86700
X-5.09000 Y-3.86800
X-5.09100 Y-3.86800
X-5.09100 Y-3.86900
X-5.09200 Y-3.86900
X-5.09200 Y-3.87000
X-5.09300 Y-3.87000
X-5.09300 Y-3.87100
X-5.09400 Y-3.87100
X-5.09400 Y-3.87200
X-5.09500 Y-3.87200
X-5.09500 Y-3.87300
X-5.09600 Y-3.87300
X-5.09600 Y-3.87400
X-5.09700 Y-3.87400
X-5.09700 Y-3.87500
X-5.09800 Y-3.87500
X-5.09800 Y-3.87600
X-5.09900 Y-3.87600
X-5.09900 Y-3.87700
X-5.10000 Y-3.87700
X-5.10000 Y-3.87800
X-5.10100 Y-3.87800
X-5.10100 Y-3.87900
X-5.10200 Y-3.87900
X-5.10200 Y-3.88000
X-5.10300 Y-3.88000
X-5.10300 Y-3.88100
X-5.10400 Y-3.88100
X-5.10400 Y-3.88200
X-5.10500 Y-3.88200
X-5.10500 Y-3.88300
X-5.10600 Y-3.88300
X-5.10600 Y-3.88400
X-5.10700 Y-3.88400
X-5.10700 Y-3.88500
X-5.10800 Y-3.88500
X-5.10800 Y-3.88600
X-5.10900 Y-3.88600
X-5.10900 Y-3.88700
X-5.11000 Y-3.88700
X-5.11000 Y-3.88800
X-5.11100 Y-3.88800
X-5.11100 Y-3.88900
X-5.11200 Y-3.88900
X-5.11200 Y-3.89000
X-5.11300 Y-3.89000
X-5.11300 Y-3.89100
X-5.11400 Y-3.89100
X-5.11400 Y-3.89200
X-5.11500 Y-3.89200
X-5.11500 Y-3.89300
X-5.11600 Y-3.89300
X-5.11600 Y-3.89400
X-5.11700 Y-3.89400
X-5.11700 Y-3.89500
X-5.11800 Y-3.89500
X-5.11800 Y-3.89600
X-5.11900 Y-3.89600
X-5.11900 Y-3.89700
X-5.12000 Y-3.89700
X-5.12000 Y-3.89800
X-5.12100 Y-3.89800
X-5.12100 Y-3.89900
X-5.12200 Y-3.89900
X-5.12200 Y-3.90000
X-5.12300 Y-3.90000
X-5.12300 Y-3.90200
X-5.12400 Y-3.90200
X-5.12400 Y-3.90300
X-5.12500 Y-3.90300
X-5.12500 Y-3.90400
X-5.12600 Y-3.90400
X-5.12600 Y-3.90500
X-5.12700 Y-3.90500
X-5.12700 Y-3.90700
X-5.12800 Y-3.90700
X-5.12800 Y-3.90800
X-5.12900 Y-3.90800
X-5.12900 Y-3.90900
X-5.13000 Y-3.90900
X-5.13000 Y-3.91400
X-5.13100 Y-3.91400
X-5.13100 Y-3.91800
X-5.13200 Y-3.91800
X-5.13200 Y-4.29900
X-5.13100 Y-4.29900
X-5.13100 Y-4.30300
X-5.13000 Y-4.30300
X-5.13000 Y-4.30700
X-5.12900 Y-4.30700
X-5.12900 Y-4.30900
X-5.12800 Y-4.30900
X-5.12800 Y-4.31000
X-5.12700 Y-4.31000
X-5.12700 Y-4.31100
X-5.12600 Y-4.31100
X-5.12600 Y-4.31300
X-5.12500 Y-4.31300
X-5.12500 Y-4.31400
X-5.12400 Y-4.31400
X-5.12400 Y-4.31500
X-5.12300 Y-4.31500
X-5.12300 Y-4.31600
X-5.12200 Y-4.31600
X-5.12200 Y-4.31800
X-5.12000 Y-4.31800
X-5.12000 Y-4.31900
X-5.11800 Y-4.31900
X-5.11800 Y-4.32000
X-5.11600 Y-4.32000
X-5.11600 Y-4.32100
X-5.11400 Y-4.32100
X-5.11400 Y-4.32200
X-5.11200 Y-4.32200
X-5.11200 Y-4.32300
X-5.11000 Y-4.32300
X-5.11000 Y-4.32400
X-5.09500 Y-4.32400
X-5.09500 Y-4.32300
X-5.09300 Y-4.32300
X-5.09300 Y-4.32200
X-5.09000 Y-4.32200
X-5.09000 Y-4.32100
X-5.08800 Y-4.32100
X-5.08800 Y-4.32000
X-5.08600 Y-4.32000
X-5.08600 Y-4.31900
X-5.08400 Y-4.31900
X-5.08400 Y-4.31800
X-5.08300 Y-4.31800
X-5.08300 Y-4.31700
X-5.08200 Y-4.31700
X-5.08200 Y-4.31600
X-5.08100 Y-4.31600
X-5.08100 Y-4.31400
X-5.08000 Y-4.31400
X-5.08000 Y-4.31300
X-5.07900 Y-4.31300
X-5.07900 Y-4.31200
X-5.07800 Y-4.31200
X-5.07800 Y-4.31100
X-5.07700 Y-4.31100
X-5.07700 Y-4.30900
X-5.07600 Y-4.30900
X-5.07600 Y-4.30800
X-5.07500 Y-4.30800
X-5.07500 Y-4.30500
X-5.07400 Y-4.30500
X-5.07400 Y-4.30000
X-5.07300 Y-4.30000
X-5.07300 Y-4.29600
X-5.07200 Y-4.29600
X-5.07200 Y-3.93400
X-5.07100 Y-3.93400
X-5.07100 Y-3.93300
X-5.07000 Y-3.93300
X-5.07000 Y-3.93200
X-5.06900 Y-3.93200
X-5.06900 Y-3.93100
X-5.06800 Y-3.93100
X-5.06800 Y-3.93000
X-5.06700 Y-3.93000
X-5.06700 Y-3.92900
X-5.06600 Y-3.92900
X-5.06600 Y-3.92800
X-5.06500 Y-3.92800
X-5.06500 Y-3.92700
X-5.06400 Y-3.92700
X-5.06400 Y-3.92600
X-5.06300 Y-3.92600
X-5.06300 Y-3.92500
X-5.06200 Y-3.92500
X-5.06200 Y-3.92400
X-5.06100 Y-3.92400
X-5.06100 Y-3.92300
X-5.06000 Y-3.92300
X-5.06000 Y-3.92200
X-5.05900 Y-3.92200
X-5.05900 Y-3.92100
X-5.05800 Y-3.92100
X-5.05800 Y-3.92000
X-5.05700 Y-3.92000
X-5.05700 Y-3.91900
X-5.05600 Y-3.91900
X-5.05600 Y-3.91800
X-5.05500 Y-3.91800
X-5.05500 Y-3.91700
X-5.05400 Y-3.91700
X-5.05400 Y-3.91600
X-5.05300 Y-3.91600
X-5.05300 Y-3.91500
X-5.05200 Y-3.91500
X-5.05200 Y-3.91400
X-5.05100 Y-3.91400
X-5.05100 Y-3.91300
X-5.05000 Y-3.91300
X-5.05000 Y-3.91200
X-5.04900 Y-3.91200
X-5.04900 Y-3.91100
X-5.04800 Y-3.91100
X-5.04800 Y-3.91000
X-5.04700 Y-3.91000
X-5.04700 Y-3.90900
X-5.04600 Y-3.90900
X-5.04600 Y-3.90800
X-5.04500 Y-3.90800
X-5.04500 Y-3.90700
X-5.04400 Y-3.90700
X-5.04400 Y-3.90600
X-5.04300 Y-3.90600
X-5.04300 Y-3.90500
X-5.04200 Y-3.90500
X-5.04200 Y-3.90400
X-5.04100 Y-3.90400
X-5.04100 Y-3.90300
X-5.04000 Y-3.90300
X-5.04000 Y-3.90200
X-5.03900 Y-3.90200
X-5.03900 Y-3.90100
X-5.03800 Y-3.90100
X-5.03800 Y-3.90000
X-5.03700 Y-3.90000
X-5.03700 Y-3.89900
X-5.03600 Y-3.89900
X-5.03600 Y-3.89800
X-5.03500 Y-3.89800
X-5.03500 Y-3.89700
X-5.03400 Y-3.89700
X-5.03400 Y-3.89600
X-5.03300 Y-3.89600
X-5.03300 Y-3.89500
X-5.03200 Y-3.89500
X-5.03200 Y-3.89400
X-5.03100 Y-3.89400
X-5.03100 Y-3.89300
X-5.03000 Y-3.89300
X-5.03000 Y-3.89200
X-5.02900 Y-3.89200
X-5.02900 Y-3.89100
X-5.02800 Y-3.89100
X-5.02800 Y-3.89000
X-5.02700 Y-3.89000
X-5.02700 Y-3.88900
X-5.02600 Y-3.88900
X-5.02600 Y-3.88800
X-5.02500 Y-3.88800
X-5.02500 Y-3.88700
X-5.02400 Y-3.88700
X-5.02400 Y-3.88600
X-5.02300 Y-3.88600
X-5.02300 Y-3.88500
X-5.02200 Y-3.88500
X-5.02200 Y-3.88400
X-5.02100 Y-3.88400
X-5.02100 Y-3.88300
X-5.02000 Y-3.88300
X-5.02000 Y-3.88200
X-5.01900 Y-3.88200
X-5.01900 Y-3.88100
X-5.01800 Y-3.88100
X-5.01800 Y-3.88000
X-5.01700 Y-3.88000
X-5.01700 Y-3.87900
X-5.01600 Y-3.87900
X-5.01600 Y-3.87800
X-5.01500 Y-3.87800
X-5.01500 Y-3.87700
X-5.01400 Y-3.87700
X-5.01400 Y-3.87600
X-5.01300 Y-3.87600
X-5.01300 Y-3.87500
X-5.01200 Y-3.87500
X-5.01200 Y-3.87400
X-5.01100 Y-3.87400
X-5.01100 Y-3.87300
X-5.01000 Y-3.87300
X-5.01000 Y-3.87200
X-5.00900 Y-3.87200
X-5.00900 Y-3.87100
X-5.00800 Y-3.87100
X-5.00800 Y-3.87000
X-5.00700 Y-3.87000
X-5.00700 Y-3.86900
X-5.00600 Y-3.86900
X-5.00600 Y-3.86800
X-5.00500 Y-3.86800
X-5.00500 Y-3.86700
X-5.00400 Y-3.86700
X-5.00400 Y-3.86600
X-5.00300 Y-3.86600
X-5.00300 Y-3.86500
X-5.00200 Y-3.86500
X-5.00200 Y-3.86400
X-5.00100 Y-3.86400
X-5.00100 Y-3.86300
X-5.00000 Y-3.86300
X-5.00000 Y-3.86200
X-4.99900 Y-3.86200
X-4.99900 Y-3.86100
X-4.99800 Y-3.86100
X-4.99800 Y-3.86000
X-4.99700 Y-3.86000
X-4.99700 Y-3.85900
X-4.99600 Y-3.85900
X-4.99600 Y-3.85800
X-4.99500 Y-3.85800
X-4.99500 Y-3.85700
X-4.99400 Y-3.85700
X-4.99400 Y-3.85600
X-4.99300 Y-3.85600
X-4.99300 Y-3.85500
X-4.99200 Y-3.85500
X-4.99200 Y-3.85400
X-4.99100 Y-3.85400
X-4.99100 Y-3.85300
X-4.99000 Y-3.85300
X-4.99000 Y-3.85200
X-4.98900 Y-3.85200
X-4.98900 Y-3.85100
X-4.98800 Y-3.85100
X-4.98800 Y-3.85000
X-4.98700 Y-3.85000
X-4.98700 Y-3.84900
X-4.98600 Y-3.84900
X-4.98600 Y-3.84800
X-4.98500 Y-3.84800
X-4.98500 Y-3.84700
X-4.98400 Y-3.84700
X-4.98400 Y-3.84600
X-4.98300 Y-3.84600
X-4.98300 Y-3.84500
X-4.98200 Y-3.84500
X-4.98200 Y-3.84400
X-4.98100 Y-3.84400
X-4.98100 Y-3.84300
X-4.98000 Y-3.84300
X-4.98000 Y-3.84200
X-4.97900 Y-3.84200
X-4.97900 Y-3.84100
X-4.97800 Y-3.84100
X-4.97800 Y-3.84000
X-4.97700 Y-3.84000
X-4.97700 Y-3.83900
X-4.97600 Y-3.83900
X-4.97600 Y-3.83800
X-4.97500 Y-3.83800
X-4.97500 Y-3.83700
X-4.97400 Y-3.83700
X-4.97400 Y-3.83600
X-4.97300 Y-3.83600
X-4.97300 Y-3.83500
X-4.97200 Y-3.83500
X-4.97200 Y-3.83400
X-4.97100 Y-3.83400
X-4.97100 Y-3.83300
X-4.97000 Y-3.83300
X-4.97000 Y-3.83200
X-4.96900 Y-3.83200
X-4.96900 Y-3.83100
X-4.96800 Y-3.83100
X-4.96800 Y-3.83000
X-4.96700 Y-3.83000
X-4.96700 Y-3.82900
X-4.96600 Y-3.82900
X-4.96600 Y-3.82800
X-4.96500 Y-3.82800
X-4.96500 Y-3.82700
X-4.96400 Y-3.82700
X-4.96400 Y-3.82600
X-4.96300 Y-3.82600
X-4.96300 Y-3.82500
X-4.96200 Y-3.82500
X-4.96200 Y-3.82400
X-4.96100 Y-3.82400
X-4.96100 Y-3.82300
X-4.96000 Y-3.82300
X-4.96000 Y-3.82200
X-4.95900 Y-3.82200
X-4.95900 Y-3.82100
X-4.95800 Y-3.82100
X-4.95800 Y-3.82000
X-4.95700 Y-3.82000
X-4.95700 Y-3.81900
X-4.95600 Y-3.81900
X-4.95600 Y-3.81800
X-4.95500 Y-3.81800
X-4.95500 Y-3.81700
X-4.95400 Y-3.81700
X-4.95400 Y-3.81600
X-4.95300 Y-3.81600
X-4.95300 Y-3.81500
X-4.84100 Y-3.81500
X-4.84100 Y-3.81600
X-4.84000 Y-3.81600
X-4.84000 Y-3.81700
X-4.83900 Y-3.81700
X-4.83900 Y-3.81800
X-4.83800 Y-3.81800
X-4.83800 Y-3.81900
X-4.83700 Y-3.81900
X-4.83700 Y-3.82000
X-4.83600 Y-3.82000
X-4.83600 Y-3.82100
X-4.83500 Y-3.82100
X-4.83500 Y-3.82200
X-4.83400 Y-3.82200
X-4.83400 Y-3.82300
X-4.83300 Y-3.82300
X-4.83300 Y-3.82400
X-4.83200 Y-3.82400
X-4.83200 Y-3.82500
X-4.83100 Y-3.82500
X-4.83100 Y-3.82600
X-4.83000 Y-3.82600
X-4.83000 Y-3.82700
X-4.82900 Y-3.82700
X-4.82900 Y-3.82800
X-4.82800 Y-3.82800
X-4.82800 Y-3.82900
X-4.82700 Y-3.82900
X-4.82700 Y-3.83000
X-4.82600 Y-3.83000
X-4.82600 Y-3.83100
X-4.82500 Y-3.83100
X-4.82500 Y-3.83200
X-4.82400 Y-3.83200
X-4.82400 Y-3.83300
X-4.82300 Y-3.83300
X-4.82300 Y-3.83400
X-4.82200 Y-3.83400
X-4.82200 Y-3.83500
X-4.82100 Y-3.83500
X-4.82100 Y-3.83600
X-4.82000 Y-3.83600
X-4.82000 Y-3.83700
X-4.81900 Y-3.83700
X-4.81900 Y-3.83800
X-4.81800 Y-3.83800
X-4.81800 Y-3.83900
X-4.81700 Y-3.83900
X-4.81700 Y-3.84000
X-4.81600 Y-3.84000
X-4.81600 Y-3.84100
X-4.81500 Y-3.84100
X-4.81500 Y-3.84200
X-4.81400 Y-3.84200
X-4.81400 Y-3.84300
X-4.81300 Y-3.84300
X-4.81300 Y-3.84400
X-4.81200 Y-3.84400
X-4.81200 Y-3.84500
X-4.81100 Y-3.84500
X-4.81100 Y-3.84600
X-4.81000 Y-3.84600
X-4.81000 Y-3.84700
X-4.80900 Y-3.84700
X-4.80900 Y-3.84800
X-4.80800 Y-3.84800
X-4.80800 Y-3.84900
X-4.80700 Y-3.84900
X-4.80700 Y-3.85000
X-4.80600 Y-3.85000
X-4.80600 Y-3.85100
X-4.80500 Y-3.85100
X-4.80500 Y-3.85200
X-4.80400 Y-3.85200
X-4.80400 Y-3.85300
X-4.80300 Y-3.85300
X-4.80300 Y-3.85400
X-4.80200 Y-3.85400
X-4.80200 Y-3.85500
X-4.80100 Y-3.85500
X-4.80100 Y-3.85600
X-4.80000 Y-3.85600
X-4.80000 Y-3.85700
X-4.79900 Y-3.85700
X-4.79900 Y-3.85800
X-4.79800 Y-3.85800
X-4.79800 Y-3.85900
X-4.79700 Y-3.85900
X-4.79700 Y-3.86000
X-4.79600 Y-3.86000
X-4.79600 Y-3.86100
X-4.79500 Y-3.86100
X-4.79500 Y-3.86200
X-4.79400 Y-3.86200
X-4.79400 Y-3.86300
X-4.79300 Y-3.86300
X-4.79300 Y-3.86400
X-4.79200 Y-3.86400
X-4.79200 Y-3.86500
X-4.79100 Y-3.86500
X-4.79100 Y-3.86600
X-4.79000 Y-3.86600
X-4.79000 Y-3.86700
X-4.78900 Y-3.86700
X-4.78900 Y-3.86800
X-4.78800 Y-3.86800
X-4.78800 Y-3.86900
X-4.78700 Y-3.86900
X-4.78700 Y-3.87000
X-4.78600 Y-3.87000
X-4.78600 Y-3.87100
X-4.78500 Y-3.87100
X-4.78500 Y-3.87200
X-4.78400 Y-3.87200
X-4.78400 Y-3.87300
X-4.78300 Y-3.87300
X-4.78300 Y-3.87400
X-4.78200 Y-3.87400
X-4.78200 Y-3.87500
X-4.78100 Y-3.87500
X-4.78100 Y-3.87600
X-4.78000 Y-3.87600
X-4.78000 Y-3.87700
X-4.77900 Y-3.87700
X-4.77900 Y-3.87800
X-4.77800 Y-3.87800
X-4.77800 Y-3.87900
X-4.77700 Y-3.87900
X-4.77700 Y-3.88000
X-4.77600 Y-3.88000
X-4.77600 Y-3.88100
X-4.77500 Y-3.88100
X-4.77500 Y-3.88200
X-4.77400 Y-3.88200
X-4.77400 Y-3.88300
X-4.77300 Y-3.88300
X-4.77300 Y-3.88400
X-4.77200 Y-3.88400
X-4.77200 Y-3.88500
X-4.77100 Y-3.88500
X-4.77100 Y-3.88600
X-4.77000 Y-3.88600
X-4.77000 Y-3.88700
X-4.76900 Y-3.88700
X-4.76900 Y-3.88800
X-4.76800 Y-3.88800
X-4.76800 Y-3.88900
X-4.76700 Y-3.88900
X-4.76700 Y-3.89000
X-4.76600 Y-3.89000
X-4.76600 Y-3.89100
X-4.76500 Y-3.89100
X-4.76500 Y-3.89200
X-4.76400 Y-3.89200
X-4.76400 Y-3.89300
X-4.76300 Y-3.89300
X-4.76300 Y-3.89400
X-4.76200 Y-3.89400
X-4.76200 Y-3.89500
X-4.76100 Y-3.89500
X-4.76100 Y-3.89600
X-4.76000 Y-3.89600
X-4.76000 Y-3.89700
X-4.75900 Y-3.89700
X-4.75900 Y-3.89800
X-4.75800 Y-3.89800
X-4.75800 Y-3.89900
X-4.75700 Y-3.89900
X-4.75700 Y-3.90000
X-4.75600 Y-3.90000
X-4.75600 Y-3.90100
X-4.75500 Y-3.90100
X-4.75500 Y-4.10600
X-4.76400 Y-4.10600
X-4.76400 Y-4.10700
X-4.77100 Y-4.10700
X-4.77100 Y-4.10800
X-4.77300 Y-4.10800
X-4.77300 Y-4.10900
X-4.77500 Y-4.10900
X-4.77500 Y-4.11000
X-4.77700 Y-4.11000
X-4.77700 Y-4.11100
X-4.77900 Y-4.11100
X-4.77900 Y-4.11200
X-4.78100 Y-4.11200
X-4.78100 Y-4.11300
X-4.78200 Y-4.11300
X-4.78200 Y-4.11400
X-4.78300 Y-4.11400
X-4.78300 Y-4.11500
X-4.78500 Y-4.11500
X-4.78500 Y-4.11600
X-4.78600 Y-4.11600
X-4.78600 Y-4.11700
X-4.78700 Y-4.11700
X-4.78700 Y-4.11800
X-4.78800 Y-4.11800
X-4.78800 Y-4.11900
X-4.78900 Y-4.11900
X-4.78900 Y-4.12000
X-4.79000 Y-4.12000
X-4.79000 Y-4.12100
X-4.79100 Y-4.12100
X-4.79100 Y-4.12200
X-4.79200 Y-4.12200
X-4.79200 Y-4.12300
X-4.79300 Y-4.12300
X-4.79300 Y-4.12400
X-4.79400 Y-4.12400
X-4.79400 Y-4.12500
X-4.79500 Y-4.12500
X-4.79500 Y-4.12600
X-4.79600 Y-4.12600
X-4.79600 Y-4.12700
X-4.79700 Y-4.12700
X-4.79700 Y-4.12800
X-4.79800 Y-4.12800
X-4.79800 Y-4.12900
X-4.79900 Y-4.12900
X-4.79900 Y-4.13000
X-4.80000 Y-4.13000
X-4.80000 Y-4.13100
X-4.80100 Y-4.13100
X-4.80100 Y-4.13200
X-4.80200 Y-4.13200
X-4.80200 Y-4.13300
X-4.80300 Y-4.13300
X-4.80300 Y-4.13400
X-4.80400 Y-4.13400
X-4.80400 Y-4.13500
X-4.80500 Y-4.13500
X-4.80500 Y-4.13600
X-4.80600 Y-4.13600
X-4.80600 Y-4.13700
X-4.80700 Y-4.13700
X-4.80700 Y-4.13800
X-4.80800 Y-4.13800
X-4.80800 Y-4.13900
X-4.80900 Y-4.13900
X-4.80900 Y-4.14000
X-4.81000 Y-4.14000
X-4.81000 Y-4.14100
X-4.81100 Y-4.14100
X-4.81100 Y-4.14200
X-4.81200 Y-4.14200
X-4.81200 Y-4.14300
X-4.81300 Y-4.14300
X-4.81300 Y-4.14400
X-4.81400 Y-4.14400
X-4.81400 Y-4.14500
X-4.81500 Y-4.14500
X-4.81500 Y-4.14600
X-4.81600 Y-4.14600
X-4.81600 Y-4.14700
X-4.81700 Y-4.14700
X-4.81700 Y-4.14800
X-4.81800 Y-4.14800
X-4.81800 Y-4.14900
X-4.81900 Y-4.14900
X-4.81900 Y-4.15000
X-4.82000 Y-4.15000
X-4.82000 Y-4.15100
X-4.82100 Y-4.15100
X-4.82100 Y-4.15200
X-4.82200 Y-4.15200
X-4.82200 Y-4.15300
X-4.82300 Y-4.15300
X-4.82300 Y-4.15400
X-4.82400 Y-4.15400
X-4.82400 Y-4.15500
X-4.82500 Y-4.15500
X-4.82500 Y-4.15600
X-4.82600 Y-4.15600
X-4.82600 Y-4.15700
X-4.82700 Y-4.15700
X-4.82700 Y-4.15800
X-4.82800 Y-4.15800
X-4.82800 Y-4.15900
X-4.82900 Y-4.15900
X-4.82900 Y-4.16000
X-4.83000 Y-4.16000
X-4.83000 Y-4.16200
X-4.83100 Y-4.16200
X-4.83100 Y-4.16400
X-4.83200 Y-4.16400
X-4.83200 Y-4.16500
X-4.83300 Y-4.16500
X-4.83300 Y-4.16600
X-4.83400 Y-4.16600
X-4.83400 Y-4.16700
X-4.83500 Y-4.16700
X-4.83500 Y-4.16900
X-4.83600 Y-4.16900
X-4.83600 Y-4.17300
X-4.83700 Y-4.17300
X-4.83700 Y-4.17700
X-4.83800 Y-4.17700
X-4.83800 Y-4.18100
X-4.83900 Y-4.18100
X-4.83900 Y-4.27500
X-4.83800 Y-4.27500
X-4.83800 Y-4.28000
X-4.83700 Y-4.28000
X-4.83700 Y-4.28500
X-4.83600 Y-4.28500
X-4.83600 Y-4.28900
X-4.83500 Y-4.28900
X-4.83500 Y-4.29000
X-4.83400 Y-4.29000
X-4.83400 Y-4.29100
X-4.83300 Y-4.29100
X-4.83300 Y-4.29300
X-4.83200 Y-4.29300
X-4.83200 Y-4.29400
X-4.83100 Y-4.29400
X-4.83100 Y-4.29500
X-4.83000 Y-4.29500
X-4.83000 Y-4.29700
X-4.82900 Y-4.29700
X-4.82900 Y-4.29800
X-4.82700 Y-4.29800
X-4.82700 Y-4.29900
X-4.82500 Y-4.29900
X-4.82500 Y-4.30000
X-4.82400 Y-4.30000
X-4.82400 Y-4.30100
X-4.82200 Y-4.30100
X-4.82200 Y-4.30200
X-4.82000 Y-4.30200
X-4.82000 Y-4.30300
X-4.81600 Y-4.30300
X-4.81600 Y-4.30400
X-4.80100 Y-4.30400
X-4.80100 Y-4.30300
X-4.79700 Y-4.30300
X-4.79700 Y-4.30200
X-4.79500 Y-4.30200
X-4.79500 Y-4.30100
X-4.79300 Y-4.30100
X-4.79300 Y-4.30000
X-4.79200 Y-4.30000
X-4.79200 Y-4.29900
X-4.79000 Y-4.29900
X-4.79000 Y-4.29800
X-4.78800 Y-4.29800
X-4.78800 Y-4.29700
X-4.78700 Y-4.29700
X-4.78700 Y-4.29500
X-4.78600 Y-4.29500
X-4.78600 Y-4.29400
X-4.78500 Y-4.29400
X-4.78500 Y-4.29300
X-4.78400 Y-4.29300
X-4.78400 Y-4.29100
X-4.78300 Y-4.29100
X-4.78300 Y-4.29000
X-4.78200 Y-4.29000
X-4.78200 Y-4.28900
X-4.78100 Y-4.28900
X-4.78100 Y-4.28500
X-4.78000 Y-4.28500
X-4.78000 Y-4.28000
X-4.77900 Y-4.28000
X-4.77900 Y-4.27500
X-4.77800 Y-4.27500
X-4.77800 Y-4.19400
X-4.77700 Y-4.19400
X-4.77700 Y-4.19300
X-4.77600 Y-4.19300
X-4.77600 Y-4.19200
X-4.77500 Y-4.19200
X-4.77500 Y-4.19100
X-4.77400 Y-4.19100
X-4.77400 Y-4.19000
X-4.77300 Y-4.19000
X-4.77300 Y-4.18900
X-4.77200 Y-4.18900
X-4.77200 Y-4.18800
X-4.77100 Y-4.18800
X-4.77100 Y-4.18700
X-4.77000 Y-4.18700
X-4.77000 Y-4.18600
X-4.76900 Y-4.18600
X-4.76900 Y-4.18500
X-4.76800 Y-4.18500
X-4.76800 Y-4.18400
X-4.76700 Y-4.18400
X-4.76700 Y-4.18300
X-4.76600 Y-4.18300
X-4.76600 Y-4.18200
X-4.76500 Y-4.18200
X-4.76500 Y-4.18100
X-4.76400 Y-4.18100
X-4.76400 Y-4.18000
X-4.76300 Y-4.18000
X-4.76300 Y-4.17900
X-4.76200 Y-4.17900
X-4.76200 Y-4.17800
X-4.76100 Y-4.17800
X-4.76100 Y-4.17700
X-4.76000 Y-4.17700
X-4.76000 Y-4.17600
X-4.75900 Y-4.17600
X-4.75900 Y-4.17500
X-4.75800 Y-4.17500
X-4.75800 Y-4.17400
X-4.75700 Y-4.17400
X-4.75700 Y-4.17300
X-4.75600 Y-4.17300
X-4.75600 Y-4.17200
X-4.75500 Y-4.17200
X-4.75500 Y-4.17100
X-4.75400 Y-4.17100
X-4.75400 Y-4.17000
X-4.75300 Y-4.17000
X-4.75300 Y-4.16900
X-4.75200 Y-4.16900
X-4.75200 Y-4.16800
X-4.75100 Y-4.16800
X-4.75100 Y-4.16700
X-4.65900 Y-4.16700
X-4.65900 Y-4.16800
X-4.65800 Y-4.16800
X-4.65800 Y-4.16900
X-4.65700 Y-4.16900
X-4.65700 Y-4.17000
X-4.65600 Y-4.17000
X-4.65600 Y-4.17100
X-4.65500 Y-4.17100
X-4.65500 Y-4.17200
X-4.65400 Y-4.17200
X-4.65400 Y-4.17300
X-4.65300 Y-4.17300
X-4.65300 Y-4.17400
X-4.65200 Y-4.17400
X-4.65200 Y-4.17500
X-4.65100 Y-4.17500
X-4.65100 Y-4.17600
X-4.65000 Y-4.17600
X-4.65000 Y-4.17700
X-4.64900 Y-4.17700
X-4.64900 Y-4.17800
X-4.64800 Y-4.17800
X-4.64800 Y-4.17900
X-4.64700 Y-4.17900
X-4.64700 Y-4.18000
X-4.64600 Y-4.18000
X-4.64600 Y-4.18100
X-4.64500 Y-4.18100
X-4.64500 Y-4.18200
X-4.64400 Y-4.18200
X-4.64400 Y-4.18300
X-4.64300 Y-4.18300
X-4.64300 Y-4.18400
X-4.64200 Y-4.18400
X-4.64200 Y-4.18500
X-4.64100 Y-4.18500
X-4.64100 Y-4.18600
X-4.64000 Y-4.18600
X-4.64000 Y-4.18700
X-4.63900 Y-4.18700
X-4.63900 Y-4.18800
X-4.63800 Y-4.18800
X-4.63800 Y-4.18900
X-4.63700 Y-4.18900
X-4.63700 Y-4.19000
X-4.63600 Y-4.19000
X-4.63600 Y-4.19100
X-4.63500 Y-4.19100
X-4.63500 Y-4.19200
X-4.63400 Y-4.19200
X-4.63400 Y-4.19300
X-4.63300 Y-4.19300
X-4.63300 Y-4.19400
X-4.63200 Y-4.19400
X-4.63200 Y-4.19500
X-4.63100 Y-4.19500
X-4.63100 Y-4.19600
X-4.63000 Y-4.19600
X-4.63000 Y-4.19700
X-4.62900 Y-4.19700
X-4.62900 Y-4.19800
X-4.62800 Y-4.19800
X-4.62800 Y-4.19900
X-4.62700 Y-4.19900
X-4.62700 Y-4.20000
X-4.62600 Y-4.20000
X-4.62600 Y-4.20100
X-4.62500 Y-4.20100
X-4.62500 Y-4.20200
X-4.62400 Y-4.20200
X-4.62400 Y-4.20300
X-4.62300 Y-4.20300
X-4.62300 Y-4.20400
X-4.62200 Y-4.20400
X-4.62200 Y-4.20500
X-4.62100 Y-4.20500
X-4.62100 Y-4.20600
X-4.62000 Y-4.20600
X-4.62000 Y-4.20700
X-4.61900 Y-4.20700
X-4.61900 Y-4.20800
X-4.61800 Y-4.20800
X-4.61800 Y-4.20900
X-4.61700 Y-4.20900
X-4.61700 Y-4.21000
X-4.61600 Y-4.21000
X-4.61600 Y-4.21100
X-4.61500 Y-4.21100
X-4.61500 Y-4.21200
X-4.61400 Y-4.21200
X-4.61400 Y-4.21300
X-4.61300 Y-4.21300
X-4.61300 Y-4.21400
X-4.61200 Y-4.21400
X-4.61200 Y-4.21500
X-4.61100 Y-4.21500
X-4.61100 Y-4.21600
X-4.61000 Y-4.21600
X-4.61000 Y-4.21700
X-4.60900 Y-4.21700
X-4.60900 Y-4.21800
X-4.60800 Y-4.21800
X-4.60800 Y-4.21900
X-4.60700 Y-4.21900
X-4.60700 Y-4.22000
X-4.60600 Y-4.22000
X-4.60600 Y-4.22100
X-4.60500 Y-4.22100
X-4.60500 Y-4.22200
X-4.60400 Y-4.22200
X-4.60400 Y-4.52000
X-4.60500 Y-4.52000
X-4.60500 Y-4.52100
X-4.60600 Y-4.52100
X-4.60600 Y-4.52200
X-4.60700 Y-4.52200
X-4.60700 Y-4.52300
X-4.60800 Y-4.52300
X-4.60800 Y-4.52400
X-4.60900 Y-4.52400
X-4.60900 Y-4.52500
X-4.61000 Y-4.52500
X-4.61000 Y-4.52600
X-4.61100 Y-4.52600
X-4.61100 Y-4.52700
X-4.61200 Y-4.52700
X-4.61200 Y-4.52800
X-4.61300 Y-4.52800
X-4.61300 Y-4.52900
X-4.61400 Y-4.52900
X-4.61400 Y-4.53000
X-4.61500 Y-4.53000
X-4.61500 Y-4.53100
X-4.61600 Y-4.53100
X-4.61600 Y-4.53200
X-4.61700 Y-4.53200
X-4.61700 Y-4.53300
X-4.61800 Y-4.53300
X-4.61800 Y-4.53400
X-4.61900 Y-4.53400
X-4.61900 Y-4.53500
X-4.62000 Y-4.53500
X-4.62000 Y-4.53600
X-4.62100 Y-4.53600
X-4.62100 Y-4.53700
X-4.62200 Y-4.53700
X-4.62200 Y-4.53800
X-4.62300 Y-4.53800
X-4.62300 Y-4.53900
X-4.62400 Y-4.53900
X-4.62400 Y-4.54000
X-4.62500 Y-4.54000
X-4.62500 Y-4.54100
X-4.62600 Y-4.54100
X-4.62600 Y-4.54200
X-4.62700 Y-4.54200
X-4.62700 Y-4.54300
X-4.62800 Y-4.54300
X-4.62800 Y-4.54400
X-4.62900 Y-4.54400
X-4.62900 Y-4.54500
X-4.63000 Y-4.54500
X-4.63000 Y-4.54600
X-4.63100 Y-4.54600
X-4.63100 Y-4.54700
X-4.63200 Y-4.54700
X-4.63200 Y-4.54800
X-4.63300 Y-4.54800
X-4.63300 Y-4.54900
X-4.63400 Y-4.54900
X-4.63400 Y-4.55000
X-4.63500 Y-4.55000
X-4.63500 Y-4.55100
X-4.63600 Y-4.55100
X-4.63600 Y-4.55200
X-4.63700 Y-4.55200
X-4.63700 Y-4.55300
X-4.63800 Y-4.55300
X-4.63800 Y-4.55400
X-4.63900 Y-4.55400
X-4.63900 Y-4.55500
X-4.64000 Y-4.55500
X-4.64000 Y-4.55600
X-4.64100 Y-4.55600
X-4.64100 Y-4.55700
X-4.64200 Y-4.55700
X-4.64200 Y-4.55800
X-4.64300 Y-4.55800
X-4.64300 Y-4.55900
X-4.64400 Y-4.55900
X-4.64400 Y-4.56000
X-4.64500 Y-4.56000
X-4.64500 Y-4.56100
X-4.64600 Y-4.56100
X-4.64600 Y-4.56200
X-4.64700 Y-4.56200
X-4.64700 Y-4.56300
X-4.64800 Y-4.56300
X-4.64800 Y-4.56400
X-4.64900 Y-4.56400
X-4.64900 Y-4.56500
X-4.65000 Y-4.56500
X-4.65000 Y-4.56600
X-4.65100 Y-4.56600
X-4.65100 Y-4.56700
X-4.65200 Y-4.56700
X-4.65200 Y-4.56800
X-4.65300 Y-4.56800
X-4.65300 Y-4.56900
X-4.65400 Y-4.56900
X-4.65400 Y-4.57000
X-4.65500 Y-4.57000
X-4.65500 Y-4.57100
X-4.65600 Y-4.57100
X-4.65600 Y-4.57200
X-4.65700 Y-4.57200
X-4.65700 Y-4.57300
X-4.65800 Y-4.57300
X-4.65800 Y-4.57400
X-4.65900 Y-4.57400
X-4.65900 Y-4.57500
X-4.66000 Y-4.57500
X-4.66000 Y-4.57600
X-4.66100 Y-4.57600
X-4.66100 Y-4.57700
X-4.66200 Y-4.57700
X-4.66200 Y-4.57800
X-4.66300 Y-4.57800
X-4.66300 Y-4.57900
X-4.66400 Y-4.57900
X-4.66400 Y-4.58000
X-4.66500 Y-4.58000
X-4.66500 Y-4.58100
X-4.66600 Y-4.58100
X-4.66600 Y-4.58200
X-4.66700 Y-4.58200
X-4.66700 Y-4.58300
X-4.66800 Y-4.58300
X-4.66800 Y-4.58400
X-4.66900 Y-4.58400
X-4.66900 Y-4.58500
X-4.67000 Y-4.58500
X-4.67000 Y-4.58600
X-4.67100 Y-4.58600
X-4.67100 Y-4.58700
X-4.67200 Y-4.58700
X-4.67200 Y-4.58800
X-4.67300 Y-4.58800
X-4.67300 Y-4.58900
X-4.67400 Y-4.58900
X-4.67400 Y-4.59000
X-4.67500 Y-4.59000
X-4.67500 Y-4.59100
X-4.67600 Y-4.59100
X-4.67600 Y-4.59200
X-4.67700 Y-4.59200
X-4.67700 Y-4.59300
X-4.67800 Y-4.59300
X-4.67800 Y-4.59400
X-4.67900 Y-4.59400
X-4.67900 Y-4.59500
X-4.68000 Y-4.59500
X-4.68000 Y-4.59600
X-4.68100 Y-4.59600
X-4.68100 Y-4.59700
X-4.68200 Y-4.59700
X-4.68200 Y-4.59800
X-4.68300 Y-4.59800
X-4.68300 Y-4.59900
X-4.68400 Y-4.59900
X-4.68400 Y-4.60000
X-4.68500 Y-4.60000
X-4.68500 Y-4.60100
X-4.68600 Y-4.60100
X-4.68600 Y-4.60200
X-4.68700 Y-4.60200
X-4.68700 Y-4.60300
X-4.68800 Y-4.60300
X-4.68800 Y-4.60400
X-4.68900 Y-4.60400
X-4.68900 Y-4.60500
X-4.69000 Y-4.60500
X-4.69000 Y-4.60600
X-4.69100 Y-4.60600
X-4.69100 Y-4.60700
X-4.69200 Y-4.60700
X-4.69200 Y-4.60800
X-4.69300 Y-4.60800
X-4.69300 Y-4.60900
X-4.69400 Y-4.60900
X-4.69400 Y-4.61000
X-4.69500 Y-4.61000
X-4.69500 Y-4.61100
X-4.69600 Y-4.61100
X-4.69600 Y-4.61200
X-4.69700 Y-4.61200
X-4.69700 Y-4.61300
X-4.69800 Y-4.61300
X-4.69800 Y-4.61400
X-4.69900 Y-4.61400
X-4.69900 Y-4.61500
X-4.70000 Y-4.61500
X-4.70000 Y-4.61600
X-4.70100 Y-4.61600
X-4.70100 Y-4.61700
X-4.70200 Y-4.61700
X-4.70200 Y-4.61800
X-4.70300 Y-4.61800
X-4.70300 Y-4.61900
X-4.70400 Y-4.61900
X-4.70400 Y-4.62000
X-4.70500 Y-4.62000
X-4.70500 Y-4.62100
X-4.70600 Y-4.62100
X-4.70600 Y-4.62200
X-4.70700 Y-4.62200
X-4.70700 Y-4.62300
X-4.70800 Y-4.62300
X-4.70800 Y-4.62400
X-4.70900 Y-4.62400
X-4.70900 Y-4.62500
X-4.71000 Y-4.62500
X-4.71000 Y-4.62600
X-4.71100 Y-4.62600
X-4.71100 Y-4.62700
X-4.71200 Y-4.62700
X-4.71200 Y-4.62800
X-4.71300 Y-4.62800
X-4.71300 Y-4.62900
X-4.71400 Y-4.62900
X-4.71400 Y-4.63000
X-4.71500 Y-4.63000
X-4.71500 Y-4.63200
X-4.71600 Y-4.63200
X-4.71600 Y-4.63300
X-4.71700 Y-4.63300
X-4.71700 Y-4.63400
X-4.71800 Y-4.63400
X-4.71800 Y-4.63500
X-4.71900 Y-4.63500
X-4.71900 Y-4.63700
X-4.72000 Y-4.63700
X-4.72000 Y-4.63800
X-4.72100 Y-4.63800
X-4.72100 Y-4.63900
X-4.72200 Y-4.63900
X-4.72200 Y-4.64400
X-4.72300 Y-4.64400
X-4.72300 Y-4.64800
X-4.72400 Y-4.64800
X-4.72400 Y-4.71600
X-4.72300 Y-4.71600
X-4.72300 Y-4.72000
X-4.72200 Y-4.72000
X-4.72200 Y-4.72400
X-4.72100 Y-4.72400
X-4.72100 Y-4.72600
X-4.72000 Y-4.72600
X-4.72000 Y-4.72700
X-4.71900 Y-4.72700
X-4.71900 Y-4.72800
X-4.71800 Y-4.72800
X-4.71800 Y-4.73000
X-4.71700 Y-4.73000
X-4.71700 Y-4.73100
X-4.71600 Y-4.73100
X-4.71600 Y-4.73200
X-4.71500 Y-4.73200
X-4.71500 Y-4.73300
X-4.71400 Y-4.73300
X-4.71400 Y-4.73500
X-4.71200 Y-4.73500
X-4.71200 Y-4.73600
X-4.71000 Y-4.73600
X-4.71000 Y-4.73700
X-4.70800 Y-4.73700
X-4.70800 Y-4.73800
X-4.70600 Y-4.73800
X-4.70600 Y-4.73900
X-4.70400 Y-4.73900
X-4.70400 Y-4.74000
X-4.70200 Y-4.74000
X-4.70200 Y-4.74100
X-4.68700 Y-4.74100
X-4.68700 Y-4.74000
X-4.68500 Y-4.74000
X-4.68500 Y-4.73900
X-4.68200 Y-4.73900
X-4.68200 Y-4.73800
X-4.68000 Y-4.73800
X-4.68000 Y-4.73700
X-4.67800 Y-4.73700
X-4.67800 Y-4.73600
X-4.67600 Y-4.73600
X-4.67600 Y-4.73500
X-4.67500 Y-4.73500
X-4.67500 Y-4.73400
X-4.67400 Y-4.73400
X-4.67400 Y-4.73300
X-4.67300 Y-4.73300
X-4.67300 Y-4.73100
X-4.67200 Y-4.73100
X-4.67200 Y-4.73000
X-4.67100 Y-4.73000
X-4.67100 Y-4.72900
X-4.67000 Y-4.72900
X-4.67000 Y-4.72800
X-4.66900 Y-4.72800
X-4.66900 Y-4.72600
X-4.66800 Y-4.72600
X-4.66800 Y-4.72500
X-4.66700 Y-4.72500
X-4.66700 Y-4.72200
X-4.66600 Y-4.72200
X-4.66600 Y-4.71700
X-4.66500 Y-4.71700
X-4.66500 Y-4.71300
X-4.66400 Y-4.71300
X-4.66400 Y-4.66400
X-4.66300 Y-4.66400
X-4.66300 Y-4.66300
X-4.66200 Y-4.66300
X-4.66200 Y-4.66200
X-4.66100 Y-4.66200
X-4.66100 Y-4.66100
X-4.66000 Y-4.66100
X-4.66000 Y-4.66000
X-4.65900 Y-4.66000
X-4.65900 Y-4.65900
X-4.65800 Y-4.65900
X-4.65800 Y-4.65800
X-4.65700 Y-4.65800
X-4.65700 Y-4.65700
X-4.65600 Y-4.65700
X-4.65600 Y-4.65600
X-4.65500 Y-4.65600
X-4.65500 Y-4.65500
X-4.65400 Y-4.65500
X-4.65400 Y-4.65400
X-4.65300 Y-4.65400
X-4.65300 Y-4.65300
X-4.65200 Y-4.65300
X-4.65200 Y-4.65200
X-4.65100 Y-4.65200
X-4.65100 Y-4.65100
X-4.65000 Y-4.65100
X-4.65000 Y-4.65000
X-4.64900 Y-4.65000
X-4.64900 Y-4.64900
X-4.64800 Y-4.64900
X-4.64800 Y-4.64800
X-4.64700 Y-4.64800
X-4.64700 Y-4.64700
X-4.64600 Y-4.64700
X-4.64600 Y-4.64600
X-4.64500 Y-4.64600
X-4.64500 Y-4.64500
X-4.64400 Y-4.64500
X-4.64400 Y-4.64400
X-4.64300 Y-4.64400
X-4.64300 Y-4.64300
X-4.64200 Y-4.64300
X-4.64200 Y-4.64200
X-4.64100 Y-4.64200
X-4.64100 Y-4.64100
X-4.64000 Y-4.64100
X-4.64000 Y-4.64000
X-4.63900 Y-4.64000
X-4.63900 Y-4.63900
X-4.63800 Y-4.63900
X-4.63800 Y-4.63800
X-4.63700 Y-4.63800
X-4.63700 Y-4.63700
X-4.63600 Y-4.63700
X-4.63600 Y-4.63600
X-4.63500 Y-4.63600
X-4.63500 Y-4.63500
X-4.63400 Y-4.63500
X-4.63400 Y-4.63400
X-4.63300 Y-4.63400
X-4.63300 Y-4.63300
X-4.63200 Y-4.63300
X-4.63200 Y-4.63200
X-4.63100 Y-4.63200
X-4.63100 Y-4.63100
X-4.63000 Y-4.63100
X-4.63000 Y-4.63000
X-4.62900 Y-4.63000
X-4.62900 Y-4.62900
X-4.62800 Y-4.62900
X-4.62800 Y-4.62800
X-4.62700 Y-4.62800
X-4.62700 Y-4.62700
X-4.62600 Y-4.62700
X-4.62600 Y-4.62600
X-4.62500 Y-4.62600
X-4.62500 Y-4.62500
X-4.62400 Y-4.62500
X-4.62400 Y-4.62400
X-4.62300 Y-4.62400
X-4.62300 Y-4.62300
X-4.62200 Y-4.62300
X-4.62200 Y-4.62200
X-4.62100 Y-4.62200
X-4.62100 Y-4.62100
X-4.62000 Y-4.62100
X-4.62000 Y-4.62000
X-4.61900 Y-4.62000
X-4.61900 Y-4.61900
X-4.61800 Y-4.61900
X-4.61800 Y-4.61800
X-4.61700 Y-4.61800
X-4.61700 Y-4.61700
X-4.61600 Y-4.61700
X-4.61600 Y-4.61600
X-4.61500 Y-4.61600
X-4.61500 Y-4.61500
X-4.61400 Y-4.61500
X-4.61400 Y-4.61400
X-4.61300 Y-4.61400
X-4.61300 Y-4.61300
X-4.61200 Y-4.61300
X-4.61200 Y-4.61200
X-4.61100 Y-4.61200
X-4.61100 Y-4.61100
X-4.61000 Y-4.61100
X-4.61000 Y-4.61000
X-4.60900 Y-4.61000
X-4.60900 Y-4.60900
X-4.60800 Y-4.60900
X-4.60800 Y-4.60800
X-4.60700 Y-4.60800
X-4.60700 Y-4.60700
X-4.60600 Y-4.60700
X-4.60600 Y-4.60600
X-4.60500 Y-4.60600
X-4.60500 Y-4.60500
X-4.60400 Y-4.60500
X-4.60400 Y-4.60400
X-4.60300 Y-4.60400
X-4.60300 Y-4.60300
X-4.60200 Y-4.60300
X-4.60200 Y-4.60200
X-4.60100 Y-4.60200
X-4.60100 Y-4.60100
X-4.60000 Y-4.60100
X-4.60000 Y-4.60000
X-4.59900 Y-4.60000
X-4.59900 Y-4.59900
X-4.59800 Y-4.59900
X-4.59800 Y-4.59800
X-4.59700 Y-4.59800
X-4.59700 Y-4.59700
X-4.59600 Y-4.59700
X-4.59600 Y-4.59600
X-4.59500 Y-4.59600
X-4.59500 Y-4.59500
X-4.59400 Y-4.59500
X-4.59400 Y-4.59400
X-4.59300 Y-4.59400
X-4.59300 Y-4.59300
X-4.59200 Y-4.59300
X-4.59200 Y-4.59200
X-4.59100 Y-4.59200
X-4.59100 Y-4.59100
X-4.59000 Y-4.59100
X-4.59000 Y-4.59000
X-4.58900 Y-4.59000
X-4.58900 Y-4.58900
X-4.58800 Y-4.58900
X-4.58800 Y-4.58800
X-4.58700 Y-4.58800
X-4.58700 Y-4.58700
X-4.58600 Y-4.58700
X-4.58600 Y-4.58600
X-4.58500 Y-4.58600
X-4.58500 Y-4.58500
X-4.58400 Y-4.58500
X-4.58400 Y-4.58400
X-4.58300 Y-4.58400
X-4.58300 Y-4.58300
X-4.58200 Y-4.58300
X-4.58200 Y-4.58200
X-4.58100 Y-4.58200
X-4.58100 Y-4.58100
X-4.58000 Y-4.58100
X-4.58000 Y-4.58000
X-4.57900 Y-4.58000
X-4.57900 Y-4.57900
X-4.57800 Y-4.57900
X-4.57800 Y-4.57800
X-4.57700 Y-4.57800
X-4.57700 Y-4.57700
X-4.57600 Y-4.57700
X-4.57600 Y-4.57600
X-4.57500 Y-4.57600
X-4.57500 Y-4.57500
X-4.57400 Y-4.57500
X-4.57400 Y-4.57400
X-4.57300 Y-4.57400
X-4.57300 Y-4.57300
X-4.57200 Y-4.57300
X-4.57200 Y-4.57200
X-4.57100 Y-4.57200
X-4.57100 Y-4.57100
X-4.57000 Y-4.57100
X-4.57000 Y-4.57000
X-4.56900 Y-4.57000
X-4.56900 Y-4.56900
X-4.56800 Y-4.56900
X-4.56800 Y-4.56800
X-4.56700 Y-4.56800
X-4.56700 Y-4.56700
X-4.56600 Y-4.56700
X-4.56600 Y-4.56600
X-4.56500 Y-4.56600
X-4.56500 Y-4.56500
X-4.56400 Y-4.56500
X-4.56400 Y-4.56400
X-4.56300 Y-4.56400
X-4.56300 Y-4.56300
X-4.56200 Y-4.56300
X-4.56200 Y-4.56200
X-4.56100 Y-4.56200
X-4.56100 Y-4.56100
X-4.56000 Y-4.56100
X-4.56000 Y-4.56000
X-4.55900 Y-4.56000
X-4.55900 Y-4.55900
X-4.55800 Y-4.55900
X-4.55800 Y-4.55800
X-4.55700 Y-4.55800
X-4.55700 Y-4.55700
X-4.55600 Y-4.55700
X-4.55600 Y-4.55600
X-4.55500 Y-4.55600
X-4.55500 Y-4.55500
X-4.55400 Y-4.55500
X-4.55400 Y-4.55400
X-4.55300 Y-4.55400
X-4.55300 Y-4.55200
X-4.55200 Y-4.55200
X-4.55200 Y-4.55100
X-4.55100 Y-4.55100
X-4.55100 Y-4.55000
X-4.55000 Y-4.55000
X-4.55000 Y-4.54900
X-4.54900 Y-4.54900
X-4.54900 Y-4.54700
X-4.54800 Y-4.54700
X-4.54800 Y-4.54600
X-4.54700 Y-4.54600
X-4.54700 Y-4.54400
X-4.54600 Y-4.54400
X-4.54600 Y-4.53900
X-4.54500 Y-4.53900
X-4.54500 Y-4.53500
X-4.54400 Y-4.53500
X-4.54400 Y-4.20700
X-4.54500 Y-4.20700
X-4.54500 Y-4.20300
X-4.54600 Y-4.20300
X-4.54600 Y-4.19800
X-4.54700 Y-4.19800
X-4.54700 Y-4.19600
X-4.54800 Y-4.19600
X-4.54800 Y-4.19400
X-4.54900 Y-4.19400
X-4.54900 Y-4.19300
X-4.55000 Y-4.19300
X-4.55000 Y-4.19200
X-4.55100 Y-4.19200
X-4.55100 Y-4.19000
X-4.55200 Y-4.19000
X-4.55200 Y-4.18900
X-4.55300 Y-4.18900
X-4.55300 Y-4.18800
X-4.55400 Y-4.18800
X-4.55400 Y-4.18700
X-4.55500 Y-4.18700
X-4.55500 Y-4.18600
X-4.55600 Y-4.18600
X-4.55600 Y-4.18500
X-4.55700 Y-4.18500
X-4.55700 Y-4.18400
X-4.55800 Y-4.18400
X-4.55800 Y-4.18300
X-4.55900 Y-4.18300
X-4.55900 Y-4.18200
X-4.56000 Y-4.18200
X-4.56000 Y-4.18100
X-4.56100 Y-4.18100
X-4.56100 Y-4.18000
X-4.56200 Y-4.18000
X-4.56200 Y-4.17900
X-4.56300 Y-4.17900
X-4.56300 Y-4.17800
X-4.56400 Y-4.17800
X-4.56400 Y-4.17700
X-4.56500 Y-4.17700
X-4.56500 Y-4.17600
X-4.56600 Y-4.17600
X-4.56600 Y-4.17500
X-4.56700 Y-4.17500
X-4.56700 Y-4.17400
X-4.56800 Y-4.17400
X-4.56800 Y-4.17300
X-4.56900 Y-4.17300
X-4.56900 Y-4.17200
X-4.57000 Y-4.17200
X-4.57000 Y-4.17100
X-4.57100 Y-4.17100
X-4.57100 Y-4.17000
X-4.57200 Y-4.17000
X-4.57200 Y-4.16900
X-4.57300 Y-4.16900
X-4.57300 Y-4.16800
X-4.57400 Y-4.16800
X-4.57400 Y-4.16700
X-4.57500 Y-4.16700
X-4.57500 Y-4.16600
X-4.57600 Y-4.16600
X-4.57600 Y-4.16500
X-4.57700 Y-4.16500
X-4.57700 Y-4.16400
X-4.57800 Y-4.16400
X-4.57800 Y-4.16300
X-4.57900 Y-4.16300
X-4.57900 Y-4.16200
X-4.58000 Y-4.16200
X-4.58000 Y-4.16100
X-4.58100 Y-4.16100
X-4.58100 Y-4.16000
X-4.58200 Y-4.16000
X-4.58200 Y-4.15900
X-4.58300 Y-4.15900
X-4.58300 Y-4.15800
X-4.58400 Y-4.15800
X-4.58400 Y-4.15700
X-4.58500 Y-4.15700
X-4.58500 Y-4.15600
X-4.58600 Y-4.15600
X-4.58600 Y-4.15500
X-4.58700 Y-4.15500
X-4.58700 Y-4.15400
X-4.58800 Y-4.15400
X-4.58800 Y-4.15300
X-4.58900 Y-4.15300
X-4.58900 Y-4.15200
X-4.59000 Y-4.15200
X-4.59000 Y-4.15100
X-4.59100 Y-4.15100
X-4.59100 Y-4.15000
X-4.59200 Y-4.15000
X-4.59200 Y-4.14900
X-4.59300 Y-4.14900
X-4.59300 Y-4.14800
X-4.59400 Y-4.14800
X-4.59400 Y-4.14700
X-4.59500 Y-4.14700
X-4.59500 Y-4.14600
X-4.59600 Y-4.14600
X-4.59600 Y-4.14500
X-4.59700 Y-4.14500
X-4.59700 Y-4.14400
X-4.59800 Y-4.14400
X-4.59800 Y-4.14300
X-4.59900 Y-4.14300
X-4.59900 Y-4.14200
X-4.60000 Y-4.14200
X-4.60000 Y-4.14100
X-4.60100 Y-4.14100
X-4.60100 Y-4.14000
X-4.60200 Y-4.14000
X-4.60200 Y-4.13900
X-4.60300 Y-4.13900
X-4.60300 Y-4.13800
X-4.60400 Y-4.13800
X-4.60400 Y-4.13700
X-4.60500 Y-4.13700
X-4.60500 Y-4.13600
X-4.60600 Y-4.13600
X-4.60600 Y-4.13500
X-4.60700 Y-4.13500
X-4.60700 Y-4.13400
X-4.60800 Y-4.13400
X-4.60800 Y-4.13300
X-4.60900 Y-4.13300
X-4.60900 Y-4.13200
X-4.61000 Y-4.13200
X-4.61000 Y-4.13100
X-4.61100 Y-4.13100
X-4.61100 Y-4.13000
X-4.61200 Y-4.13000
X-4.61200 Y-4.12900
X-4.61300 Y-4.12900
X-4.61300 Y-4.12800
X-4.61400 Y-4.12800
X-4.61400 Y-4.12700
X-4.61500 Y-4.12700
X-4.61500 Y-4.12600
X-4.61600 Y-4.12600
X-4.61600 Y-4.12500
X-4.61700 Y-4.12500
X-4.61700 Y-4.12400
X-4.61800 Y-4.12400
X-4.61800 Y-4.12300
X-4.61900 Y-4.12300
X-4.61900 Y-4.12200
X-4.62000 Y-4.12200
X-4.62000 Y-4.12100
X-4.62100 Y-4.12100
X-4.62100 Y-4.12000
X-4.62200 Y-4.12000
X-4.62200 Y-4.11900
X-4.62300 Y-4.11900
X-4.62300 Y-4.11800
X-4.62400 Y-4.11800
X-4.62400 Y-4.11700
X-4.62500 Y-4.11700
X-4.62500 Y-4.11600
X-4.62600 Y-4.11600
X-4.62600 Y-4.11500
X-4.62700 Y-4.11500
X-4.62700 Y-4.11400
X-4.62800 Y-4.11400
X-4.62800 Y-4.11300
X-4.62900 Y-4.11300
X-4.62900 Y-4.11200
X-4.63200 Y-4.11200
X-4.63200 Y-4.11100
X-4.63400 Y-4.11100
X-4.63400 Y-4.11000
X-4.63600 Y-4.11000
X-4.63600 Y-4.10900
X-4.63800 Y-4.10900
X-4.63800 Y-4.10800
X-4.64000 Y-4.10800
X-4.64000 Y-4.10700
X-4.64700 Y-4.10700
X-4.64700 Y-4.10600
X-4.69400 Y-4.10600
X-4.69400 Y-3.88900
X-4.69500 Y-3.88900
X-4.69500 Y-3.88500
X-4.69600 Y-3.88500
X-4.69600 Y-3.88000
X-4.69700 Y-3.88000
X-4.69700 Y-3.87600
X-4.69800 Y-3.87600
X-4.69800 Y-3.87500
X-4.69900 Y-3.87500
X-4.69900 Y-3.87300
X-4.70000 Y-3.87300
X-4.70000 Y-3.87200
X-4.70100 Y-3.87200
X-4.70100 Y-3.87000
X-4.70200 Y-3.87000
X-4.70200 Y-3.86900
X-4.70300 Y-3.86900
X-4.70300 Y-3.86800
X-4.70400 Y-3.86800
X-4.70400 Y-3.86700
X-4.70500 Y-3.86700
X-4.70500 Y-3.86600
X-4.70600 Y-3.86600
X-4.70600 Y-3.86500
X-4.70700 Y-3.86500
X-4.70700 Y-3.86400
X-4.70800 Y-3.86400
X-4.70800 Y-3.86300
X-4.70900 Y-3.86300
X-4.70900 Y-3.86200
X-4.71000 Y-3.86200
X-4.71000 Y-3.86100
X-4.71100 Y-3.86100
X-4.71100 Y-3.86000
X-4.71200 Y-3.86000
X-4.71200 Y-3.85900
X-4.71300 Y-3.85900
X-4.71300 Y-3.85800
X-4.71400 Y-3.85800
X-4.71400 Y-3.85700
X-4.71500 Y-3.85700
X-4.71500 Y-3.85600
X-4.71600 Y-3.85600
X-4.71600 Y-3.85500
X-4.71700 Y-3.85500
X-4.71700 Y-3.85400
X-4.71800 Y-3.85400
X-4.71800 Y-3.85300
X-4.71900 Y-3.85300
X-4.71900 Y-3.85200
X-4.72000 Y-3.85200
X-4.72000 Y-3.85100
X-4.72100 Y-3.85100
X-4.72100 Y-3.85000
X-4.72200 Y-3.85000
X-4.72200 Y-3.84900
X-4.72300 Y-3.84900
X-4.72300 Y-3.84800
X-4.72400 Y-3.84800
X-4.72400 Y-3.84700
X-4.72500 Y-3.84700
X-4.72500 Y-3.84600
X-4.72600 Y-3.84600
X-4.72600 Y-3.84500
X-4.72700 Y-3.84500
X-4.72700 Y-3.84400
X-4.72800 Y-3.84400
X-4.72800 Y-3.84300
X-4.72900 Y-3.84300
X-4.72900 Y-3.84200
X-4.73000 Y-3.84200
X-4.73000 Y-3.84100
X-4.73100 Y-3.84100
X-4.73100 Y-3.84000
X-4.73200 Y-3.84000
X-4.73200 Y-3.83900
X-4.73300 Y-3.83900
X-4.73300 Y-3.83800
X-4.73400 Y-3.83800
X-4.73400 Y-3.83700
X-4.73500 Y-3.83700
X-4.73500 Y-3.83600
X-4.73600 Y-3.83600
X-4.73600 Y-3.83500
X-4.73700 Y-3.83500
X-4.73700 Y-3.83400
X-4.73800 Y-3.83400
X-4.73800 Y-3.83300
X-4.73900 Y-3.83300
X-4.73900 Y-3.83200
X-4.74000 Y-3.83200
X-4.74000 Y-3.83100
X-4.74100 Y-3.83100
X-4.74100 Y-3.83000
X-4.74200 Y-3.83000
X-4.74200 Y-3.82900
X-4.74300 Y-3.82900
X-4.74300 Y-3.82800
X-4.74400 Y-3.82800
X-4.74400 Y-3.82700
X-4.74500 Y-3.82700
X-4.74500 Y-3.82600
X-4.74600 Y-3.82600
X-4.74600 Y-3.82500
X-4.74700 Y-3.82500
X-4.74700 Y-3.82400
X-4.74800 Y-3.82400
X-4.74800 Y-3.82300
X-4.74900 Y-3.82300
X-4.74900 Y-3.82200
X-4.75000 Y-3.82200
X-4.75000 Y-3.82100
X-4.75100 Y-3.82100
X-4.75100 Y-3.82000
X-4.75200 Y-3.82000
X-4.75200 Y-3.81900
X-4.75300 Y-3.81900
X-4.75300 Y-3.81800
X-4.75400 Y-3.81800
X-4.75400 Y-3.81700
X-4.75500 Y-3.81700
X-4.75500 Y-3.81600
X-4.75600 Y-3.81600
X-4.75600 Y-3.81500
X-4.75700 Y-3.81500
X-4.75700 Y-3.81400
X-4.75800 Y-3.81400
X-4.75800 Y-3.81300
X-4.75900 Y-3.81300
X-4.75900 Y-3.81200
X-4.76000 Y-3.81200
X-4.76000 Y-3.81100
X-4.76100 Y-3.81100
X-4.76100 Y-3.81000
X-4.76200 Y-3.81000
X-4.76200 Y-3.80900
X-4.76300 Y-3.80900
X-4.76300 Y-3.80800
X-4.76400 Y-3.80800
X-4.76400 Y-3.80700
X-4.76500 Y-3.80700
X-4.76500 Y-3.80600
X-4.76600 Y-3.80600
X-4.76600 Y-3.80500
X-4.76700 Y-3.80500
X-4.76700 Y-3.80400
X-4.76800 Y-3.80400
X-4.76800 Y-3.80300
X-4.76900 Y-3.80300
X-4.76900 Y-3.80200
X-4.77000 Y-3.80200
X-4.77000 Y-3.80100
X-4.77100 Y-3.80100
X-4.77100 Y-3.80000
X-4.77200 Y-3.80000
X-4.77200 Y-3.79900
X-4.77300 Y-3.79900
X-4.77300 Y-3.79800
X-4.77400 Y-3.79800
X-4.77400 Y-3.79700
X-4.77500 Y-3.79700
X-4.77500 Y-3.79600
X-4.77600 Y-3.79600
X-4.77600 Y-3.79500
X-4.77700 Y-3.79500
X-4.77700 Y-3.79400
X-4.77800 Y-3.79400
X-4.77800 Y-3.79300
X-4.77900 Y-3.79300
X-4.77900 Y-3.79200
X-4.78000 Y-3.79200
X-4.78000 Y-3.79100
X-4.78100 Y-3.79100
X-4.78100 Y-3.79000
X-4.78200 Y-3.79000
X-4.78200 Y-3.78900
X-4.78300 Y-3.78900
X-4.78300 Y-3.78800
X-4.78400 Y-3.78800
X-4.78400 Y-3.78700
X-4.78500 Y-3.78700
X-4.78500 Y-3.78600
X-4.78600 Y-3.78600
X-4.78600 Y-3.78500
X-4.78700 Y-3.78500
X-4.78700 Y-3.78400
X-4.78800 Y-3.78400
X-4.78800 Y-3.78300
X-4.78900 Y-3.78300
X-4.78900 Y-3.78200
X-4.79000 Y-3.78200
X-4.79000 Y-3.78100
X-4.79100 Y-3.78100
X-4.79100 Y-3.78000
X-4.79200 Y-3.78000
X-4.79200 Y-3.77900
X-4.79300 Y-3.77900
X-4.79300 Y-3.77800
X-4.79400 Y-3.77800
X-4.79400 Y-3.77700
X-4.79500 Y-3.77700
X-4.79500 Y-3.77600
X-4.79600 Y-3.77600
X-4.79600 Y-3.77500
X-4.79700 Y-3.77500
X-4.79700 Y-3.77400
X-4.79800 Y-3.77400
X-4.79800 Y-3.77300
X-4.79900 Y-3.77300
X-4.79900 Y-3.77200
X-4.80000 Y-3.77200
X-4.80000 Y-3.77100
X-4.80100 Y-3.77100
X-4.80100 Y-3.77000
X-4.80200 Y-3.77000
X-4.80200 Y-3.76900
X-4.80300 Y-3.76900
X-4.80300 Y-3.76800
X-4.80400 Y-3.76800
X-4.80400 Y-3.76700
X-4.80500 Y-3.76700
X-4.80500 Y-3.76600
X-4.80600 Y-3.76600
X-4.80600 Y-3.76500
X-4.80700 Y-3.76500
X-4.80700 Y-3.76400
X-4.80800 Y-3.76400
X-4.80800 Y-3.76300
X-4.80900 Y-3.76300
X-4.80900 Y-3.76200
X-4.81000 Y-3.76200
X-4.81000 Y-3.76100
X-4.81100 Y-3.76100
X-4.81100 Y-3.76000
X-4.81400 Y-3.76000
X-4.81400 Y-3.75900
X-4.81600 Y-3.75900
X-4.81600 Y-3.75800
X-4.81800 Y-3.75800
X-4.81800 Y-3.75700
X-4.82000 Y-3.75700
X-4.82000 Y-3.75600
X-4.82200 Y-3.75600
X-4.82200 Y-3.75500
X-4.82900 Y-3.75500
X-4.82900 Y-3.75400
X-5.34500 Y-3.75400
X-5.34500 Y-3.75500
G04 P0 ( dwell for no time -- G64 should not smooth over this point )
G00 Z0.19685 ( retract )

G00 X-4.88000 Y-3.87600 ( rapid move to begin. )
G01 Z-0.00591 F39.37008 ( plunge. )
G04 P0 ( dwell for no time -- G64 should not smooth over this point )
X-4.88000 Y-3.87600
X-4.88200 Y-3.87600
X-4.88200 Y-3.87700
X-4.88400 Y-3.87700
X-4.88400 Y-3.87800
X-4.88500 Y-3.87800
X-4.88500 Y-3.87900
X-4.88700 Y-3.87900
X-4.88700 Y-3.88000
X-4.88900 Y-3.88000
X-4.88900 Y-3.88100
X-4.89100 Y-3.88100
X-4.89100 Y-3.88200
X-4.89300 Y-3.88200
X-4.89300 Y-3.88300
X-4.89400 Y-3.88300
X-4.89400 Y-3.88400
X-4.89500 Y-3.88400
X-4.89500 Y-3.88500
X-4.89600 Y-3.88500
X-4.89600 Y-3.88600
X-4.89700 Y-3.88600
X-4.89700 Y-3.88700
X-4.89800 Y-3.88700
X-4.89800 Y-3.88800
X-4.89900 Y-3.88800
X-4.89900 Y-3.88900
X-4.90000 Y-3.88900
X-4.90000 Y-3.89000
X-4.90100 Y-3.89000
X-4.90100 Y-3.89100
X-4.90200 Y-3.89100
X-4.90200 Y-3.89200
X-4.90300 Y-3.89200
X-4.90300 Y-3.89300
X-4.90400 Y-3.89300
X-4.90400 Y-3.89400
X-4.90500 Y-3.89400
X-4.90500 Y-3.89500
X-4.90600 Y-3.89500
X-4.90600 Y-3.89600
X-4.90700 Y-3.89600
X-4.90700 Y-3.89700
X-4.90800 Y-3.89700
X-4.90800 Y-3.89800
X-4.90900 Y-3.89800
X-4.90900 Y-3.89900
X-4.91000 Y-3.89900
X-4.91000 Y-3.90000
X-4.91100 Y-3.90000
X-4.91100 Y-3.90100
X-4.91200 Y-3.90100
X-4.91200 Y-3.90200
X-4.91300 Y-3.90200
X-4.91300 Y-3.90300
X-4.91400 Y-3.90300
X-4.91400 Y-3.90400
X-4.91500 Y-3.90400
X-4.91500 Y-3.90500
X-4.91600 Y-3.90500
X-4.91600 Y-3.90600
X-4.91700 Y-3.90600
X-4.91700 Y-3.90700
X-4.91800 Y-3.90700
X-4.91800 Y-3.90800
X-4.91900 Y-3.90800
X-4.91900 Y-3.90900
X-4.92000 Y-3.90900
X-4.92000 Y-3.91000
X-4.92100 Y-3.91000
X-4.92100 Y-3.91100
X-4.92200 Y-3.91100
X-4.92200 Y-3.91200
X-4.92300 Y-3.91200
X-4.92300 Y-3.91300
X-4.92400 Y-3.91300
X-4.92400 Y-3.91400
X-4.92500 Y-3.91400
X-4.92500 Y-3.91500
X-4.92600 Y-3.91500
X-4.92600 Y-3.91600
X-4.92700 Y-3.91600
X-4.92700 Y-3.91700
X-4.92800 Y-3.91700
X-4.92800 Y-3.91800
X-4.92900 Y-3.91800
X-4.92900 Y-3.91900
X-4.93000 Y-3.91900
X-4.93000 Y-3.92000
X-4.93100 Y-3.92000
X-4.93100 Y-3.92100
X-4.93200 Y-3.92100
X-4.93200 Y-3.92200
X-4.93300 Y-3.92200
X-4.93300 Y-3.92300
X-4.93400 Y-3.92300
X-4.93400 Y-3.92400
X-4.93500 Y-3.92400
X-4.93500 Y-3.92600
X-4.93600 Y-3.92600
X-4.93600 Y-3.92700
X-4.93700 Y-3.92700
X-4.93700 Y-3.92800
X-4.93800 Y-3.92800
X-4.93800 Y-3.93000
X-4.93900 Y-3.93000
X-4.93900 Y-3.93100
X-4.94000 Y-3.93100
X-4.94000 Y-3.93200
X-4.94100 Y-3.93200
X-4.94100 Y-3.93600
X-4.94200 Y-3.93600
X-4.94200 Y-3.94100
X-4.94300 Y-3.94100
X-4.94300 Y-3.94500
X-4.94400 Y-3.94500
X-4.94400 Y-4.35400
X-4.94300 Y-4.35400
X-4.94300 Y-4.35800
X-4.94200 Y-4.35800
X-4.94200 Y-4.36300
X-4.94100 Y-4.36300
X-4.94100 Y-4.36700
X-4.94000 Y-4.36700
X-4.94000 Y-4.36800
X-4.93900 Y-4.36800
X-4.93900 Y-4.37000
X-4.93800 Y-4.37000
X-4.93800 Y-4.37100
X-4.93700 Y-4.37100
X-4.93700 Y-4.37300
X-4.93600 Y-4.37300
X-4.93600 Y-4.37400
X-4.93500 Y-4.37400
X-4.93500 Y-4.37500
X-4.93400 Y-4.37500
X-4.93400 Y-4.37600
X-4.93300 Y-4.37600
X-4.93300 Y-4.37700
X-4.93200 Y-4.37700
X-4.93200 Y-4.37800
X-4.93100 Y-4.37800
X-4.93100 Y-4.37900
X-4.93000 Y-4.37900
X-4.93000 Y-4.38000
X-4.92900 Y-4.38000
X-4.92900 Y-4.38100
X-4.92800 Y-4.38100
X-4.92800 Y-4.38200
X-4.92700 Y-4.38200
X-4.92700 Y-4.38300
X-4.92600 Y-4.38300
X-4.92600 Y-4.38400
X-4.92500 Y-4.38400
X-4.92500 Y-4.38500
X-4.92400 Y-4.38500
X-4.92400 Y-4.38600
X-4.92300 Y-4.38600
X-4.92300 Y-4.38700
X-4.92200 Y-4.38700
X-4.92200 Y-4.38800
X-4.92100 Y-4.38800
X-4.92100 Y-4.38900
X-4.92000 Y-4.38900
X-4.92000 Y-4.39000
X-4.91900 Y-4.39000
X-4.91900 Y-4.39100
X-4.91800 Y-4.39100
X-4.91800 Y-4.39200
X-4.91700 Y-4.39200
X-4.91700 Y-4.39300
X-4.91600 Y-4.39300
X-4.91600 Y-4.39400
X-4.91500 Y-4.39400
X-4.91500 Y-4.39500
X-4.91400 Y-4.39500
X-4.91400 Y-4.39600
X-4.91300 Y-4.39600
X-4.91300 Y-4.39700
X-4.91200 Y-4.39700
X-4.91200 Y-4.39800
X-4.91100 Y-4.39800
X-4.91100 Y-4.39900
X-4.91000 Y-4.39900
X-4.91000 Y-4.40000
X-4.90900 Y-4.40000
X-4.90900 Y-4.40100
X-4.90800 Y-4.40100
X-4.90800 Y-4.40200
X-4.90700 Y-4.40200
X-4.90700 Y-4.40300
X-4.90600 Y-4.40300
X-4.90600 Y-4.40400
X-4.90500 Y-4.40400
X-4.90500 Y-4.40500
X-4.90400 Y-4.40500
X-4.90400 Y-4.40600
X-4.90300 Y-4.40600
X-4.90300 Y-4.40700
X-4.90200 Y-4.40700
X-4.90200 Y-4.40800
X-4.90100 Y-4.40800
X-4.90100 Y-4.40900
X-4.90000 Y-4.40900
X-4.90000 Y-4.41000
X-4.89900 Y-4.41000
X-4.89900 Y-4.41100
X-4.89800 Y-4.41100
X-4.89800 Y-4.41200
X-4.89700 Y-4.41200
X-4.89700 Y-4.41300
X-4.89600 Y-4.41300
X-4.89600 Y-4.41400
X-4.89500 Y-4.41400
X-4.89500 Y-4.41500
X-4.89400 Y-4.41500
X-4.89400 Y-4.41600
X-4.89300 Y-4.41600
X-4.89300 Y-4.41700
X-4.89200 Y-4.41700
X-4.89200 Y-4.41800
X-4.89100 Y-4.41800
X-4.89100 Y-4.41900
X-4.89000 Y-4.41900
X-4.89000 Y-4.42000
X-4.88900 Y-4.42000
X-4.88900 Y-4.42100
X-4.88800 Y-4.42100
X-4.88800 Y-4.42200
X-4.88700 Y-4.42200
X-4.88700 Y-4.42300
X-4.88600 Y-4.42300
X-4.88600 Y-4.42400
X-4.88500 Y-4.42400
X-4.88500 Y-4.42500
X-4.88400 Y-4.42500
X-4.88400 Y-4.42600
X-4.88300 Y-4.42600
X-4.88300 Y-4.42700
X-4.88200 Y-4.42700
X-4.88200 Y-4.42800
X-4.88100 Y-4.42800
X-4.88100 Y-4.42900
X-4.88000 Y-4.42900
X-4.88000 Y-4.43000
X-4.87900 Y-4.43000
X-4.87900 Y-4.43100
X-4.87800 Y-4.43100
X-4.87800 Y-4.43200
X-4.87700 Y-4.43200
X-4.87700 Y-4.43300
X-4.87600 Y-4.43300
X-4.87600 Y-4.43400
X-4.87500 Y-4.43400
X-4.87500 Y-4.43500
X-4.87400 Y-4.43500
X-4.87400 Y-4.43600
X-4.87300 Y-4.43600
X-4.87300 Y-4.43700
X-4.87200 Y-4.43700
X-4.87200 Y-4.43800
X-4.87100 Y-4.43800
X-4.87100 Y-4.43900
X-4.87000 Y-4.43900
X-4.87000 Y-4.44000
X-4.86900 Y-4.44000
X-4.86900 Y-4.44100
X-4.86600 Y-4.44100
X-4.86600 Y-4.44200
X-4.86400 Y-4.44200
X-4.86400 Y-4.44300
X-4.86200 Y-4.44300
X-4.86200 Y-4.44400
X-4.86000 Y-4.44400
X-4.86000 Y-4.44500
X-4.85800 Y-4.44500
X-4.85800 Y-4.44600
X-4.85100 Y-4.44600
X-4.85100 Y-4.44700
X-4.72600 Y-4.44700
X-4.72600 Y-4.44800
X-4.72700 Y-4.44800
X-4.72700 Y-4.45000
X-4.72800 Y-4.45000
X-4.72800 Y-4.45200
X-4.72900 Y-4.45200
X-4.72900 Y-4.45400
X-4.73000 Y-4.45400
X-4.73000 Y-4.45700
X-4.73100 Y-4.45700
X-4.73100 Y-4.45900
X-4.73200 Y-4.45900
X-4.73200 Y-4.46100
X-4.73300 Y-4.46100
X-4.73300 Y-4.46400
X-4.73400 Y-4.46400
X-4.73400 Y-4.46600
X-4.73500 Y-4.46600
X-4.73500 Y-4.46800
X-4.73600 Y-4.46800
X-4.73600 Y-4.47100
X-4.73700 Y-4.47100
X-4.73700 Y-4.47300
X-4.73800 Y-4.47300
X-4.73800 Y-4.47500
X-4.73900 Y-4.47500
X-4.73900 Y-4.47700
X-4.74000 Y-4.47700
X-4.74000 Y-4.48000
X-4.74100 Y-4.48000
X-4.74100 Y-4.48200
X-4.74200 Y-4.48200
X-4.74200 Y-4.48400
X-4.74300 Y-4.48400
X-4.74300 Y-4.48700
X-4.74400 Y-4.48700
X-4.74400 Y-4.48900
X-4.74500 Y-4.48900
X-4.74500 Y-4.49100
X-4.74600 Y-4.49100
X-4.74600 Y-4.49300
X-4.74700 Y-4.49300
X-4.74700 Y-4.49600
X-4.74800 Y-4.49600
X-4.74800 Y-4.49800
X-4.74900 Y-4.49800
X-4.74900 Y-4.50000
X-4.75000 Y-4.50000
X-4.75000 Y-4.50300
X-4.75100 Y-4.50300
X-4.75100 Y-4.50500
X-4.75200 Y-4.50500
X-4.75200 Y-4.50700
X-4.75300 Y-4.50700
X-4.75300 Y-4.50900
X-4.75400 Y-4.50900
X-4.75400 Y-4.51200
X-4.75500 Y-4.51200
X-4.75500 Y-4.51400
X-4.75600 Y-4.51400
X-4.75600 Y-4.51600
X-4.75700 Y-4.51600
X-4.75700 Y-4.51900
X-4.75800 Y-4.51900
X-4.75800 Y-4.52100
X-4.75900 Y-4.52100
X-4.75900 Y-4.52300
X-4.76000 Y-4.52300
X-4.76000 Y-4.52500
X-4.76100 Y-4.52500
X-4.76100 Y-4.52800
X-4.76200 Y-4.52800
X-4.76200 Y-4.53000
X-4.76300 Y-4.53000
X-4.76300 Y-4.53200
X-4.76400 Y-4.53200
X-4.76400 Y-4.53500
X-4.76500 Y-4.53500
X-4.76500 Y-4.53700
X-4.76600 Y-4.53700
X-4.76600 Y-4.53900
X-4.76700 Y-4.53900
X-4.76700 Y-4.54100
X-4.76800 Y-4.54100
X-4.76800 Y-4.54400
X-4.76900 Y-4.54400
X-4.76900 Y-4.54600
X-4.77000 Y-4.54600
X-4.77000 Y-4.54800
X-4.77100 Y-4.54800
X-4.77100 Y-4.55100
X-4.77200 Y-4.55100
X-4.77200 Y-4.55300
X-4.77300 Y-4.55300
X-4.77300 Y-4.55500
X-4.77400 Y-4.55500
X-4.77400 Y-4.55700
X-4.77500 Y-4.55700
X-4.77500 Y-4.56000
X-4.77600 Y-4.56000
X-4.77600 Y-4.56200
X-4.77700 Y-4.56200
X-4.77700 Y-4.56400
X-4.77800 Y-4.56400
X-4.77800 Y-4.56700
X-4.77900 Y-4.56700
X-4.77900 Y-4.56900
X-4.78000 Y-4.56900
X-4.78000 Y-4.57100
X-4.78100 Y-4.57100
X-4.78100 Y-4.57400
X-4.78200 Y-4.57400
X-4.78200 Y-4.57600
X-4.78300 Y-4.57600
X-4.78300 Y-4.57800
X-4.78400 Y-4.57800
X-4.78400 Y-4.58000
X-4.78500 Y-4.58000
X-4.78500 Y-4.58300
X-4.78600 Y-4.58300
X-4.78600 Y-4.58500
X-4.78700 Y-4.58500
X-4.78700 Y-4.58700
X-4.78800 Y-4.58700
X-4.78800 Y-4.59000
X-4.78900 Y-4.59000
X-4.78900 Y-4.59200
X-4.79000 Y-4.59200
X-4.79000 Y-4.59400
X-4.79100 Y-4.59400
X-4.79100 Y-4.59600
X-4.79200 Y-4.59600
X-4.79200 Y-4.59900
X-4.79300 Y-4.59900
X-4.79300 Y-4.60100
X-4.79400 Y-4.60100
X-4.79400 Y-4.60300
X-4.79500 Y-4.60300
X-4.79500 Y-4.60600
X-4.79600 Y-4.60600
X-4.79600 Y-4.60800
X-4.79700 Y-4.60800
X-4.79700 Y-4.61000
X-4.79800 Y-4.61000
X-4.79800 Y-4.61200
X-4.79900 Y-4.61200
X-4.79900 Y-4.61500
X-4.80000 Y-4.61500
X-4.80000 Y-4.61700
X-4.80100 Y-4.61700
X-4.80100 Y-4.61900
X-4.80200 Y-4.61900
X-4.80200 Y-4.62200
X-4.80300 Y-4.62200
X-4.80300 Y-4.62400
X-4.80400 Y-4.62400
X-4.80400 Y-4.62600
X-4.80500 Y-4.62600
X-4.80500 Y-4.62800
X-4.80600 Y-4.62800
X-4.80600 Y-4.63100
X-4.80700 Y-4.63100
X-4.80700 Y-4.63300
X-4.80800 Y-4.63300
X-4.80800 Y-4.63500
X-4.80900 Y-4.63500
X-4.80900 Y-4.63800
X-4.81000 Y-4.63800
X-4.81000 Y-4.64000
X-4.81100 Y-4.64000
X-4.81100 Y-4.64200
X-4.81200 Y-4.64200
X-4.81200 Y-4.64400
X-4.81300 Y-4.64400
X-4.81300 Y-4.64700
X-4.81400 Y-4.64700
X-4.81400 Y-4.64900
X-4.81500 Y-4.64900
X-4.81500 Y-4.65100
X-4.81600 Y-4.65100
X-4.81600 Y-4.65400
X-4.81700 Y-4.65400
X-4.81700 Y-4.65600
X-4.81800 Y-4.65600
X-4.81800 Y-4.65800
X-4.81900 Y-4.65800
X-4.81900 Y-4.66000
X-4.82000 Y-4.66000
X-4.82000 Y-4.66300
X-4.82100 Y-4.66300
X-4.82100 Y-4.66500
X-4.82200 Y-4.66500
X-4.82200 Y-4.66700
X-4.82300 Y-4.66700
X-4.82300 Y-4.67000
X-4.82400 Y-4.67000
X-4.82400 Y-4.67200
X-4.82500 Y-4.67200
X-4.82500 Y-4.67400
X-4.82600 Y-4.67400
X-4.82600 Y-4.67600
X-4.82700 Y-4.67600
X-4.82700 Y-4.67900
X-4.82800 Y-4.67900
X-4.82800 Y-4.68100
X-4.82900 Y-4.68100
X-4.82900 Y-4.68300
X-4.83000 Y-4.68300
X-4.83000 Y-4.68600
X-4.83100 Y-4.68600
X-4.83100 Y-4.68800
X-4.83200 Y-4.68800
X-4.83200 Y-4.69000
X-4.83300 Y-4.69000
X-4.83300 Y-4.69300
X-4.83400 Y-4.69300
X-4.83400 Y-4.69500
X-4.83500 Y-4.69500
X-4.83500 Y-4.69700
X-4.83600 Y-4.69700
X-4.83600 Y-4.69900
X-4.83700 Y-4.69900
X-4.83700 Y-4.70200
X-4.83800 Y-4.70200
X-4.83800 Y-4.70400
X-4.83900 Y-4.70400
X-4.83900 Y-4.70600
X-4.84000 Y-4.70600
X-4.84000 Y-4.70900
X-4.84100 Y-4.70900
X-4.84100 Y-4.71100
X-4.84200 Y-4.71100
X-4.84200 Y-4.71300
X-4.84300 Y-4.71300
X-4.84300 Y-4.71500
X-4.84400 Y-4.71500
X-4.84400 Y-4.71800
X-4.84500 Y-4.71800
X-4.84500 Y-4.72000
X-4.84600 Y-4.72000
X-4.84600 Y-4.72200
X-4.84700 Y-4.72200
X-4.84700 Y-4.72500
X-4.84800 Y-4.72500
X-4.84800 Y-4.72700
X-4.84900 Y-4.72700
X-4.84900 Y-4.72900
X-4.85000 Y-4.72900
X-4.85000 Y-4.73100
X-4.85100 Y-4.73100
X-4.85100 Y-4.73400
X-4.85200 Y-4.73400
X-4.85200 Y-4.73600
X-4.85300 Y-4.73600
X-4.85300 Y-4.73800
X-4.85400 Y-4.73800
X-4.85400 Y-4.74100
X-4.85500 Y-4.74100
X-4.85500 Y-4.74300
X-4.85600 Y-4.74300
X-4.85600 Y-4.74500
X-4.85700 Y-4.74500
X-4.85700 Y-4.74700
X-4.85800 Y-4.74700
X-4.85800 Y-4.75000
X-4.85900 Y-4.75000
X-4.85900 Y-4.75200
X-4.86000 Y-4.75200
X-4.86000 Y-4.75400
X-4.86100 Y-4.75400
X-4.86100 Y-4.75700
X-4.86200 Y-4.75700
X-4.86200 Y-4.75900
X-4.86300 Y-4.75900
X-4.86300 Y-4.76100
X-4.86400 Y-4.76100
X-4.86400 Y-4.76300
X-4.86500 Y-4.76300
X-4.86500 Y-4.76600
X-4.86600 Y-4.76600
X-4.86600 Y-4.76800
X-4.86700 Y-4.76800
X-4.86700 Y-4.77000
X-4.86800 Y-4.77000
X-4.86800 Y-4.77300
X-4.86900 Y-4.77300
X-4.86900 Y-4.77500
X-4.87000 Y-4.77500
X-4.87000 Y-4.77700
X-4.87100 Y-4.77700
X-4.87100 Y-4.77900
X-4.87200 Y-4.77900
X-4.87200 Y-4.78200
X-4.87300 Y-4.78200
X-4.87300 Y-4.78400
X-4.87400 Y-4.78400
X-4.87400 Y-4.78600
X-4.87500 Y-4.78600
X-4.87500 Y-4.78900
X-4.87600 Y-4.78900
X-4.87600 Y-4.79100
X-4.87700 Y-4.79100
X-4.87700 Y-4.79300
X-4.87800 Y-4.79300
X-4.87800 Y-4.79600
X-4.87900 Y-4.79600
X-4.87900 Y-4.79800
X-4.88000 Y-4.79800
X-4.88000 Y-4.80000
X-4.88100 Y-4.80000
X-4.88100 Y-4.80200
X-4.88200 Y-4.80200
X-4.88200 Y-4.80500
X-4.88300 Y-4.80500
X-4.88300 Y-4.80700
X-4.88400 Y-4.80700
X-4.88400 Y-4.80900
X-4.88500 Y-4.80900
X-4.88500 Y-4.81200
X-4.88600 Y-4.81200
X-4.88600 Y-4.81400
X-4.88700 Y-4.81400
X-4.88700 Y-4.81600
X-4.88800 Y-4.81600
X-4.88800 Y-4.81800
X-4.88900 Y-4.81800
X-4.88900 Y-4.82100
X-4.89000 Y-4.82100
X-4.89000 Y-4.82300
X-4.89100 Y-4.82300
X-4.89100 Y-4.82500
X-4.89200 Y-4.82500
X-4.89200 Y-4.82800
X-4.89300 Y-4.82800
X-4.89300 Y-4.83000
X-4.89400 Y-4.83000
X-4.89400 Y-4.83200
X-4.89500 Y-4.83200
X-4.89500 Y-4.83400
X-4.89600 Y-4.83400
X-4.89600 Y-4.83700
X-4.89700 Y-4.83700
X-4.89700 Y-4.83900
X-4.89800 Y-4.83900
X-4.89800 Y-4.84100
X-4.89900 Y-4.84100
X-4.89900 Y-4.84400
X-4.90000 Y-4.84400
X-4.90000 Y-4.84600
X-4.90100 Y-4.84600
X-4.90100 Y-4.84800
X-4.90200 Y-4.84800
X-4.90200 Y-4.85000
X-4.90300 Y-4.85000
X-4.90300 Y-4.85300
X-4.90400 Y-4.85300
X-4.90400 Y-4.85500
X-4.90500 Y-4.85500
X-4.90500 Y-4.85700
X-4.90600 Y-4.85700
X-4.90600 Y-4.86000
X-4.90700 Y-4.86000
X-4.90700 Y-4.86200
X-4.90800 Y-4.86200
X-4.90800 Y-4.86400
X-4.90900 Y-4.86400
X-4.90900 Y-4.86600
X-4.91000 Y-4.86600
X-4.91000 Y-4.86900
X-4.91100 Y-4.86900
X-4.91100 Y-4.87100
X-4.91200 Y-4.87100
X-4.91200 Y-4.87300
X-4.91300 Y-4.87300
X-4.91300 Y-4.87600
X-4.91400 Y-4.87600
X-4.91400 Y-4.87800
X-4.91500 Y-4.87800
X-4.91500 Y-4.88000
X-4.91600 Y-4.88000
X-4.91600 Y-4.88200
X-4.91700 Y-4.88200
X-4.91700 Y-4.88500
X-4.91800 Y-4.88500
X-4.91800 Y-4.88700
X-4.91900 Y-4.88700
X-4.91900 Y-4.88900
X-4.92000 Y-4.88900
X-4.92000 Y-4.89200
X-4.92100 Y-4.89200
X-4.92100 Y-4.89400
X-4.92200 Y-4.89400
X-4.92200 Y-4.89600
X-4.92300 Y-4.89600
X-4.92300 Y-4.89800
X-4.92400 Y-4.89800
X-4.92400 Y-4.90100
X-4.92500 Y-4.90100
X-4.92500 Y-4.90300
X-4.92600 Y-4.90300
X-4.92600 Y-4.90500
X-4.92700 Y-4.90500
X-4.92700 Y-4.90800
X-4.92800 Y-4.90800
X-4.92800 Y-4.91000
X-4.92900 Y-4.91000
X-4.92900 Y-4.91400
X-4.93000 Y-4.91400
X-4.93000 Y-4.91800
X-4.93100 Y-4.91800
X-4.93100 Y-4.92200
X-4.93200 Y-4.92200
X-4.93200 Y-4.94600
X-4.93300 Y-4.94600
X-4.93300 Y-4.97600
X-4.93400 Y-4.97600
X-4.93400 Y-5.00500
X-4.93500 Y-5.00500
X-4.93500 Y-5.03500
X-4.93600 Y-5.03500
X-4.93600 Y-5.06500
X-4.93700 Y-5.06500
X-4.93700 Y-5.09400
X-4.93800 Y-5.09400
X-4.93800 Y-5.12400
X-4.93900 Y-5.12400
X-4.93900 Y-5.15300
X-4.94000 Y-5.15300
X-4.94000 Y-5.18300
X-4.94100 Y-5.18300
X-4.94100 Y-5.18600
X-4.94000 Y-5.18600
X-4.94000 Y-5.19000
X-4.93900 Y-5.19000
X-4.93900 Y-5.19400
X-4.93800 Y-5.19400
X-4.93800 Y-5.19800
X-4.93700 Y-5.19800
X-4.93700 Y-5.20000
X-4.93600 Y-5.20000
X-4.93600 Y-5.20100
X-4.93500 Y-5.20100
X-4.93500 Y-5.20300
X-4.93400 Y-5.20300
X-4.93400 Y-5.20400
X-4.93300 Y-5.20400
X-4.93300 Y-5.20600
X-4.93200 Y-5.20600
X-4.93200 Y-5.20700
X-4.93100 Y-5.20700
X-4.93100 Y-5.20800
X-4.93000 Y-5.20800
X-4.93000 Y-5.20900
X-4.92900 Y-5.20900
X-4.92900 Y-5.21000
X-4.92800 Y-5.21000
X-4.92800 Y-5.21100
X-4.92700 Y-5.21100
X-4.92700 Y-5.21200
X-4.92600 Y-5.21200
X-4.92600 Y-5.21300
X-4.92500 Y-5.21300
X-4.92500 Y-5.21400
X-4.92400 Y-5.21400
X-4.92400 Y-5.21500
X-4.92300 Y-5.21500
X-4.92300 Y-5.21600
X-4.92200 Y-5.21600
X-4.92200 Y-5.21700
X-4.92100 Y-5.21700
X-4.92100 Y-5.21800
X-4.92000 Y-5.21800
X-4.92000 Y-5.21900
X-4.91900 Y-5.21900
X-4.91900 Y-5.22000
X-4.91800 Y-5.22000
X-4.91800 Y-5.22100
X-4.91700 Y-5.22100
X-4.91700 Y-5.22200
X-4.91600 Y-5.22200
X-4.91600 Y-5.22300
X-4.91500 Y-5.22300
X-4.91500 Y-5.22400
X-4.91400 Y-5.22400
X-4.91400 Y-5.22500
X-4.91300 Y-5.22500
X-4.91300 Y-5.22600
X-4.91200 Y-5.22600
X-4.91200 Y-5.22700
X-4.91100 Y-5.22700
X-4.91100 Y-5.22800
X-4.91000 Y-5.22800
X-4.91000 Y-5.22900
X-4.90900 Y-5.22900
X-4.90900 Y-5.23000
X-4.90800 Y-5.23000
X-4.90800 Y-5.23100
X-4.90700 Y-5.23100
X-4.90700 Y-5.23200
X-4.90600 Y-5.23200
X-4.90600 Y-5.23300
X-4.90500 Y-5.23300
X-4.90500 Y-5.23400
X-4.90400 Y-5.23400
X-4.90400 Y-5.23500
X-4.90300 Y-5.23500
X-4.90300 Y-5.23600
X-4.90200 Y-5.23600
X-4.90200 Y-5.23700
X-4.90100 Y-5.23700
X-4.90100 Y-5.23800
X-4.90000 Y-5.23800
X-4.90000 Y-5.23900
X-4.89900 Y-5.23900
X-4.89900 Y-5.24000
X-4.89800 Y-5.24000
X-4.89800 Y-5.24100
X-4.89700 Y-5.24100
X-4.89700 Y-5.24200
X-4.89600 Y-5.24200
X-4.89600 Y-5.24300
X-4.89500 Y-5.24300
X-4.89500 Y-5.24400
X-4.89400 Y-5.24400
X-4.89400 Y-5.24500
X-4.89300 Y-5.24500
X-4.89300 Y-5.24600
X-4.89200 Y-5.24600
X-4.89200 Y-5.24700
X-4.89100 Y-5.24700
X-4.89100 Y-5.24800
X-4.89000 Y-5.24800
X-4.89000 Y-5.24900
X-4.88900 Y-5.24900
X-4.88900 Y-5.25000
X-4.88800 Y-5.25000
X-4.88800 Y-5.25100
X-4.88700 Y-5.25100
X-4.88700 Y-5.25200
X-4.88600 Y-5.25200
X-4.88600 Y-5.25300
X-4.88500 Y-5.25300
X-4.88500 Y-5.25400
X-4.88400 Y-5.25400
X-4.88400 Y-5.25500
X-4.88300 Y-5.25500
X-4.88300 Y-5.25600
X-4.88200 Y-5.25600
X-4.88200 Y-5.25700
X-4.88100 Y-5.25700
X-4.88100 Y-5.25800
X-4.88000 Y-5.25800
X-4.88000 Y-5.25900
X-4.87900 Y-5.25900
X-4.87900 Y-5.26000
X-4.87800 Y-5.26000
X-4.87800 Y-5.26100
X-4.87700 Y-5.26100
X-4.87700 Y-5.26200
X-4.87600 Y-5.26200
X-4.87600 Y-5.26300
X-4.87500 Y-5.26300
X-4.87500 Y-5.26400
X-4.87400 Y-5.26400
X-4.87400 Y-5.26500
X-4.87300 Y-5.26500
X-4.87300 Y-5.26600
X-4.87200 Y-5.26600
X-4.87200 Y-5.26700
X-4.87100 Y-5.26700
X-4.87100 Y-5.26800
X-4.87000 Y-5.26800
X-4.87000 Y-5.26900
X-4.86900 Y-5.26900
X-4.86900 Y-5.27000
X-4.86800 Y-5.27000
X-4.86800 Y-5.27100
X-4.86700 Y-5.27100
X-4.86700 Y-5.27200
X-4.86600 Y-5.27200
X-4.86600 Y-5.27300
X-4.86500 Y-5.27300
X-4.86500 Y-5.27400
X-4.86400 Y-5.27400
X-4.86400 Y-5.27500
X-4.86300 Y-5.27500
X-4.86300 Y-5.27600
X-4.86200 Y-5.27600
X-4.86200 Y-5.27700
X-4.86100 Y-5.27700
X-4.86100 Y-5.27800
X-4.86000 Y-5.27800
X-4.86000 Y-5.27900
X-4.85900 Y-5.27900
X-4.85900 Y-5.28000
X-4.85800 Y-5.28000
X-4.85800 Y-5.28100
X-4.85700 Y-5.28100
X-4.85700 Y-5.28200
X-4.85600 Y-5.28200
X-4.85600 Y-5.28300
X-4.85500 Y-5.28300
X-4.85500 Y-5.28400
X-4.85400 Y-5.28400
X-4.85400 Y-5.28500
X-4.85300 Y-5.28500
X-4.85300 Y-5.28600
X-4.85200 Y-5.28600
X-4.85200 Y-5.28700
X-4.85000 Y-5.28700
X-4.85000 Y-5.28800
X-4.84700 Y-5.28800
X-4.84700 Y-5.28900
X-4.84500 Y-5.28900
X-4.84500 Y-5.29000
X-4.84300 Y-5.29000
X-4.84300 Y-5.29100
X-4.84100 Y-5.29100
X-4.84100 Y-5.29200
X-4.83800 Y-5.29200
X-4.83800 Y-5.29300
X-4.75200 Y-5.29300
X-4.75200 Y-5.29200
X-4.74900 Y-5.29200
X-4.74900 Y-5.29100
X-4.74700 Y-5.29100
X-4.74700 Y-5.29000
X-4.74500 Y-5.29000
X-4.74500 Y-5.28900
X-4.74300 Y-5.28900
X-4.74300 Y-5.28800
X-4.74000 Y-5.28800
X-4.74000 Y-5.28700
X-4.73900 Y-5.28700
X-4.73900 Y-5.28600
X-4.73800 Y-5.28600
X-4.73800 Y-5.28500
X-4.73600 Y-5.28500
X-4.73600 Y-5.28400
X-4.73500 Y-5.28400
X-4.73500 Y-5.28300
X-4.73400 Y-5.28300
X-4.73400 Y-5.28200
X-4.73300 Y-5.28200
X-4.73300 Y-5.28100
X-4.73200 Y-5.28100
X-4.73200 Y-5.28000
X-4.73100 Y-5.28000
X-4.73100 Y-5.27900
X-4.73000 Y-5.27900
X-4.73000 Y-5.27800
X-4.72900 Y-5.27800
X-4.72900 Y-5.27700
X-4.72800 Y-5.27700
X-4.72800 Y-5.27600
X-4.72700 Y-5.27600
X-4.72700 Y-5.27500
X-4.72600 Y-5.27500
X-4.72600 Y-5.27400
X-4.72500 Y-5.27400
X-4.72500 Y-5.27300
X-4.72400 Y-5.27300
X-4.72400 Y-5.27200
X-4.72300 Y-5.27200
X-4.72300 Y-5.27100
X-4.72200 Y-5.27100
X-4.72200 Y-5.27000
X-4.72100 Y-5.27000
X-4.72100 Y-5.26900
X-4.72000 Y-5.26900
X-4.72000 Y-5.26800
X-4.71900 Y-5.26800
X-4.71900 Y-5.26700
X-4.71800 Y-5.26700
X-4.71800 Y-5.26600
X-4.71700 Y-5.26600
X-4.71700 Y-5.26500
X-4.71600 Y-5.26500
X-4.71600 Y-5.26400
X-4.71500 Y-5.26400
X-4.71500 Y-5.26300
X-4.71400 Y-5.26300
X-4.71400 Y-5.26200
X-4.71300 Y-5.26200
X-4.71300 Y-5.26100
X-4.71200 Y-5.26100
X-4.71200 Y-5.26000
X-4.71100 Y-5.26000
X-4.71100 Y-5.25900
X-4.71000 Y-5.25900
X-4.71000 Y-5.25800
X-4.70900 Y-5.25800
X-4.70900 Y-5.25700
X-4.70800 Y-5.25700
X-4.70800 Y-5.25600
X-4.70700 Y-5.25600
X-4.70700 Y-5.25500
X-4.70600 Y-5.25500
X-4.70600 Y-5.25400
X-4.70500 Y-5.25400
X-4.70500 Y-5.25300
X-4.70400 Y-5.25300
X-4.70400 Y-5.25200
X-4.70300 Y-5.25200
X-4.70300 Y-5.25100
X-4.70200 Y-5.25100
X-4.70200 Y-5.25000
X-4.70100 Y-5.25000
X-4.70100 Y-5.24900
X-4.70000 Y-5.24900
X-4.70000 Y-5.24800
X-4.69900 Y-5.24800
X-4.69900 Y-5.24700
X-4.69800 Y-5.24700
X-4.69800 Y-5.24600
X-4.69700 Y-5.24600
X-4.69700 Y-5.24500
X-4.69600 Y-5.24500
X-4.69600 Y-5.24400
X-4.69500 Y-5.24400
X-4.69500 Y-5.24300
X-4.69400 Y-5.24300
X-4.69400 Y-5.24200
X-4.69300 Y-5.24200
X-4.69300 Y-5.24100
X-4.69200 Y-5.24100
X-4.69200 Y-5.24000
X-4.69100 Y-5.24000
X-4.69100 Y-5.23900
X-4.69000 Y-5.23900
X-4.69000 Y-5.23800
X-4.68900 Y-5.23800
X-4.68900 Y-5.23700
X-4.68800 Y-5.23700
X-4.68800 Y-5.23600
X-4.68700 Y-5.23600
X-4.68700 Y-5.23500
X-4.68600 Y-5.23500
X-4.68600 Y-5.23400
X-4.68500 Y-5.23400
X-4.68500 Y-5.23300
X-4.68400 Y-5.23300
X-4.68400 Y-5.23200
X-4.68300 Y-5.23200
X-4.68300 Y-5.23100
X-4.68200 Y-5.23100
X-4.68200 Y-5.23000
X-4.68100 Y-5.23000
X-4.68100 Y-5.22900
X-4.68000 Y-5.22900
X-4.68000 Y-5.22800
X-4.67900 Y-5.22800
X-4.67900 Y-5.22700
X-4.67800 Y-5.22700
X-4.67800 Y-5.22600
X-4.67700 Y-5.22600
X-4.67700 Y-5.22500
X-4.67600 Y-5.22500
X-4.67600 Y-5.22400
X-4.67500 Y-5.22400
X-4.67500 Y-5.22300
X-4.67400 Y-5.22300
X-4.67400 Y-5.22100
X-4.67300 Y-5.22100
X-4.67300 Y-5.21900
X-4.67200 Y-5.21900
X-4.67200 Y-5.21800
X-4.67100 Y-5.21800
X-4.67100 Y-5.21700
X-4.67000 Y-5.21700
X-4.67000 Y-5.21600
X-4.66900 Y-5.21600
X-4.66900 Y-5.21400
X-4.66800 Y-5.21400
X-4.66800 Y-5.21100
X-4.66700 Y-5.21100
X-4.66700 Y-5.20600
X-4.66600 Y-5.20600
X-4.66600 Y-5.20200
X-4.66500 Y-5.20200
X-4.66500 Y-5.17400
X-4.66400 Y-5.17400
X-4.66400 Y-5.17500
X-4.66300 Y-5.17500
X-4.66300 Y-5.17600
X-4.66200 Y-5.17600
X-4.66200 Y-5.17700
X-4.66100 Y-5.17700
X-4.66100 Y-5.17800
X-4.66000 Y-5.17800
X-4.66000 Y-5.17900
X-4.65900 Y-5.17900
X-4.65900 Y-5.18000
X-4.65800 Y-5.18000
X-4.65800 Y-5.18100
X-4.65700 Y-5.18100
X-4.65700 Y-5.18200
X-4.65600 Y-5.18200
X-4.65600 Y-5.18300
X-4.65500 Y-5.18300
X-4.65500 Y-5.18400
X-4.65400 Y-5.18400
X-4.65400 Y-5.18500
X-4.65300 Y-5.18500
X-4.65300 Y-5.18600
X-4.65200 Y-5.18600
X-4.65200 Y-5.18700
X-4.65100 Y-5.18700
X-4.65100 Y-5.18800
X-4.65000 Y-5.18800
X-4.65000 Y-5.18900
X-4.64900 Y-5.18900
X-4.64900 Y-5.19000
X-4.64800 Y-5.19000
X-4.64800 Y-5.19100
X-4.64700 Y-5.19100
X-4.64700 Y-5.19200
X-4.64600 Y-5.19200
X-4.64600 Y-5.19300
X-4.64500 Y-5.19300
X-4.64500 Y-5.19400
X-4.64400 Y-5.19400
X-4.64400 Y-5.19500
X-4.64300 Y-5.19500
X-4.64300 Y-5.19600
X-4.64200 Y-5.19600
X-4.64200 Y-5.19700
X-4.64100 Y-5.19700
X-4.64100 Y-5.19800
X-4.64000 Y-5.19800
X-4.64000 Y-5.19900
X-4.63900 Y-5.19900
X-4.63900 Y-5.20000
X-4.63800 Y-5.20000
X-4.63800 Y-5.20100
X-4.63700 Y-5.20100
X-4.63700 Y-5.20200
X-4.63600 Y-5.20200
X-4.63600 Y-5.20300
X-4.63500 Y-5.20300
X-4.63500 Y-5.20400
X-4.63400 Y-5.20400
X-4.63400 Y-5.20500
X-4.63300 Y-5.20500
X-4.63300 Y-5.20600
X-4.63200 Y-5.20600
X-4.63200 Y-5.20700
X-4.63100 Y-5.20700
X-4.63100 Y-5.20800
X-4.63000 Y-5.20800
X-4.63000 Y-5.20900
X-4.62900 Y-5.20900
X-4.62900 Y-5.21000
X-4.62800 Y-5.21000
X-4.62800 Y-5.21100
X-4.62700 Y-5.21100
X-4.62700 Y-5.21200
X-4.62600 Y-5.21200
X-4.62600 Y-5.21300
X-4.62500 Y-5.21300
X-4.62500 Y-5.21400
X-4.62400 Y-5.21400
X-4.62400 Y-5.21500
X-4.62300 Y-5.21500
X-4.62300 Y-5.21600
X-4.62200 Y-5.21600
X-4.62200 Y-5.21700
X-4.62100 Y-5.21700
X-4.62100 Y-5.21800
X-4.62000 Y-5.21800
X-4.62000 Y-5.21900
X-4.61900 Y-5.21900
X-4.61900 Y-5.22000
X-4.61800 Y-5.22000
X-4.61800 Y-5.22100
X-4.61700 Y-5.22100
X-4.61700 Y-5.22200
X-4.61600 Y-5.22200
X-4.61600 Y-5.22300
X-4.61500 Y-5.22300
X-4.61500 Y-5.22400
X-4.61400 Y-5.22400
X-4.61400 Y-5.22500
X-4.61300 Y-5.22500
X-4.61300 Y-5.22600
X-4.61200 Y-5.22600
X-4.61200 Y-5.22700
X-4.61100 Y-5.22700
X-4.61100 Y-5.22800
X-4.61000 Y-5.22800
X-4.61000 Y-5.22900
X-4.60900 Y-5.22900
X-4.60900 Y-5.23000
X-4.60800 Y-5.23000
X-4.60800 Y-5.23100
X-4.60700 Y-5.23100
X-4.60700 Y-5.23200
X-4.60600 Y-5.23200
X-4.60600 Y-5.23300
X-4.60500 Y-5.23300
X-4.60500 Y-5.23400
X-4.60400 Y-5.23400
X-4.60400 Y-5.23500
X-4.60300 Y-5.23500
X-4.60300 Y-5.23600
X-4.60200 Y-5.23600
X-4.60200 Y-5.23700
X-4.60100 Y-5.23700
X-4.60100 Y-5.23800
X-4.60000 Y-5.23800
X-4.60000 Y-5.23900
X-4.59900 Y-5.23900
X-4.59900 Y-5.24000
X-4.59700 Y-5.24000
X-4.59700 Y-5.24100
X-4.59500 Y-5.24100
X-4.59500 Y-5.24200
X-4.59300 Y-5.24200
X-4.59300 Y-5.24300
X-4.59100 Y-5.24300
X-4.59100 Y-5.24400
X-4.58900 Y-5.24400
X-4.58900 Y-5.24500
X-4.58700 Y-5.24500
X-4.58700 Y-5.24600
X-4.58000 Y-5.24600
X-4.58000 Y-5.24700
X-4.43100 Y-5.24700
X-4.43100 Y-5.24600
X-4.42400 Y-5.24600
X-4.42400 Y-5.24500
X-4.42200 Y-5.24500
X-4.42200 Y-5.24400
X-4.42000 Y-5.24400
X-4.42000 Y-5.24300
X-4.41800 Y-5.24300
X-4.41800 Y-5.24200
X-4.41600 Y-5.24200
X-4.41600 Y-5.24100
X-4.41400 Y-5.24100
X-4.41400 Y-5.24000
X-4.41300 Y-5.24000
X-4.41300 Y-5.23900
X-4.41200 Y-5.23900
X-4.41200 Y-5.23800
X-4.41100 Y-5.23800
X-4.41100 Y-5.23700
X-4.41000 Y-5.23700
X-4.41000 Y-5.23500
X-4.40900 Y-5.23500
X-4.40900 Y-5.23400
X-4.40800 Y-5.23400
X-4.40800 Y-5.23300
X-4.40700 Y-5.23300
X-4.40700 Y-5.23200
X-4.40600 Y-5.23200
X-4.40600 Y-5.23000
X-4.40500 Y-5.23000
X-4.40500 Y-5.22800
X-4.40400 Y-5.22800
X-4.40400 Y-5.22300
X-4.40300 Y-5.22300
X-4.40300 Y-5.21900
X-4.40200 Y-5.21900
X-4.40200 Y-5.21400
X-4.40300 Y-5.21400
X-4.40300 Y-5.21000
X-4.40400 Y-5.21000
X-4.40400 Y-5.20500
X-4.40500 Y-5.20500
X-4.40500 Y-5.20300
X-4.40600 Y-5.20300
X-4.40600 Y-5.20100
X-4.40700 Y-5.20100
X-4.40700 Y-5.20000
X-4.40800 Y-5.20000
X-4.40800 Y-5.19900
X-4.40900 Y-5.19900
X-4.40900 Y-5.19800
X-4.41000 Y-5.19800
X-4.41000 Y-5.19600
X-4.41100 Y-5.19600
X-4.41100 Y-5.19500
X-4.41200 Y-5.19500
X-4.41200 Y-5.19400
X-4.41300 Y-5.19400
X-4.41300 Y-5.19300
X-4.41400 Y-5.19300
X-4.41400 Y-5.19200
X-4.41600 Y-5.19200
X-4.41600 Y-5.19100
X-4.41800 Y-5.19100
X-4.41800 Y-5.19000
X-4.42000 Y-5.19000
X-4.42000 Y-5.18900
X-4.42200 Y-5.18900
X-4.42200 Y-5.18800
X-4.42400 Y-5.18800
X-4.42400 Y-5.18700
X-4.43100 Y-5.18700
X-4.43100 Y-5.18600
X-4.56700 Y-5.18600
X-4.56700 Y-5.18500
X-4.56800 Y-5.18500
X-4.56800 Y-5.18400
X-4.56900 Y-5.18400
X-4.56900 Y-5.18300
X-4.57000 Y-5.18300
X-4.57000 Y-5.18200
X-4.57100 Y-5.18200
X-4.57100 Y-5.18100
X-4.57200 Y-5.18100
X-4.57200 Y-5.18000
X-4.57300 Y-5.18000
X-4.57300 Y-5.17900
X-4.57400 Y-5.17900
X-4.57400 Y-5.17800
X-4.57500 Y-5.17800
X-4.57500 Y-5.17700
X-4.57600 Y-5.17700
X-4.57600 Y-5.17600
X-4.57700 Y-5.17600
X-4.57700 Y-5.17500
X-4.57800 Y-5.17500
X-4.57800 Y-5.17400
X-4.57900 Y-5.17400
X-4.57900 Y-5.17300
X-4.58000 Y-5.17300
X-4.58000 Y-5.17200
X-4.58100 Y-5.17200
X-4.58100 Y-5.17100
X-4.58200 Y-5.17100
X-4.58200 Y-5.17000
X-4.58300 Y-5.17000
X-4.58300 Y-5.16900
X-4.58400 Y-5.16900
X-4.58400 Y-5.16800
X-4.58500 Y-5.16800
X-4.58500 Y-5.16700
X-4.58600 Y-5.16700
X-4.58600 Y-5.16600
X-4.58700 Y-5.16600
X-4.58700 Y-5.16500
X-4.58800 Y-5.16500
X-4.58800 Y-5.16400
X-4.58900 Y-5.16400
X-4.58900 Y-5.16300
X-4.59000 Y-5.16300
X-4.59000 Y-5.16200
X-4.59100 Y-5.16200
X-4.59100 Y-5.16100
X-4.59200 Y-5.16100
X-4.59200 Y-5.16000
X-4.59300 Y-5.16000
X-4.59300 Y-5.15900
X-4.59400 Y-5.15900
X-4.59400 Y-5.15800
X-4.59500 Y-5.15800
X-4.59500 Y-5.15700
X-4.59600 Y-5.15700
X-4.59600 Y-5.15600
X-4.59700 Y-5.15600
X-4.59700 Y-5.15500
X-4.59800 Y-5.15500
X-4.59800 Y-5.15400
X-4.59900 Y-5.15400
X-4.59900 Y-5.15300
X-4.60000 Y-5.15300
X-4.60000 Y-5.15200
X-4.60100 Y-5.15200
X-4.60100 Y-5.15100
X-4.60200 Y-5.15100
X-4.60200 Y-5.15000
X-4.60300 Y-5.15000
X-4.60300 Y-5.14900
X-4.60400 Y-5.14900
X-4.60400 Y-5.14800
X-4.60500 Y-5.14800
X-4.60500 Y-5.14700
X-4.60600 Y-5.14700
X-4.60600 Y-5.14600
X-4.60700 Y-5.14600
X-4.60700 Y-5.14500
X-4.60800 Y-5.14500
X-4.60800 Y-5.14400
X-4.60900 Y-5.14400
X-4.60900 Y-5.14300
X-4.61000 Y-5.14300
X-4.61000 Y-5.14200
X-4.61100 Y-5.14200
X-4.61100 Y-5.14100
X-4.61200 Y-5.14100
X-4.61200 Y-5.14000
X-4.61300 Y-5.14000
X-4.61300 Y-5.13900
X-4.61400 Y-5.13900
X-4.61400 Y-5.13800
X-4.61500 Y-5.13800
X-4.61500 Y-5.13700
X-4.61600 Y-5.13700
X-4.61600 Y-5.13600
X-4.61700 Y-5.13600
X-4.61700 Y-5.13500
X-4.61800 Y-5.13500
X-4.61800 Y-5.13400
X-4.61900 Y-5.13400
X-4.61900 Y-5.13300
X-4.62000 Y-5.13300
X-4.62000 Y-5.13200
X-4.62100 Y-5.13200
X-4.62100 Y-5.13100
X-4.62200 Y-5.13100
X-4.62200 Y-5.13000
X-4.62300 Y-5.13000
X-4.62300 Y-5.12900
X-4.62400 Y-5.12900
X-4.62400 Y-5.12800
X-4.62500 Y-5.12800
X-4.62500 Y-5.12700
X-4.62600 Y-5.12700
X-4.62600 Y-5.12600
X-4.62700 Y-5.12600
X-4.62700 Y-5.12500
X-4.62800 Y-5.12500
X-4.62800 Y-5.12400
X-4.62900 Y-5.12400
X-4.62900 Y-5.12300
X-4.63000 Y-5.12300
X-4.63000 Y-5.12200
X-4.63100 Y-5.12200
X-4.63100 Y-5.12100
X-4.63200 Y-5.12100
X-4.63200 Y-5.12000
X-4.63300 Y-5.12000
X-4.63300 Y-5.11900
X-4.63400 Y-5.11900
X-4.63400 Y-5.11800
X-4.63500 Y-5.11800
X-4.63500 Y-5.11700
X-4.63600 Y-5.11700
X-4.63600 Y-5.11600
X-4.63700 Y-5.11600
X-4.63700 Y-5.11500
X-4.63800 Y-5.11500
X-4.63800 Y-5.11400
X-4.63900 Y-5.11400
X-4.63900 Y-5.11300
X-4.64000 Y-5.11300
X-4.64000 Y-5.11200
X-4.64100 Y-5.11200
X-4.64100 Y-5.11100
X-4.64200 Y-5.11100
X-4.64200 Y-5.11000
X-4.64300 Y-5.11000
X-4.64300 Y-5.10900
X-4.64400 Y-5.10900
X-4.64400 Y-5.10800
X-4.64500 Y-5.10800
X-4.64500 Y-5.10700
X-4.64600 Y-5.10700
X-4.64600 Y-5.10600
X-4.64700 Y-5.10600
X-4.64700 Y-5.10500
X-4.64800 Y-5.10500
X-4.64800 Y-5.10400
X-4.64900 Y-5.10400
X-4.64900 Y-5.10300
X-4.65000 Y-5.10300
X-4.65000 Y-5.10200
X-4.65100 Y-5.10200
X-4.65100 Y-5.10100
X-4.65200 Y-5.10100
X-4.65200 Y-5.10000
X-4.65300 Y-5.10000
X-4.65300 Y-5.09900
X-4.65400 Y-5.09900
X-4.65400 Y-5.09800
X-4.65500 Y-5.09800
X-4.65500 Y-5.09700
X-4.65600 Y-5.09700
X-4.65600 Y-5.09600
X-4.65700 Y-5.09600
X-4.65700 Y-5.09500
X-4.65800 Y-5.09500
X-4.65800 Y-5.09400
X-4.65900 Y-5.09400
X-4.65900 Y-5.09300
X-4.66000 Y-5.09300
X-4.66000 Y-5.09200
X-4.66100 Y-5.09200
X-4.66100 Y-5.09100
X-4.66200 Y-5.09100
X-4.66200 Y-5.09000
X-4.66300 Y-5.09000
X-4.66300 Y-5.08900
X-4.66400 Y-5.08900
X-4.66400 Y-5.08800
X-4.66500 Y-5.08800
X-4.66500 Y-5.08700
X-4.66600 Y-5.08700
X-4.66600 Y-5.08300
X-4.66700 Y-5.08300
X-4.66700 Y-5.07800
X-4.66800 Y-5.07800
X-4.66800 Y-5.07500
X-4.66900 Y-5.07500
X-4.66900 Y-5.07400
X-4.67000 Y-5.07400
X-4.67000 Y-5.07200
X-4.67100 Y-5.07200
X-4.67100 Y-5.07100
X-4.67200 Y-5.07100
X-4.67200 Y-5.07000
X-4.67300 Y-5.07000
X-4.67300 Y-5.06800
X-4.67400 Y-5.06800
X-4.67400 Y-5.06700
X-4.67500 Y-5.06700
X-4.67500 Y-5.06600
X-4.67700 Y-5.06600
X-4.67700 Y-5.06500
X-4.67900 Y-5.06500
X-4.67900 Y-5.06400
X-4.68000 Y-5.06400
X-4.68000 Y-5.06300
X-4.68200 Y-5.06300
X-4.68200 Y-5.06200
X-4.68400 Y-5.06200
X-4.68400 Y-5.06100
X-4.68800 Y-5.06100
X-4.68800 Y-5.06000
X-4.70300 Y-5.06000
X-4.70300 Y-5.06100
X-4.70700 Y-5.06100
X-4.70700 Y-5.06200
X-4.70900 Y-5.06200
X-4.70900 Y-5.06300
X-4.71000 Y-5.06300
X-4.71000 Y-5.06400
X-4.71200 Y-5.06400
X-4.71200 Y-5.06500
X-4.71400 Y-5.06500
X-4.71400 Y-5.06600
X-4.71600 Y-5.06600
X-4.71600 Y-5.06700
X-4.71700 Y-5.06700
X-4.71700 Y-5.06900
X-4.71800 Y-5.06900
X-4.71800 Y-5.07000
X-4.71900 Y-5.07000
X-4.71900 Y-5.07100
X-4.72000 Y-5.07100
X-4.72000 Y-5.07300
X-4.72100 Y-5.07300
X-4.72100 Y-5.07400
X-4.72200 Y-5.07400
X-4.72200 Y-5.07600
X-4.72300 Y-5.07600
X-4.72300 Y-5.07900
X-4.72400 Y-5.07900
X-4.72400 Y-5.08400
X-4.72500 Y-5.08400
X-4.72500 Y-5.18800
X-4.72600 Y-5.18800
X-4.72600 Y-5.18900
X-4.72700 Y-5.18900
X-4.72700 Y-5.19000
X-4.72800 Y-5.19000
X-4.72800 Y-5.19100
X-4.72900 Y-5.19100
X-4.72900 Y-5.19200
X-4.73000 Y-5.19200
X-4.73000 Y-5.19300
X-4.73100 Y-5.19300
X-4.73100 Y-5.19400
X-4.73200 Y-5.19400
X-4.73200 Y-5.19500
X-4.73300 Y-5.19500
X-4.73300 Y-5.19600
X-4.73400 Y-5.19600
X-4.73400 Y-5.19700
X-4.73500 Y-5.19700
X-4.73500 Y-5.19800
X-4.73600 Y-5.19800
X-4.73600 Y-5.19900
X-4.73700 Y-5.19900
X-4.73700 Y-5.20000
X-4.73800 Y-5.20000
X-4.73800 Y-5.20100
X-4.73900 Y-5.20100
X-4.73900 Y-5.20200
X-4.74000 Y-5.20200
X-4.74000 Y-5.20300
X-4.74100 Y-5.20300
X-4.74100 Y-5.20400
X-4.74200 Y-5.20400
X-4.74200 Y-5.20500
X-4.74300 Y-5.20500
X-4.74300 Y-5.20600
X-4.74400 Y-5.20600
X-4.74400 Y-5.20700
X-4.74500 Y-5.20700
X-4.74500 Y-5.20800
X-4.74600 Y-5.20800
X-4.74600 Y-5.20900
X-4.74700 Y-5.20900
X-4.74700 Y-5.21000
X-4.74800 Y-5.21000
X-4.74800 Y-5.21100
X-4.74900 Y-5.21100
X-4.74900 Y-5.21200
X-4.75000 Y-5.21200
X-4.75000 Y-5.21300
X-4.75100 Y-5.21300
X-4.75100 Y-5.21400
X-4.75200 Y-5.21400
X-4.75200 Y-5.21500
X-4.75300 Y-5.21500
X-4.75300 Y-5.21600
X-4.75400 Y-5.21600
X-4.75400 Y-5.21700
X-4.75500 Y-5.21700
X-4.75500 Y-5.21800
X-4.75600 Y-5.21800
X-4.75600 Y-5.21900
X-4.75700 Y-5.21900
X-4.75700 Y-5.22000
X-4.75800 Y-5.22000
X-4.75800 Y-5.22100
X-4.75900 Y-5.22100
X-4.75900 Y-5.22200
X-4.76000 Y-5.22200
X-4.76000 Y-5.22300
X-4.76100 Y-5.22300
X-4.76100 Y-5.22400
X-4.76200 Y-5.22400
X-4.76200 Y-5.22500
X-4.76300 Y-5.22500
X-4.76300 Y-5.22600
X-4.76400 Y-5.22600
X-4.76400 Y-5.22700
X-4.76500 Y-5.22700
X-4.76500 Y-5.22800
X-4.76600 Y-5.22800
X-4.76600 Y-5.22900
X-4.76700 Y-5.22900
X-4.76700 Y-5.23000
X-4.76800 Y-5.23000
X-4.76800 Y-5.23100
X-4.76900 Y-5.23100
X-4.76900 Y-5.23200
X-4.77000 Y-5.23200
X-4.77000 Y-5.23300
X-4.82000 Y-5.23300
X-4.82000 Y-5.23200
X-4.82100 Y-5.23200
X-4.82100 Y-5.23100
X-4.82200 Y-5.23100
X-4.82200 Y-5.23000
X-4.82300 Y-5.23000
X-4.82300 Y-5.22900
X-4.82400 Y-5.22900
X-4.82400 Y-5.22800
X-4.82500 Y-5.22800
X-4.82500 Y-5.22700
X-4.82600 Y-5.22700
X-4.82600 Y-5.22600
X-4.82700 Y-5.22600
X-4.82700 Y-5.22500
X-4.82800 Y-5.22500
X-4.82800 Y-5.22400
X-4.82900 Y-5.22400
X-4.82900 Y-5.22300
X-4.83000 Y-5.22300
X-4.83000 Y-5.22200
X-4.83100 Y-5.22200
X-4.83100 Y-5.22100
X-4.83200 Y-5.22100
X-4.83200 Y-5.22000
X-4.83300 Y-5.22000
X-4.83300 Y-5.21900
X-4.83400 Y-5.21900
X-4.83400 Y-5.21800
X-4.83500 Y-5.21800
X-4.83500 Y-5.21700
X-4.83600 Y-5.21700
X-4.83600 Y-5.21600
X-4.83700 Y-5.21600
X-4.83700 Y-5.21500
X-4.83800 Y-5.21500
X-4.83800 Y-5.21400
X-4.83900 Y-5.21400
X-4.83900 Y-5.21300
X-4.84000 Y-5.21300
X-4.84000 Y-5.21200
X-4.84100 Y-5.21200
X-4.84100 Y-5.21100
X-4.84200 Y-5.21100
X-4.84200 Y-5.21000
X-4.84300 Y-5.21000
X-4.84300 Y-5.20900
X-4.84400 Y-5.20900
X-4.84400 Y-5.20800
X-4.84500 Y-5.20800
X-4.84500 Y-5.20700
X-4.84600 Y-5.20700
X-4.84600 Y-5.20600
X-4.84700 Y-5.20600
X-4.84700 Y-5.20500
X-4.84800 Y-5.20500
X-4.84800 Y-5.20400
X-4.84900 Y-5.20400
X-4.84900 Y-5.20300
X-4.85000 Y-5.20300
X-4.85000 Y-5.20200
X-4.85100 Y-5.20200
X-4.85100 Y-5.20100
X-4.85200 Y-5.20100
X-4.85200 Y-5.20000
X-4.85300 Y-5.20000
X-4.85300 Y-5.19900
X-4.85400 Y-5.19900
X-4.85400 Y-5.19800
X-4.85500 Y-5.19800
X-4.85500 Y-5.19700
X-4.85600 Y-5.19700
X-4.85600 Y-5.19600
X-4.85700 Y-5.19600
X-4.85700 Y-5.19500
X-4.85800 Y-5.19500
X-4.85800 Y-5.19400
X-4.85900 Y-5.19400
X-4.85900 Y-5.19300
X-4.86000 Y-5.19300
X-4.86000 Y-5.19200
X-4.86100 Y-5.19200
X-4.86100 Y-5.19100
X-4.86200 Y-5.19100
X-4.86200 Y-5.19000
X-4.86300 Y-5.19000
X-4.86300 Y-5.18900
X-4.86400 Y-5.18900
X-4.86400 Y-5.18800
X-4.86500 Y-5.18800
X-4.86500 Y-5.18700
X-4.86600 Y-5.18700
X-4.86600 Y-5.18600
X-4.86700 Y-5.18600
X-4.86700 Y-5.18500
X-4.86800 Y-5.18500
X-4.86800 Y-5.18400
X-4.86900 Y-5.18400
X-4.86900 Y-5.18300
X-4.87000 Y-5.18300
X-4.87000 Y-5.18200
X-4.87100 Y-5.18200
X-4.87100 Y-5.18100
X-4.87200 Y-5.18100
X-4.87200 Y-5.18000
X-4.87300 Y-5.18000
X-4.87300 Y-5.17900
X-4.87400 Y-5.17900
X-4.87400 Y-5.17800
X-4.87500 Y-5.17800
X-4.87500 Y-5.17700
X-4.87600 Y-5.17700
X-4.87600 Y-5.17600
X-4.87700 Y-5.17600
X-4.87700 Y-5.17500
X-4.87800 Y-5.17500
X-4.87800 Y-5.17400
X-4.87900 Y-5.17400
X-4.87900 Y-5.17300
X-4.88000 Y-5.17300
X-4.88000 Y-5.15700
X-4.87900 Y-5.15700
X-4.87900 Y-5.12800
X-4.87800 Y-5.12800
X-4.87800 Y-5.09800
X-4.87700 Y-5.09800
X-4.87700 Y-5.06800
X-4.87600 Y-5.06800
X-4.87600 Y-5.03900
X-4.87500 Y-5.03900
X-4.87500 Y-5.00900
X-4.87400 Y-5.00900
X-4.87400 Y-4.97900
X-4.87300 Y-4.97900
X-4.87300 Y-4.95000
X-4.87200 Y-4.95000
X-4.87200 Y-4.93000
X-4.87100 Y-4.93000
X-4.87100 Y-4.92800
X-4.87000 Y-4.92800
X-4.87000 Y-4.92600
X-4.86900 Y-4.92600
X-4.86900 Y-4.92300
X-4.86800 Y-4.92300
X-4.86800 Y-4.92100
X-4.86700 Y-4.92100
X-4.86700 Y-4.91900
X-4.86600 Y-4.91900
X-4.86600 Y-4.91700
X-4.86500 Y-4.91700
X-4.86500 Y-4.91400
X-4.86400 Y-4.91400
X-4.86400 Y-4.91200
X-4.86300 Y-4.91200
X-4.86300 Y-4.91000
X-4.86200 Y-4.91000
X-4.86200 Y-4.90700
X-4.86100 Y-4.90700
X-4.86100 Y-4.90500
X-4.86000 Y-4.90500
X-4.86000 Y-4.90300
X-4.85900 Y-4.90300
X-4.85900 Y-4.90100
X-4.85800 Y-4.90100
X-4.85800 Y-4.89800
X-4.85700 Y-4.89800
X-4.85700 Y-4.89600
X-4.85600 Y-4.89600
X-4.85600 Y-4.89400
X-4.85500 Y-4.89400
X-4.85500 Y-4.89100
X-4.85400 Y-4.89100
X-4.85400 Y-4.88900
X-4.85300 Y-4.88900
X-4.85300 Y-4.88700
X-4.85200 Y-4.88700
X-4.85200 Y-4.88500
X-4.85100 Y-4.88500
X-4.85100 Y-4.88200
X-4.85000 Y-4.88200
X-4.85000 Y-4.88000
X-4.84900 Y-4.88000
X-4.84900 Y-4.87800
X-4.84800 Y-4.87800
X-4.84800 Y-4.87500
X-4.84700 Y-4.87500
X-4.84700 Y-4.87300
X-4.84600 Y-4.87300
X-4.84600 Y-4.87100
X-4.84500 Y-4.87100
X-4.84500 Y-4.86800
X-4.84400 Y-4.86800
X-4.84400 Y-4.86600
X-4.84300 Y-4.86600
X-4.84300 Y-4.86400
X-4.84200 Y-4.86400
X-4.84200 Y-4.86200
X-4.84100 Y-4.86200
X-4.84100 Y-4.85900
X-4.84000 Y-4.85900
X-4.84000 Y-4.85700
X-4.83900 Y-4.85700
X-4.83900 Y-4.85500
X-4.83800 Y-4.85500
X-4.83800 Y-4.85200
X-4.83700 Y-4.85200
X-4.83700 Y-4.85000
X-4.83600 Y-4.85000
X-4.83600 Y-4.84800
X-4.83500 Y-4.84800
X-4.83500 Y-4.84600
X-4.83400 Y-4.84600
X-4.83400 Y-4.84300
X-4.83300 Y-4.84300
X-4.83300 Y-4.84100
X-4.83200 Y-4.84100
X-4.83200 Y-4.83900
X-4.83100 Y-4.83900
X-4.83100 Y-4.83600
X-4.83000 Y-4.83600
X-4.83000 Y-4.83400
X-4.82900 Y-4.83400
X-4.82900 Y-4.83200
X-4.82800 Y-4.83200
X-4.82800 Y-4.83000
X-4.82700 Y-4.83000
X-4.82700 Y-4.82700
X-4.82600 Y-4.82700
X-4.82600 Y-4.82500
X-4.82500 Y-4.82500
X-4.82500 Y-4.82300
X-4.82400 Y-4.82300
X-4.82400 Y-4.82000
X-4.82300 Y-4.82000
X-4.82300 Y-4.81800
X-4.82200 Y-4.81800
X-4.82200 Y-4.81600
X-4.82100 Y-4.81600
X-4.82100 Y-4.81400
X-4.82000 Y-4.81400
X-4.82000 Y-4.81100
X-4.81900 Y-4.81100
X-4.81900 Y-4.80900
X-4.81800 Y-4.80900
X-4.81800 Y-4.80700
X-4.81700 Y-4.80700
X-4.81700 Y-4.80400
X-4.81600 Y-4.80400
X-4.81600 Y-4.80200
X-4.81500 Y-4.80200
X-4.81500 Y-4.80000
X-4.81400 Y-4.80000
X-4.81400 Y-4.79800
X-4.81300 Y-4.79800
X-4.81300 Y-4.79500
X-4.81200 Y-4.79500
X-4.81200 Y-4.79300
X-4.81100 Y-4.79300
X-4.81100 Y-4.79100
X-4.81000 Y-4.79100
X-4.81000 Y-4.78800
X-4.80900 Y-4.78800
X-4.80900 Y-4.78600
X-4.80800 Y-4.78600
X-4.80800 Y-4.78400
X-4.80700 Y-4.78400
X-4.80700 Y-4.78200
X-4.80600 Y-4.78200
X-4.80600 Y-4.77900
X-4.80500 Y-4.77900
X-4.80500 Y-4.77700
X-4.80400 Y-4.77700
X-4.80400 Y-4.77500
X-4.80300 Y-4.77500
X-4.80300 Y-4.77200
X-4.80200 Y-4.77200
X-4.80200 Y-4.77000
X-4.80100 Y-4.77000
X-4.80100 Y-4.76800
X-4.80000 Y-4.76800
X-4.80000 Y-4.76500
X-4.79900 Y-4.76500
X-4.79900 Y-4.76300
X-4.79800 Y-4.76300
X-4.79800 Y-4.76100
X-4.79700 Y-4.76100
X-4.79700 Y-4.75900
X-4.79600 Y-4.75900
X-4.79600 Y-4.75600
X-4.79500 Y-4.75600
X-4.79500 Y-4.75400
X-4.79400 Y-4.75400
X-4.79400 Y-4.75200
X-4.79300 Y-4.75200
X-4.79300 Y-4.74900
X-4.79200 Y-4.74900
X-4.79200 Y-4.74700
X-4.79100 Y-4.74700
X-4.79100 Y-4.74500
X-4.79000 Y-4.74500
X-4.79000 Y-4.74300
X-4.78900 Y-4.74300
X-4.78900 Y-4.74000
X-4.78800 Y-4.74000
X-4.78800 Y-4.73800
X-4.78700 Y-4.73800
X-4.78700 Y-4.73600
X-4.78600 Y-4.73600
X-4.78600 Y-4.73300
X-4.78500 Y-4.73300
X-4.78500 Y-4.73100
X-4.78400 Y-4.73100
X-4.78400 Y-4.72900
X-4.78300 Y-4.72900
X-4.78300 Y-4.72700
X-4.78200 Y-4.72700
X-4.78200 Y-4.72400
X-4.78100 Y-4.72400
X-4.78100 Y-4.72200
X-4.78000 Y-4.72200
X-4.78000 Y-4.72000
X-4.77900 Y-4.72000
X-4.77900 Y-4.71700
X-4.77800 Y-4.71700
X-4.77800 Y-4.71500
X-4.77700 Y-4.71500
X-4.77700 Y-4.71300
X-4.77600 Y-4.71300
X-4.77600 Y-4.71100
X-4.77500 Y-4.71100
X-4.77500 Y-4.70800
X-4.77400 Y-4.70800
X-4.77400 Y-4.70600
X-4.77300 Y-4.70600
X-4.77300 Y-4.70400
X-4.77200 Y-4.70400
X-4.77200 Y-4.70100
X-4.77100 Y-4.70100
X-4.77100 Y-4.69900
X-4.77000 Y-4.69900
X-4.77000 Y-4.69700
X-4.76900 Y-4.69700
X-4.76900 Y-4.69500
X-4.76800 Y-4.69500
X-4.76800 Y-4.69200
X-4.76700 Y-4.69200
X-4.76700 Y-4.69000
X-4.76600 Y-4.69000
X-4.76600 Y-4.68800
X-4.76500 Y-4.68800
X-4.76500 Y-4.68500
X-4.76400 Y-4.68500
X-4.76400 Y-4.68300
X-4.76300 Y-4.68300
X-4.76300 Y-4.68100
X-4.76200 Y-4.68100
X-4.76200 Y-4.67900
X-4.76100 Y-4.67900
X-4.76100 Y-4.67600
X-4.76000 Y-4.67600
X-4.76000 Y-4.67400
X-4.75900 Y-4.67400
X-4.75900 Y-4.67200
X-4.75800 Y-4.67200
X-4.75800 Y-4.66900
X-4.75700 Y-4.66900
X-4.75700 Y-4.66700
X-4.75600 Y-4.66700
X-4.75600 Y-4.66500
X-4.75500 Y-4.66500
X-4.75500 Y-4.66300
X-4.75400 Y-4.66300
X-4.75400 Y-4.66000
X-4.75300 Y-4.66000
X-4.75300 Y-4.65800
X-4.75200 Y-4.65800
X-4.75200 Y-4.65600
X-4.75100 Y-4.65600
X-4.75100 Y-4.65300
X-4.75000 Y-4.65300
X-4.75000 Y-4.65100
X-4.74900 Y-4.65100
X-4.74900 Y-4.64900
X-4.74800 Y-4.64900
X-4.74800 Y-4.64600
X-4.74700 Y-4.64600
X-4.74700 Y-4.64400
X-4.74600 Y-4.64400
X-4.74600 Y-4.64200
X-4.74500 Y-4.64200
X-4.74500 Y-4.64000
X-4.74400 Y-4.64000
X-4.74400 Y-4.63700
X-4.74300 Y-4.63700
X-4.74300 Y-4.63500
X-4.74200 Y-4.63500
X-4.74200 Y-4.63300
X-4.74100 Y-4.63300
X-4.74100 Y-4.63000
X-4.74000 Y-4.63000
X-4.74000 Y-4.62800
X-4.73900 Y-4.62800
X-4.73900 Y-4.62600
X-4.73800 Y-4.62600
X-4.73800 Y-4.62400
X-4.73700 Y-4.62400
X-4.73700 Y-4.62100
X-4.73600 Y-4.62100
X-4.73600 Y-4.61900
X-4.73500 Y-4.61900
X-4.73500 Y-4.61700
X-4.73400 Y-4.61700
X-4.73400 Y-4.61400
X-4.73300 Y-4.61400
X-4.73300 Y-4.61200
X-4.73200 Y-4.61200
X-4.73200 Y-4.61000
X-4.73100 Y-4.61000
X-4.73100 Y-4.60800
X-4.73000 Y-4.60800
X-4.73000 Y-4.60500
X-4.72900 Y-4.60500
X-4.72900 Y-4.60300
X-4.72800 Y-4.60300
X-4.72800 Y-4.60100
X-4.72700 Y-4.60100
X-4.72700 Y-4.59800
X-4.72600 Y-4.59800
X-4.72600 Y-4.59600
X-4.72500 Y-4.59600
X-4.72500 Y-4.59400
X-4.72400 Y-4.59400
X-4.72400 Y-4.59200
X-4.72300 Y-4.59200
X-4.72300 Y-4.58900
X-4.72200 Y-4.58900
X-4.72200 Y-4.58700
X-4.72100 Y-4.58700
X-4.72100 Y-4.58500
X-4.72000 Y-4.58500
X-4.72000 Y-4.58200
X-4.71900 Y-4.58200
X-4.71900 Y-4.58000
X-4.71800 Y-4.58000
X-4.71800 Y-4.57800
X-4.71700 Y-4.57800
X-4.71700 Y-4.57600
X-4.71600 Y-4.57600
X-4.71600 Y-4.57300
X-4.71500 Y-4.57300
X-4.71500 Y-4.57100
X-4.71400 Y-4.57100
X-4.71400 Y-4.56900
X-4.71300 Y-4.56900
X-4.71300 Y-4.56600
X-4.71200 Y-4.56600
X-4.71200 Y-4.56400
X-4.71100 Y-4.56400
X-4.71100 Y-4.56200
X-4.71000 Y-4.56200
X-4.71000 Y-4.56000
X-4.70900 Y-4.56000
X-4.70900 Y-4.55700
X-4.70800 Y-4.55700
X-4.70800 Y-4.55500
X-4.70700 Y-4.55500
X-4.70700 Y-4.55300
X-4.70600 Y-4.55300
X-4.70600 Y-4.55000
X-4.70500 Y-4.55000
X-4.70500 Y-4.54800
X-4.70400 Y-4.54800
X-4.70400 Y-4.54600
X-4.70300 Y-4.54600
X-4.70300 Y-4.54300
X-4.70200 Y-4.54300
X-4.70200 Y-4.54100
X-4.70100 Y-4.54100
X-4.70100 Y-4.53900
X-4.70000 Y-4.53900
X-4.70000 Y-4.53700
X-4.69900 Y-4.53700
X-4.69900 Y-4.53400
X-4.69800 Y-4.53400
X-4.69800 Y-4.53200
X-4.69700 Y-4.53200
X-4.69700 Y-4.53000
