( pcb2gcode 1.1.4 )

G94     ( Inches per minute feed rate. )
G20     ( Units == INCHES.             )
G90     ( Absolute coordinates.        )
S30000  ( RPM spindle speed.           )
M3      ( Spindle on clockwise.        )

G64 P0.00500 ( set maximum deviation from commanded toolpath )

G04 P0 ( dwell for no time -- G64 should not smooth over this point )
G00 Z0.19685 ( retract )

G00 X4.06800 Y-3.89598 ( rapid move to begin. )
G01 Z-0.00591 F39.37008 ( plunge. )
G04 P0 ( dwell for no time -- G64 should not smooth over this point )
X4.06800 Y-3.89598
X4.07100 Y-3.89598
X4.07100 Y-3.89698
X4.07300 Y-3.89698
X4.07300 Y-3.89798
X4.07500 Y-3.89798
X4.07500 Y-3.89898
X4.07700 Y-3.89898
X4.07700 Y-3.89998
X4.07900 Y-3.89998
X4.07900 Y-3.90098
X4.08100 Y-3.90098
X4.08100 Y-3.90198
X4.08200 Y-3.90198
X4.08200 Y-3.90298
X4.08300 Y-3.90298
X4.08300 Y-3.90398
X4.08500 Y-3.90398
X4.08500 Y-3.90498
X4.08600 Y-3.90498
X4.08600 Y-3.90598
X4.08700 Y-3.90598
X4.08700 Y-3.90698
X4.08800 Y-3.90698
X4.08800 Y-3.90798
X4.08900 Y-3.90798
X4.08900 Y-3.90898
X4.09000 Y-3.90898
X4.09000 Y-3.90998
X4.09100 Y-3.90998
X4.09100 Y-3.91098
X4.09200 Y-3.91098
X4.09200 Y-3.91198
X4.09300 Y-3.91198
X4.09300 Y-3.91298
X4.09400 Y-3.91298
X4.09400 Y-3.91398
X4.09500 Y-3.91398
X4.09500 Y-3.91498
X4.09600 Y-3.91498
X4.09600 Y-3.91598
X4.09700 Y-3.91598
X4.09700 Y-3.91698
X4.09800 Y-3.91698
X4.09800 Y-3.91798
X4.09900 Y-3.91798
X4.09900 Y-3.91898
X4.10000 Y-3.91898
X4.10000 Y-3.91998
X4.10100 Y-3.91998
X4.10100 Y-3.92098
X4.10200 Y-3.92098
X4.10200 Y-3.92198
X4.10300 Y-3.92198
X4.10300 Y-3.92298
X4.10400 Y-3.92298
X4.10400 Y-3.92398
X4.10500 Y-3.92398
X4.10500 Y-3.92498
X4.10600 Y-3.92498
X4.10600 Y-3.92598
X4.10700 Y-3.92598
X4.10700 Y-3.92698
X4.10800 Y-3.92698
X4.10800 Y-3.92798
X4.10900 Y-3.92798
X4.10900 Y-3.92898
X4.11000 Y-3.92898
X4.11000 Y-3.92998
X4.11100 Y-3.92998
X4.11100 Y-3.93098
X4.11200 Y-3.93098
X4.11200 Y-3.93198
X4.11300 Y-3.93198
X4.11300 Y-3.93298
X4.11400 Y-3.93298
X4.11400 Y-3.93398
X4.11500 Y-3.93398
X4.11500 Y-3.93498
X4.11600 Y-3.93498
X4.11600 Y-3.93598
X4.11700 Y-3.93598
X4.11700 Y-3.93698
X4.11800 Y-3.93698
X4.11800 Y-3.93798
X4.11900 Y-3.93798
X4.11900 Y-3.93898
X4.12000 Y-3.93898
X4.12000 Y-3.93998
X4.12100 Y-3.93998
X4.12100 Y-3.94098
X4.12200 Y-3.94098
X4.12200 Y-3.94198
X4.12300 Y-3.94198
X4.12300 Y-3.94298
X4.12400 Y-3.94298
X4.12400 Y-3.94398
X4.12500 Y-3.94398
X4.12500 Y-3.94498
X4.12600 Y-3.94498
X4.12600 Y-3.94598
X4.12700 Y-3.94598
X4.12700 Y-3.94698
X4.12800 Y-3.94698
X4.12800 Y-3.94798
X4.12900 Y-3.94798
X4.12900 Y-3.94898
X4.13000 Y-3.94898
X4.13000 Y-3.94998
X4.13100 Y-3.94998
X4.13100 Y-3.95098
X4.13200 Y-3.95098
X4.13200 Y-3.95198
X4.13300 Y-3.95198
X4.13300 Y-3.95298
X4.13400 Y-3.95298
X4.13400 Y-3.95398
X4.13500 Y-3.95398
X4.13500 Y-3.95498
X4.13600 Y-3.95498
X4.13600 Y-3.95598
X4.13700 Y-3.95598
X4.13700 Y-3.95698
X4.13800 Y-3.95698
X4.13800 Y-3.95798
X4.13900 Y-3.95798
X4.13900 Y-3.95898
X4.14000 Y-3.95898
X4.14000 Y-3.95998
X4.14100 Y-3.95998
X4.14100 Y-3.96098
X4.14200 Y-3.96098
X4.14200 Y-3.96198
X4.14300 Y-3.96198
X4.14300 Y-3.96298
X4.14400 Y-3.96298
X4.14400 Y-3.96398
X4.14500 Y-3.96398
X4.14500 Y-3.96498
X4.14600 Y-3.96498
X4.14600 Y-3.96598
X4.14700 Y-3.96598
X4.14700 Y-3.96698
X4.14800 Y-3.96698
X4.14800 Y-3.96798
X4.14900 Y-3.96798
X4.14900 Y-3.96898
X4.15000 Y-3.96898
X4.15000 Y-3.96998
X4.15100 Y-3.96998
X4.15100 Y-3.97098
X4.15200 Y-3.97098
X4.15200 Y-3.97198
X4.15300 Y-3.97198
X4.15300 Y-3.97298
X4.15400 Y-3.97298
X4.15400 Y-3.97398
X4.15500 Y-3.97398
X4.15500 Y-3.97498
X4.15600 Y-3.97498
X4.15600 Y-3.97598
X4.15700 Y-3.97598
X4.15700 Y-3.97698
X4.15800 Y-3.97698
X4.15800 Y-3.97798
X4.15900 Y-3.97798
X4.15900 Y-3.97898
X4.16000 Y-3.97898
X4.16000 Y-3.97998
X4.16100 Y-3.97998
X4.16100 Y-3.98098
X4.16200 Y-3.98098
X4.16200 Y-3.98198
X4.16300 Y-3.98198
X4.16300 Y-3.98298
X4.16400 Y-3.98298
X4.16400 Y-3.98398
X4.16500 Y-3.98398
X4.16500 Y-3.98498
X4.16600 Y-3.98498
X4.16600 Y-3.98598
X4.16700 Y-3.98598
X4.16700 Y-3.98698
X4.16800 Y-3.98698
X4.16800 Y-3.98798
X4.16900 Y-3.98798
X4.16900 Y-3.98898
X4.17000 Y-3.98898
X4.17000 Y-3.98998
X4.17100 Y-3.98998
X4.17100 Y-3.99098
X4.17200 Y-3.99098
X4.17200 Y-3.99198
X4.17300 Y-3.99198
X4.17300 Y-3.99298
X4.17400 Y-3.99298
X4.17400 Y-3.99398
X4.17500 Y-3.99398
X4.17500 Y-3.99498
X4.17600 Y-3.99498
X4.17600 Y-3.99598
X4.17700 Y-3.99598
X4.17700 Y-3.99698
X4.17800 Y-3.99698
X4.17800 Y-3.99798
X4.17900 Y-3.99798
X4.17900 Y-3.99898
X4.18000 Y-3.99898
X4.18000 Y-3.99998
X4.18100 Y-3.99998
X4.18100 Y-4.00098
X4.18200 Y-4.00098
X4.18200 Y-4.00198
X4.18300 Y-4.00198
X4.18300 Y-4.00298
X4.18400 Y-4.00298
X4.18400 Y-4.00398
X4.18500 Y-4.00398
X4.18500 Y-4.00498
X4.18600 Y-4.00498
X4.18600 Y-4.00598
X4.18700 Y-4.00598
X4.18700 Y-4.00698
X4.18800 Y-4.00698
X4.18800 Y-4.00798
X4.18900 Y-4.00798
X4.18900 Y-4.00898
X4.19000 Y-4.00898
X4.19000 Y-4.00998
X4.19100 Y-4.00998
X4.19100 Y-4.01098
X4.19200 Y-4.01098
X4.19200 Y-4.01198
X4.19300 Y-4.01198
X4.19300 Y-4.01298
X4.19400 Y-4.01298
X4.19400 Y-4.01398
X4.19500 Y-4.01398
X4.19500 Y-4.01498
X4.19600 Y-4.01498
X4.19600 Y-4.01598
X4.19700 Y-4.01598
X4.19700 Y-4.01698
X4.19800 Y-4.01698
X4.19800 Y-4.01798
X4.19900 Y-4.01798
X4.19900 Y-4.01898
X4.20000 Y-4.01898
X4.20000 Y-4.01998
X4.20100 Y-4.01998
X4.20100 Y-4.02098
X4.20200 Y-4.02098
X4.20200 Y-4.02198
X4.20300 Y-4.02198
X4.20300 Y-4.02298
X4.20400 Y-4.02298
X4.20400 Y-4.02398
X4.20500 Y-4.02398
X4.20500 Y-4.02498
X4.20600 Y-4.02498
X4.20600 Y-4.02598
X4.20700 Y-4.02598
X4.20700 Y-4.02698
X4.20800 Y-4.02698
X4.20800 Y-4.02798
X4.20900 Y-4.02798
X4.20900 Y-4.02898
X4.21000 Y-4.02898
X4.21000 Y-4.02998
X4.21100 Y-4.02998
X4.21100 Y-4.03098
X4.21200 Y-4.03098
X4.21200 Y-4.03198
X4.21300 Y-4.03198
X4.21300 Y-4.03298
X4.21400 Y-4.03298
X4.21400 Y-4.03398
X4.21500 Y-4.03398
X4.21500 Y-4.03498
X4.21600 Y-4.03498
X4.21600 Y-4.03598
X4.21700 Y-4.03598
X4.21700 Y-4.03698
X4.21800 Y-4.03698
X4.21800 Y-4.03798
X4.21900 Y-4.03798
X4.21900 Y-4.03898
X4.22000 Y-4.03898
X4.22000 Y-4.03998
X4.22100 Y-4.03998
X4.22100 Y-4.04098
X4.22200 Y-4.04098
X4.22200 Y-4.04198
X4.22300 Y-4.04198
X4.22300 Y-4.04298
X4.22400 Y-4.04298
X4.22400 Y-4.04398
X4.22500 Y-4.04398
X4.22500 Y-4.04498
X4.22600 Y-4.04498
X4.22600 Y-4.04598
X4.22700 Y-4.04598
X4.22700 Y-4.04698
X4.22800 Y-4.04698
X4.22800 Y-4.04798
X4.22900 Y-4.04798
X4.22900 Y-4.04898
X4.23000 Y-4.04898
X4.23000 Y-4.04998
X4.23100 Y-4.04998
X4.23100 Y-4.05098
X4.23200 Y-4.05098
X4.23200 Y-4.05198
X4.23300 Y-4.05198
X4.23300 Y-4.05298
X4.23400 Y-4.05298
X4.23400 Y-4.05398
X4.23500 Y-4.05398
X4.23500 Y-4.05498
X4.23600 Y-4.05498
X4.23600 Y-4.05598
X4.23700 Y-4.05598
X4.23700 Y-4.05698
X4.23800 Y-4.05698
X4.23800 Y-4.05798
X4.23900 Y-4.05798
X4.23900 Y-4.05898
X4.24000 Y-4.05898
X4.24000 Y-4.05998
X4.24100 Y-4.05998
X4.24100 Y-4.06098
X4.24200 Y-4.06098
X4.24200 Y-4.06198
X4.24300 Y-4.06198
X4.24300 Y-4.06298
X4.24400 Y-4.06298
X4.24400 Y-4.06398
X4.24500 Y-4.06398
X4.24500 Y-4.06498
X4.24600 Y-4.06498
X4.24600 Y-4.06598
X4.24700 Y-4.06598
X4.24700 Y-4.06698
X4.24800 Y-4.06698
X4.24800 Y-4.06798
X4.24900 Y-4.06798
X4.24900 Y-4.06898
X4.25000 Y-4.06898
X4.25000 Y-4.06998
X4.25100 Y-4.06998
X4.25100 Y-4.07098
X4.25200 Y-4.07098
X4.25200 Y-4.07198
X4.25300 Y-4.07198
X4.25300 Y-4.07298
X4.25400 Y-4.07298
X4.25400 Y-4.07398
X4.25500 Y-4.07398
X4.25500 Y-4.07498
X4.25600 Y-4.07498
X4.25600 Y-4.07598
X4.25700 Y-4.07598
X4.25700 Y-4.07698
X4.25800 Y-4.07698
X4.25800 Y-4.07798
X4.25900 Y-4.07798
X4.25900 Y-4.07898
X4.26000 Y-4.07898
X4.26000 Y-4.07998
X4.26100 Y-4.07998
X4.26100 Y-4.08098
X4.26200 Y-4.08098
X4.26200 Y-4.08198
X4.26300 Y-4.08198
X4.26300 Y-4.08298
X4.26400 Y-4.08298
X4.26400 Y-4.08398
X4.26500 Y-4.08398
X4.26500 Y-4.08498
X4.26600 Y-4.08498
X4.26600 Y-4.08598
X4.26700 Y-4.08598
X4.26700 Y-4.08698
X4.26800 Y-4.08698
X4.26800 Y-4.08798
X4.26900 Y-4.08798
X4.26900 Y-4.08898
X4.27000 Y-4.08898
X4.27000 Y-4.08998
X4.27100 Y-4.08998
X4.27100 Y-4.09098
X4.27200 Y-4.09098
X4.27200 Y-4.09198
X4.27300 Y-4.09198
X4.27300 Y-4.09298
X4.27400 Y-4.09298
X4.27400 Y-4.09398
X4.27500 Y-4.09398
X4.27500 Y-4.09498
X4.27600 Y-4.09498
X4.27600 Y-4.09598
X4.27700 Y-4.09598
X4.27700 Y-4.09698
X4.27800 Y-4.09698
X4.27800 Y-4.09798
X4.27900 Y-4.09798
X4.27900 Y-4.09898
X4.28000 Y-4.09898
X4.28000 Y-4.09998
X4.28100 Y-4.09998
X4.28100 Y-4.10098
X4.28200 Y-4.10098
X4.28200 Y-4.10198
X4.28300 Y-4.10198
X4.28300 Y-4.10298
X4.28400 Y-4.10298
X4.28400 Y-4.10398
X4.28500 Y-4.10398
X4.28500 Y-4.10498
X4.28600 Y-4.10498
X4.28600 Y-4.10598
X4.28700 Y-4.10598
X4.28700 Y-4.10698
X4.28800 Y-4.10698
X4.28800 Y-4.10798
X4.28900 Y-4.10798
X4.28900 Y-4.10898
X4.29000 Y-4.10898
X4.29000 Y-4.10998
X4.29100 Y-4.10998
X4.29100 Y-4.11098
X4.29200 Y-4.11098
X4.29200 Y-4.11198
X4.29300 Y-4.11198
X4.29300 Y-4.11498
X4.29400 Y-4.11498
X4.29400 Y-4.11598
X4.29500 Y-4.11598
X4.29500 Y-4.11698
X4.29600 Y-4.11698
X4.29600 Y-4.11798
X4.29700 Y-4.11798
X4.29700 Y-4.11998
X4.29800 Y-4.11998
X4.29800 Y-4.12098
X4.29900 Y-4.12098
X4.29900 Y-4.12498
X4.30000 Y-4.12498
X4.30000 Y-4.12998
X4.30100 Y-4.12998
X4.30100 Y-4.13798
X4.30000 Y-4.13798
X4.30000 Y-4.14298
X4.29900 Y-4.14298
X4.29900 Y-4.14698
X4.29800 Y-4.14698
X4.29800 Y-4.14798
X4.29700 Y-4.14798
X4.29700 Y-4.14998
X4.29600 Y-4.14998
X4.29600 Y-4.15098
X4.29500 Y-4.15098
X4.29500 Y-4.15198
X4.29400 Y-4.15198
X4.29400 Y-4.15298
X4.29300 Y-4.15298
X4.29300 Y-4.15498
X4.29200 Y-4.15498
X4.29200 Y-4.15598
X4.29100 Y-4.15598
X4.29100 Y-4.15698
X4.29000 Y-4.15698
X4.29000 Y-4.15798
X4.28800 Y-4.15798
X4.28800 Y-4.15898
X4.28600 Y-4.15898
X4.28600 Y-4.15998
X4.28400 Y-4.15998
X4.28400 Y-4.16098
X4.28200 Y-4.16098
X4.28200 Y-4.16198
X4.28000 Y-4.16198
X4.28000 Y-4.16298
X4.26300 Y-4.16298
X4.26300 Y-4.16198
X4.26100 Y-4.16198
X4.26100 Y-4.16098
X4.25900 Y-4.16098
X4.25900 Y-4.15998
X4.25700 Y-4.15998
X4.25700 Y-4.15898
X4.25600 Y-4.15898
X4.25600 Y-4.15798
X4.25400 Y-4.15798
X4.25400 Y-4.15698
X4.25200 Y-4.15698
X4.25200 Y-4.15598
X4.25000 Y-4.15598
X4.25000 Y-4.15498
X4.24900 Y-4.15498
X4.24900 Y-4.15398
X4.24800 Y-4.15398
X4.24800 Y-4.15298
X4.24700 Y-4.15298
X4.24700 Y-4.15198
X4.24600 Y-4.15198
X4.24600 Y-4.15098
X4.24500 Y-4.15098
X4.24500 Y-4.14998
X4.24400 Y-4.14998
X4.24400 Y-4.14898
X4.24300 Y-4.14898
X4.24300 Y-4.14798
X4.24200 Y-4.14798
X4.24200 Y-4.14698
X4.24100 Y-4.14698
X4.24100 Y-4.14598
X4.24000 Y-4.14598
X4.24000 Y-4.14498
X4.23900 Y-4.14498
X4.23900 Y-4.14398
X4.23800 Y-4.14398
X4.23800 Y-4.14298
X4.23700 Y-4.14298
X4.23700 Y-4.14198
X4.23600 Y-4.14198
X4.23600 Y-4.14098
X4.23500 Y-4.14098
X4.23500 Y-4.13998
X4.23400 Y-4.13998
X4.23400 Y-4.13898
X4.23300 Y-4.13898
X4.23300 Y-4.13798
X4.23200 Y-4.13798
X4.23200 Y-4.13698
X4.23100 Y-4.13698
X4.23100 Y-4.13598
X4.23000 Y-4.13598
X4.23000 Y-4.13498
X4.22900 Y-4.13498
X4.22900 Y-4.13398
X4.22800 Y-4.13398
X4.22800 Y-4.13298
X4.22700 Y-4.13298
X4.22700 Y-4.13198
X4.22600 Y-4.13198
X4.22600 Y-4.13098
X4.22500 Y-4.13098
X4.22500 Y-4.12998
X4.22400 Y-4.12998
X4.22400 Y-4.12898
X4.22300 Y-4.12898
X4.22300 Y-4.12798
X4.22200 Y-4.12798
X4.22200 Y-4.12698
X4.22100 Y-4.12698
X4.22100 Y-4.12598
X4.22000 Y-4.12598
X4.22000 Y-4.12498
X4.21900 Y-4.12498
X4.21900 Y-4.12398
X4.21800 Y-4.12398
X4.21800 Y-4.12298
X4.21700 Y-4.12298
X4.21700 Y-4.12198
X4.21600 Y-4.12198
X4.21600 Y-4.12098
X4.21500 Y-4.12098
X4.21500 Y-4.11998
X4.21400 Y-4.11998
X4.21400 Y-4.11898
X4.21300 Y-4.11898
X4.21300 Y-4.11798
X4.21200 Y-4.11798
X4.21200 Y-4.11698
X4.21100 Y-4.11698
X4.21100 Y-4.11598
X4.21000 Y-4.11598
X4.21000 Y-4.11498
X4.20900 Y-4.11498
X4.20900 Y-4.11398
X4.20800 Y-4.11398
X4.20800 Y-4.11298
X4.20700 Y-4.11298
X4.20700 Y-4.11198
X4.20600 Y-4.11198
X4.20600 Y-4.11098
X4.20500 Y-4.11098
X4.20500 Y-4.10998
X4.20400 Y-4.10998
X4.20400 Y-4.10898
X4.20300 Y-4.10898
X4.20300 Y-4.10798
X4.20200 Y-4.10798
X4.20200 Y-4.10698
X4.20100 Y-4.10698
X4.20100 Y-4.10598
X4.20000 Y-4.10598
X4.20000 Y-4.10498
X4.19900 Y-4.10498
X4.19900 Y-4.10398
X4.19800 Y-4.10398
X4.19800 Y-4.10298
X4.19700 Y-4.10298
X4.19700 Y-4.10198
X4.19600 Y-4.10198
X4.19600 Y-4.10098
X4.19500 Y-4.10098
X4.19500 Y-4.09998
X4.19400 Y-4.09998
X4.19400 Y-4.09898
X4.19300 Y-4.09898
X4.19300 Y-4.09798
X4.19200 Y-4.09798
X4.19200 Y-4.09698
X4.19100 Y-4.09698
X4.19100 Y-4.09598
X4.19000 Y-4.09598
X4.19000 Y-4.09498
X4.18900 Y-4.09498
X4.18900 Y-4.09398
X4.18800 Y-4.09398
X4.18800 Y-4.09298
X4.18700 Y-4.09298
X4.18700 Y-4.09198
X4.18600 Y-4.09198
X4.18600 Y-4.09098
X4.18500 Y-4.09098
X4.18500 Y-4.08998
X4.18400 Y-4.08998
X4.18400 Y-4.08898
X4.18300 Y-4.08898
X4.18300 Y-4.08798
X4.18200 Y-4.08798
X4.18200 Y-4.08698
X4.18100 Y-4.08698
X4.18100 Y-4.08598
X4.18000 Y-4.08598
X4.18000 Y-4.08498
X4.17900 Y-4.08498
X4.17900 Y-4.08398
X4.17800 Y-4.08398
X4.17800 Y-4.08298
X4.17700 Y-4.08298
X4.17700 Y-4.08198
X4.17600 Y-4.08198
X4.17600 Y-4.08098
X4.17500 Y-4.08098
X4.17500 Y-4.07998
X4.17400 Y-4.07998
X4.17400 Y-4.07898
X4.17300 Y-4.07898
X4.17300 Y-4.07798
X4.17200 Y-4.07798
X4.17200 Y-4.07698
X4.17100 Y-4.07698
X4.17100 Y-4.07598
X4.17000 Y-4.07598
X4.17000 Y-4.07498
X4.16900 Y-4.07498
X4.16900 Y-4.07398
X4.16800 Y-4.07398
X4.16800 Y-4.07298
X4.16700 Y-4.07298
X4.16700 Y-4.07198
X4.16600 Y-4.07198
X4.16600 Y-4.07098
X4.16500 Y-4.07098
X4.16500 Y-4.06998
X4.16400 Y-4.06998
X4.16400 Y-4.06898
X4.16300 Y-4.06898
X4.16300 Y-4.06798
X4.16200 Y-4.06798
X4.16200 Y-4.06698
X4.16100 Y-4.06698
X4.16100 Y-4.06598
X4.16000 Y-4.06598
X4.16000 Y-4.06498
X4.15900 Y-4.06498
X4.15900 Y-4.06398
X4.15800 Y-4.06398
X4.15800 Y-4.06298
X4.15700 Y-4.06298
X4.15700 Y-4.06198
X4.15600 Y-4.06198
X4.15600 Y-4.06098
X4.15500 Y-4.06098
X4.15500 Y-4.05998
X4.15400 Y-4.05998
X4.15400 Y-4.05898
X4.15300 Y-4.05898
X4.15300 Y-4.05798
X4.15200 Y-4.05798
X4.15200 Y-4.05698
X4.15100 Y-4.05698
X4.15100 Y-4.05598
X4.15000 Y-4.05598
X4.15000 Y-4.05498
X4.14900 Y-4.05498
X4.14900 Y-4.05398
X4.14800 Y-4.05398
X4.14800 Y-4.05298
X4.14700 Y-4.05298
X4.14700 Y-4.05198
X4.14600 Y-4.05198
X4.14600 Y-4.05098
X4.14500 Y-4.05098
X4.14500 Y-4.04998
X4.14400 Y-4.04998
X4.14400 Y-4.04898
X4.14300 Y-4.04898
X4.14300 Y-4.04798
X4.14200 Y-4.04798
X4.14200 Y-4.04698
X4.14100 Y-4.04698
X4.14100 Y-4.04598
X4.14000 Y-4.04598
X4.14000 Y-4.04498
X4.13900 Y-4.04498
X4.13900 Y-4.04398
X4.13800 Y-4.04398
X4.13800 Y-4.04298
X4.13700 Y-4.04298
X4.13700 Y-4.04198
X4.13600 Y-4.04198
X4.13600 Y-4.04098
X4.13500 Y-4.04098
X4.13500 Y-4.03998
X4.13400 Y-4.03998
X4.13400 Y-4.03898
X4.13300 Y-4.03898
X4.13300 Y-4.03798
X4.13200 Y-4.03798
X4.13200 Y-4.03698
X4.13100 Y-4.03698
X4.13100 Y-4.03598
X4.13000 Y-4.03598
X4.13000 Y-4.03498
X4.12900 Y-4.03498
X4.12900 Y-4.03398
X4.12800 Y-4.03398
X4.12800 Y-4.03298
X4.12700 Y-4.03298
X4.12700 Y-4.03198
X4.12600 Y-4.03198
X4.12600 Y-4.03098
X4.12500 Y-4.03098
X4.12500 Y-4.02998
X4.12400 Y-4.02998
X4.12400 Y-4.02898
X4.12300 Y-4.02898
X4.12300 Y-4.02798
X4.12200 Y-4.02798
X4.12200 Y-4.02698
X4.12100 Y-4.02698
X4.12100 Y-4.02598
X4.12000 Y-4.02598
X4.12000 Y-4.02498
X4.11900 Y-4.02498
X4.11900 Y-4.02398
X4.11800 Y-4.02398
X4.11800 Y-4.02298
X4.11700 Y-4.02298
X4.11700 Y-4.02198
X4.11600 Y-4.02198
X4.11600 Y-4.02098
X4.11500 Y-4.02098
X4.11500 Y-4.01998
X4.11400 Y-4.01998
X4.11400 Y-4.01898
X4.11300 Y-4.01898
X4.11300 Y-4.01798
X4.11200 Y-4.01798
X4.11200 Y-4.01698
X4.11100 Y-4.01698
X4.11100 Y-4.01598
X4.11000 Y-4.01598
X4.11000 Y-4.01498
X4.10900 Y-4.01498
X4.10900 Y-4.01398
X4.10800 Y-4.01398
X4.10800 Y-4.01298
X4.10700 Y-4.01298
X4.10700 Y-4.01198
X4.10600 Y-4.01198
X4.10600 Y-4.01098
X4.10500 Y-4.01098
X4.10500 Y-4.00998
X4.10400 Y-4.00998
X4.10400 Y-4.00898
X4.10300 Y-4.00898
X4.10300 Y-4.00798
X4.10200 Y-4.00798
X4.10200 Y-4.00698
X4.10100 Y-4.00698
X4.10100 Y-4.00598
X4.10000 Y-4.00598
X4.10000 Y-4.00498
X4.09900 Y-4.00498
X4.09900 Y-4.00398
X4.09800 Y-4.00398
X4.09800 Y-4.00298
X4.09700 Y-4.00298
X4.09700 Y-4.00198
X4.09600 Y-4.00198
X4.09600 Y-4.00098
X4.09500 Y-4.00098
X4.09500 Y-3.99998
X4.09400 Y-3.99998
X4.09400 Y-3.99898
X4.09300 Y-3.99898
X4.09300 Y-3.99798
X4.09200 Y-3.99798
X4.09200 Y-3.99698
X4.09100 Y-3.99698
X4.09100 Y-3.99598
X4.09000 Y-3.99598
X4.09000 Y-3.99498
X4.08900 Y-3.99498
X4.08900 Y-3.99398
X4.08800 Y-3.99398
X4.08800 Y-3.99298
X4.08700 Y-3.99298
X4.08700 Y-3.99198
X4.08600 Y-3.99198
X4.08600 Y-3.99098
X4.08500 Y-3.99098
X4.08500 Y-3.98998
X4.08400 Y-3.98998
X4.08400 Y-3.98898
X4.08300 Y-3.98898
X4.08300 Y-3.98798
X4.08200 Y-3.98798
X4.08200 Y-3.98698
X4.08100 Y-3.98698
X4.08100 Y-3.98598
X4.08000 Y-3.98598
X4.08000 Y-3.98498
X4.07900 Y-3.98498
X4.07900 Y-3.98398
X4.07800 Y-3.98398
X4.07800 Y-3.98298
X4.07700 Y-3.98298
X4.07700 Y-3.98198
X4.07600 Y-3.98198
X4.07600 Y-3.98098
X4.07500 Y-3.98098
X4.07500 Y-3.97998
X4.07400 Y-3.97998
X4.07400 Y-3.97898
X4.07300 Y-3.97898
X4.07300 Y-3.97798
X4.07200 Y-3.97798
X4.07200 Y-3.97698
X4.07100 Y-3.97698
X4.07100 Y-3.97598
X4.07000 Y-3.97598
X4.07000 Y-3.97498
X4.06900 Y-3.97498
X4.06900 Y-3.97398
X4.06800 Y-3.97398
X4.06800 Y-3.97298
X4.06700 Y-3.97298
X4.06700 Y-3.97198
X4.06600 Y-3.97198
X4.06600 Y-3.97098
X4.06500 Y-3.97098
X4.06500 Y-3.96998
X4.06400 Y-3.96998
X4.06400 Y-3.96898
X4.06300 Y-3.96898
X4.06300 Y-3.96798
X4.06200 Y-3.96798
X4.06200 Y-3.96698
X4.06100 Y-3.96698
X4.06100 Y-3.96598
X4.06000 Y-3.96598
X4.06000 Y-3.96498
X4.05900 Y-3.96498
X4.05900 Y-3.96398
X4.05800 Y-3.96398
X4.05800 Y-3.96298
X4.05700 Y-3.96298
X4.05700 Y-3.96198
X4.05600 Y-3.96198
X4.05600 Y-3.96098
X4.05500 Y-3.96098
X4.05500 Y-3.95998
X4.05400 Y-3.95998
X4.05400 Y-3.95898
X4.05300 Y-3.95898
X4.05300 Y-3.95798
X4.05200 Y-3.95798
X4.05200 Y-3.95698
X4.05100 Y-3.95698
X4.05100 Y-3.95598
X4.05000 Y-3.95598
X4.05000 Y-3.95498
X3.68400 Y-3.95498
X3.68400 Y-3.95398
X3.68100 Y-3.95398
X3.68100 Y-3.95298
X3.67900 Y-3.95298
X3.67900 Y-3.95198
X3.67600 Y-3.95198
X3.67600 Y-3.95098
X3.67400 Y-3.95098
X3.67400 Y-3.94998
X3.67200 Y-3.94998
X3.67200 Y-3.94898
X3.67000 Y-3.94898
X3.67000 Y-3.94698
X3.66900 Y-3.94698
X3.66900 Y-3.94598
X3.66800 Y-3.94598
X3.66800 Y-3.94498
X3.66700 Y-3.94498
X3.66700 Y-3.94398
X3.66600 Y-3.94398
X3.66600 Y-3.94198
X3.66500 Y-3.94198
X3.66500 Y-3.94098
X3.66400 Y-3.94098
X3.66400 Y-3.93998
X3.66300 Y-3.93998
X3.66300 Y-3.93898
X3.66200 Y-3.93898
X3.66200 Y-3.93498
X3.66100 Y-3.93498
X3.66100 Y-3.93098
X3.66000 Y-3.93098
X3.66000 Y-3.92598
X3.65900 Y-3.92598
X3.65900 Y-3.92398
X3.66000 Y-3.92398
X3.66000 Y-3.91898
X3.66100 Y-3.91898
X3.66100 Y-3.91498
X3.66200 Y-3.91498
X3.66200 Y-3.91098
X3.66300 Y-3.91098
X3.66300 Y-3.90998
X3.66400 Y-3.90998
X3.66400 Y-3.90898
X3.66500 Y-3.90898
X3.66500 Y-3.90798
X3.66600 Y-3.90798
X3.66600 Y-3.90598
X3.66700 Y-3.90598
X3.66700 Y-3.90498
X3.66800 Y-3.90498
X3.66800 Y-3.90398
X3.66900 Y-3.90398
X3.66900 Y-3.90298
X3.67000 Y-3.90298
X3.67000 Y-3.90098
X3.67200 Y-3.90098
X3.67200 Y-3.89998
X3.67400 Y-3.89998
X3.67400 Y-3.89898
X3.67600 Y-3.89898
X3.67600 Y-3.89798
X3.67900 Y-3.89798
X3.67900 Y-3.89698
X3.68100 Y-3.89698
X3.68100 Y-3.89598
X3.68400 Y-3.89598
X3.68400 Y-3.89498
X4.06800 Y-3.89498
X4.06800 Y-3.89598
G04 P0 ( dwell for no time -- G64 should not smooth over this point )
G00 Z0.19685 ( retract )

G00 X5.58600 Y-5.23598 ( rapid move to begin. )
G01 Z-0.00591 F39.37008 ( plunge. )
G04 P0 ( dwell for no time -- G64 should not smooth over this point )
X5.58600 Y-5.23598
X5.58800 Y-5.23598
X5.58800 Y-5.23698
X5.59000 Y-5.23698
X5.59000 Y-5.23798
X5.59100 Y-5.23798
X5.59100 Y-5.23898
X5.59300 Y-5.23898
X5.59300 Y-5.23998
X5.59400 Y-5.23998
X5.59400 Y-5.24098
X5.59500 Y-5.24098
X5.59500 Y-5.24298
X5.59600 Y-5.24298
X5.59600 Y-5.24398
X5.59700 Y-5.24398
X5.59700 Y-5.24598
X5.59800 Y-5.24598
X5.59800 Y-5.24798
X5.59900 Y-5.24798
X5.59900 Y-5.25198
X5.60000 Y-5.25198
X5.60000 Y-5.25798
X5.59900 Y-5.25798
X5.59900 Y-5.26198
X5.59800 Y-5.26198
X5.59800 Y-5.26498
X5.59700 Y-5.26498
X5.59700 Y-5.26798
X5.59600 Y-5.26798
X5.59600 Y-5.26998
X5.59500 Y-5.26998
X5.59500 Y-5.27098
X5.59400 Y-5.27098
X5.59400 Y-5.27198
X5.59300 Y-5.27198
X5.59300 Y-5.27298
X5.59200 Y-5.27298
X5.59200 Y-5.27398
X5.59100 Y-5.27398
X5.59100 Y-5.27498
X5.59000 Y-5.27498
X5.59000 Y-5.27598
X5.58900 Y-5.27598
X5.58900 Y-5.27698
X5.58800 Y-5.27698
X5.58800 Y-5.27798
X5.58700 Y-5.27798
X5.58700 Y-5.27898
X5.58600 Y-5.27898
X5.58600 Y-5.27998
X5.58500 Y-5.27998
X5.58500 Y-5.28098
X5.58400 Y-5.28098
X5.58400 Y-5.28198
X5.58300 Y-5.28198
X5.58300 Y-5.28298
X5.58200 Y-5.28298
X5.58200 Y-5.28398
X5.58100 Y-5.28398
X5.58100 Y-5.28498
X5.58000 Y-5.28498
X5.58000 Y-5.28598
X5.57900 Y-5.28598
X5.57900 Y-5.28698
X5.57800 Y-5.28698
X5.57800 Y-5.28798
X5.57700 Y-5.28798
X5.57700 Y-5.28898
X5.57600 Y-5.28898
X5.57600 Y-5.28998
X5.57500 Y-5.28998
X5.57500 Y-5.29098
X5.57400 Y-5.29098
X5.57400 Y-5.29198
X5.57300 Y-5.29198
X5.57300 Y-5.29298
X5.57200 Y-5.29298
X5.57200 Y-5.29398
X5.59700 Y-5.29398
X5.59700 Y-5.29598
X5.59800 Y-5.29598
X5.59800 Y-5.29798
X5.59900 Y-5.29798
X5.59900 Y-5.30198
X5.59800 Y-5.30198
X5.59800 Y-5.30398
X5.59700 Y-5.30398
X5.59700 Y-5.30598
X5.59400 Y-5.30598
X5.59400 Y-5.30698
X5.55600 Y-5.30698
X5.55600 Y-5.30598
X5.55300 Y-5.30598
X5.55300 Y-5.30498
X5.55200 Y-5.30498
X5.55200 Y-5.30298
X5.55100 Y-5.30298
X5.55100 Y-5.30098
X5.55000 Y-5.30098
X5.55000 Y-5.29898
X5.55100 Y-5.29898
X5.55100 Y-5.29598
X5.55200 Y-5.29598
X5.55200 Y-5.29498
X5.55300 Y-5.29498
X5.55300 Y-5.29398
X5.55400 Y-5.29398
X5.55400 Y-5.29298
X5.55500 Y-5.29298
X5.55500 Y-5.29198
X5.55600 Y-5.29198
X5.55600 Y-5.29098
X5.55700 Y-5.29098
X5.55700 Y-5.28998
X5.55800 Y-5.28998
X5.55800 Y-5.28898
X5.55900 Y-5.28898
X5.55900 Y-5.28798
X5.56000 Y-5.28798
X5.56000 Y-5.28698
X5.56100 Y-5.28698
X5.56100 Y-5.28598
X5.56200 Y-5.28598
X5.56200 Y-5.28498
X5.56300 Y-5.28498
X5.56300 Y-5.28398
X5.56400 Y-5.28398
X5.56400 Y-5.28298
X5.56500 Y-5.28298
X5.56500 Y-5.28198
X5.56600 Y-5.28198
X5.56600 Y-5.28098
X5.56700 Y-5.28098
X5.56700 Y-5.27998
X5.56800 Y-5.27998
X5.56800 Y-5.27898
X5.56900 Y-5.27898
X5.56900 Y-5.27798
X5.57000 Y-5.27798
X5.57000 Y-5.27698
X5.57100 Y-5.27698
X5.57100 Y-5.27598
X5.57200 Y-5.27598
X5.57200 Y-5.27498
X5.57300 Y-5.27498
X5.57300 Y-5.27398
X5.57400 Y-5.27398
X5.57400 Y-5.27298
X5.57500 Y-5.27298
X5.57500 Y-5.27198
X5.57600 Y-5.27198
X5.57600 Y-5.27098
X5.57700 Y-5.27098
X5.57700 Y-5.26998
X5.57800 Y-5.26998
X5.57800 Y-5.26898
X5.57900 Y-5.26898
X5.57900 Y-5.26798
X5.58000 Y-5.26798
X5.58000 Y-5.26698
X5.58100 Y-5.26698
X5.58100 Y-5.26598
X5.58200 Y-5.26598
X5.58200 Y-5.26498
X5.58300 Y-5.26498
X5.58300 Y-5.26398
X5.58400 Y-5.26398
X5.58400 Y-5.26298
X5.58500 Y-5.26298
X5.58500 Y-5.25998
X5.58600 Y-5.25998
X5.58600 Y-5.25698
X5.58700 Y-5.25698
X5.58700 Y-5.25398
X5.58600 Y-5.25398
X5.58600 Y-5.25198
X5.58500 Y-5.25198
X5.58500 Y-5.24998
X5.58400 Y-5.24998
X5.58400 Y-5.24898
X5.58200 Y-5.24898
X5.58200 Y-5.24798
X5.58000 Y-5.24798
X5.58000 Y-5.24698
X5.56900 Y-5.24698
X5.56900 Y-5.24798
X5.56700 Y-5.24798
X5.56700 Y-5.24898
X5.56600 Y-5.24898
X5.56600 Y-5.24998
X5.56500 Y-5.24998
X5.56500 Y-5.25098
X5.56400 Y-5.25098
X5.56400 Y-5.25198
X5.55500 Y-5.25198
X5.55500 Y-5.24998
X5.55400 Y-5.24998
X5.55400 Y-5.24798
X5.55300 Y-5.24798
X5.55300 Y-5.24498
X5.55400 Y-5.24498
X5.55400 Y-5.24198
X5.55500 Y-5.24198
X5.55500 Y-5.24098
X5.55600 Y-5.24098
X5.55600 Y-5.23998
X5.55700 Y-5.23998
X5.55700 Y-5.23898
X5.55800 Y-5.23898
X5.55800 Y-5.23798
X5.56000 Y-5.23798
X5.56000 Y-5.23698
X5.56200 Y-5.23698
X5.56200 Y-5.23598
X5.56400 Y-5.23598
X5.56400 Y-5.23498
X5.58600 Y-5.23498
X5.58600 Y-5.23598
G04 P0 ( dwell for no time -- G64 should not smooth over this point )
G00 Z0.19685 ( retract )

G00 X5.61400 Y-5.23598 ( rapid move to begin. )
G01 Z-0.00591 F39.37008 ( plunge. )
G04 P0 ( dwell for no time -- G64 should not smooth over this point )
X5.61400 Y-5.23598
X5.61400 Y-5.23698
X5.61500 Y-5.23698
X5.61500 Y-5.23798
X5.61600 Y-5.23798
X5.61600 Y-5.23998
X5.61700 Y-5.23998
X5.61700 Y-5.24298
X5.61800 Y-5.24298
X5.61800 Y-5.24598
X5.61900 Y-5.24598
X5.61900 Y-5.24898
X5.62000 Y-5.24898
X5.62000 Y-5.25198
X5.62100 Y-5.25198
X5.62100 Y-5.25498
X5.62200 Y-5.25498
X5.62200 Y-5.25798
X5.62300 Y-5.25798
X5.62300 Y-5.26098
X5.62400 Y-5.26098
X5.62400 Y-5.26398
X5.62500 Y-5.26398
X5.62500 Y-5.26698
X5.62600 Y-5.26698
X5.62600 Y-5.26998
X5.62700 Y-5.26998
X5.62700 Y-5.27298
X5.62800 Y-5.27298
X5.62800 Y-5.27598
X5.62900 Y-5.27598
X5.62900 Y-5.27898
X5.63000 Y-5.27898
X5.63000 Y-5.27698
X5.63100 Y-5.27698
X5.63100 Y-5.27398
X5.63200 Y-5.27398
X5.63200 Y-5.27098
X5.63300 Y-5.27098
X5.63300 Y-5.26798
X5.63400 Y-5.26798
X5.63400 Y-5.26498
X5.63500 Y-5.26498
X5.63500 Y-5.26198
X5.63600 Y-5.26198
X5.63600 Y-5.25898
X5.63700 Y-5.25898
X5.63700 Y-5.25598
X5.63800 Y-5.25598
X5.63800 Y-5.25298
X5.63900 Y-5.25298
X5.63900 Y-5.24998
X5.64000 Y-5.24998
X5.64000 Y-5.24698
X5.64100 Y-5.24698
X5.64100 Y-5.24398
X5.64200 Y-5.24398
X5.64200 Y-5.24098
X5.64300 Y-5.24098
X5.64300 Y-5.23898
X5.64400 Y-5.23898
X5.64400 Y-5.23798
X5.64500 Y-5.23798
X5.64500 Y-5.23598
X5.64600 Y-5.23598
X5.64600 Y-5.23498
X5.65300 Y-5.23498
X5.65300 Y-5.23698
X5.65400 Y-5.23698
X5.65400 Y-5.23998
X5.65500 Y-5.23998
X5.65500 Y-5.24598
X5.65400 Y-5.24598
X5.65400 Y-5.24898
X5.65300 Y-5.24898
X5.65300 Y-5.25198
X5.65200 Y-5.25198
X5.65200 Y-5.25498
X5.65100 Y-5.25498
X5.65100 Y-5.25798
X5.65000 Y-5.25798
X5.65000 Y-5.26098
X5.64900 Y-5.26098
X5.64900 Y-5.26398
X5.64800 Y-5.26398
X5.64800 Y-5.26698
X5.64700 Y-5.26698
X5.64700 Y-5.26998
X5.64600 Y-5.26998
X5.64600 Y-5.27298
X5.64500 Y-5.27298
X5.64500 Y-5.27598
X5.64400 Y-5.27598
X5.64400 Y-5.27898
X5.64300 Y-5.27898
X5.64300 Y-5.28198
X5.64200 Y-5.28198
X5.64200 Y-5.28498
X5.64100 Y-5.28498
X5.64100 Y-5.28798
X5.64000 Y-5.28798
X5.64000 Y-5.29098
X5.63900 Y-5.29098
X5.63900 Y-5.29398
X5.63800 Y-5.29398
X5.63800 Y-5.29698
X5.63700 Y-5.29698
X5.63700 Y-5.29998
X5.63600 Y-5.29998
X5.63600 Y-5.30198
X5.63500 Y-5.30198
X5.63500 Y-5.30298
X5.63400 Y-5.30298
X5.63400 Y-5.30498
X5.63300 Y-5.30498
X5.63300 Y-5.30598
X5.62600 Y-5.30598
X5.62600 Y-5.30498
X5.62500 Y-5.30498
X5.62500 Y-5.30398
X5.62400 Y-5.30398
X5.62400 Y-5.30198
X5.62300 Y-5.30198
X5.62300 Y-5.29898
X5.62200 Y-5.29898
X5.62200 Y-5.29598
X5.62100 Y-5.29598
X5.62100 Y-5.29298
X5.62000 Y-5.29298
X5.62000 Y-5.28998
X5.61900 Y-5.28998
X5.61900 Y-5.28698
X5.61800 Y-5.28698
X5.61800 Y-5.28398
X5.61700 Y-5.28398
X5.61700 Y-5.28098
X5.61600 Y-5.28098
X5.61600 Y-5.27798
X5.61500 Y-5.27798
X5.61500 Y-5.27498
X5.61400 Y-5.27498
X5.61400 Y-5.27198
X5.61300 Y-5.27198
X5.61300 Y-5.26898
X5.61200 Y-5.26898
X5.61200 Y-5.26598
X5.61100 Y-5.26598
X5.61100 Y-5.26298
X5.61000 Y-5.26298
X5.61000 Y-5.25998
X5.60900 Y-5.25998
X5.60900 Y-5.25698
X5.60800 Y-5.25698
X5.60800 Y-5.25398
X5.60700 Y-5.25398
X5.60700 Y-5.25098
X5.60600 Y-5.25098
X5.60600 Y-5.24798
X5.60500 Y-5.24798
X5.60500 Y-5.24498
X5.60400 Y-5.24498
X5.60400 Y-5.23898
X5.60500 Y-5.23898
X5.60500 Y-5.23698
X5.60600 Y-5.23698
X5.60600 Y-5.23498
X5.61400 Y-5.23498
X5.61400 Y-5.23598
G04 P0 ( dwell for no time -- G64 should not smooth over this point )
G00 Z0.19685 ( retract )

G00 X5.73200 Y-5.23598 ( rapid move to begin. )
G01 Z-0.00591 F39.37008 ( plunge. )
G04 P0 ( dwell for no time -- G64 should not smooth over this point )
X5.73200 Y-5.23598
X5.73200 Y-5.23698
X5.73300 Y-5.23698
X5.73300 Y-5.23898
X5.73400 Y-5.23898
X5.73400 Y-5.23998
X5.73500 Y-5.23998
X5.73500 Y-5.29398
X5.74800 Y-5.29398
X5.74800 Y-5.29498
X5.74900 Y-5.29498
X5.74900 Y-5.29598
X5.75000 Y-5.29598
X5.75000 Y-5.29798
X5.75100 Y-5.29798
X5.75100 Y-5.30198
X5.75000 Y-5.30198
X5.75000 Y-5.30398
X5.74900 Y-5.30398
X5.74900 Y-5.30498
X5.74800 Y-5.30498
X5.74800 Y-5.30598
X5.74500 Y-5.30598
X5.74500 Y-5.30698
X5.71100 Y-5.30698
X5.71100 Y-5.30598
X5.70800 Y-5.30598
X5.70800 Y-5.30498
X5.70700 Y-5.30498
X5.70700 Y-5.30398
X5.70600 Y-5.30398
X5.70600 Y-5.30198
X5.70500 Y-5.30198
X5.70500 Y-5.29798
X5.70600 Y-5.29798
X5.70600 Y-5.29698
X5.70700 Y-5.29698
X5.70700 Y-5.29498
X5.70800 Y-5.29498
X5.70800 Y-5.29398
X5.72200 Y-5.29398
X5.72200 Y-5.25998
X5.72100 Y-5.25998
X5.72100 Y-5.26098
X5.71900 Y-5.26098
X5.71900 Y-5.26198
X5.71700 Y-5.26198
X5.71700 Y-5.26298
X5.71500 Y-5.26298
X5.71500 Y-5.26398
X5.70800 Y-5.26398
X5.70800 Y-5.26298
X5.70700 Y-5.26298
X5.70700 Y-5.26098
X5.70600 Y-5.26098
X5.70600 Y-5.25998
X5.70500 Y-5.25998
X5.70500 Y-5.25598
X5.70600 Y-5.25598
X5.70600 Y-5.25498
X5.70700 Y-5.25498
X5.70700 Y-5.25298
X5.70800 Y-5.25298
X5.70800 Y-5.25198
X5.70900 Y-5.25198
X5.70900 Y-5.25098
X5.71100 Y-5.25098
X5.71100 Y-5.24998
X5.71300 Y-5.24998
X5.71300 Y-5.24898
X5.71400 Y-5.24898
X5.71400 Y-5.24798
X5.71500 Y-5.24798
X5.71500 Y-5.24698
X5.71600 Y-5.24698
X5.71600 Y-5.24598
X5.71700 Y-5.24598
X5.71700 Y-5.24498
X5.71800 Y-5.24498
X5.71800 Y-5.24298
X5.71900 Y-5.24298
X5.71900 Y-5.24198
X5.72000 Y-5.24198
X5.72000 Y-5.23998
X5.72100 Y-5.23998
X5.72100 Y-5.23898
X5.72200 Y-5.23898
X5.72200 Y-5.23798
X5.72300 Y-5.23798
X5.72300 Y-5.23598
X5.72500 Y-5.23598
X5.72500 Y-5.23498
X5.73200 Y-5.23498
X5.73200 Y-5.23598
G04 P0 ( dwell for no time -- G64 should not smooth over this point )
G00 Z0.19685 ( retract )

G00 X5.76500 Y-5.23598 ( rapid move to begin. )
G01 Z-0.00591 F39.37008 ( plunge. )
G04 P0 ( dwell for no time -- G64 should not smooth over this point )
X5.76500 Y-5.23598
X5.76600 Y-5.23598
X5.76600 Y-5.23698
X5.76700 Y-5.23698
X5.76700 Y-5.23798
X5.76800 Y-5.23798
X5.76800 Y-5.23998
X5.76900 Y-5.23998
X5.76900 Y-5.24298
X5.77000 Y-5.24298
X5.77000 Y-5.24598
X5.77100 Y-5.24598
X5.77100 Y-5.24898
X5.77200 Y-5.24898
X5.77200 Y-5.25198
X5.77300 Y-5.25198
X5.77300 Y-5.25498
X5.77400 Y-5.25498
X5.77400 Y-5.25798
X5.77500 Y-5.25798
X5.77500 Y-5.26098
X5.77600 Y-5.26098
X5.77600 Y-5.26398
X5.77700 Y-5.26398
X5.77700 Y-5.26698
X5.77800 Y-5.26698
X5.77800 Y-5.26998
X5.77900 Y-5.26998
X5.77900 Y-5.27298
X5.78000 Y-5.27298
X5.78000 Y-5.27598
X5.78100 Y-5.27598
X5.78100 Y-5.27898
X5.78200 Y-5.27898
X5.78200 Y-5.27598
X5.78300 Y-5.27598
X5.78300 Y-5.27298
X5.78400 Y-5.27298
X5.78400 Y-5.26998
X5.78500 Y-5.26998
X5.78500 Y-5.26698
X5.78600 Y-5.26698
X5.78600 Y-5.26398
X5.78700 Y-5.26398
X5.78700 Y-5.26098
X5.78800 Y-5.26098
X5.78800 Y-5.25798
X5.78900 Y-5.25798
X5.78900 Y-5.25498
X5.79000 Y-5.25498
X5.79000 Y-5.25198
X5.79100 Y-5.25198
X5.79100 Y-5.24898
X5.79200 Y-5.24898
X5.79200 Y-5.24598
X5.79300 Y-5.24598
X5.79300 Y-5.24298
X5.79400 Y-5.24298
X5.79400 Y-5.23998
X5.79500 Y-5.23998
X5.79500 Y-5.23898
X5.79600 Y-5.23898
X5.79600 Y-5.23798
X5.79700 Y-5.23798
X5.79700 Y-5.23598
X5.79800 Y-5.23598
X5.79800 Y-5.23498
X5.80500 Y-5.23498
X5.80500 Y-5.23798
X5.80600 Y-5.23798
X5.80600 Y-5.23998
X5.80700 Y-5.23998
X5.80700 Y-5.24598
X5.80600 Y-5.24598
X5.80600 Y-5.24898
X5.80500 Y-5.24898
X5.80500 Y-5.25198
X5.80400 Y-5.25198
X5.80400 Y-5.25498
X5.80300 Y-5.25498
X5.80300 Y-5.25798
X5.80200 Y-5.25798
X5.80200 Y-5.26098
X5.80100 Y-5.26098
X5.80100 Y-5.26398
X5.80000 Y-5.26398
X5.80000 Y-5.26698
X5.79900 Y-5.26698
X5.79900 Y-5.26998
X5.79800 Y-5.26998
X5.79800 Y-5.27298
X5.79700 Y-5.27298
X5.79700 Y-5.27598
X5.79600 Y-5.27598
X5.79600 Y-5.27898
X5.79500 Y-5.27898
X5.79500 Y-5.28198
X5.79400 Y-5.28198
X5.79400 Y-5.28498
X5.79300 Y-5.28498
X5.79300 Y-5.28798
X5.79200 Y-5.28798
X5.79200 Y-5.29098
X5.79100 Y-5.29098
X5.79100 Y-5.29398
X5.79000 Y-5.29398
X5.79000 Y-5.29698
X5.78900 Y-5.29698
X5.78900 Y-5.29998
X5.78800 Y-5.29998
X5.78800 Y-5.30198
X5.78700 Y-5.30198
X5.78700 Y-5.30298
X5.78600 Y-5.30298
X5.78600 Y-5.30498
X5.78500 Y-5.30498
X5.78500 Y-5.30598
X5.77800 Y-5.30598
X5.77800 Y-5.30498
X5.77700 Y-5.30498
X5.77700 Y-5.30398
X5.77600 Y-5.30398
X5.77600 Y-5.30298
X5.77500 Y-5.30298
X5.77500 Y-5.29998
X5.77400 Y-5.29998
X5.77400 Y-5.29698
X5.77300 Y-5.29698
X5.77300 Y-5.29398
X5.77200 Y-5.29398
X5.77200 Y-5.29098
X5.77100 Y-5.29098
X5.77100 Y-5.28798
X5.77000 Y-5.28798
X5.77000 Y-5.28498
X5.76900 Y-5.28498
X5.76900 Y-5.28198
X5.76800 Y-5.28198
X5.76800 Y-5.27898
X5.76700 Y-5.27898
X5.76700 Y-5.27598
X5.76600 Y-5.27598
X5.76600 Y-5.27298
X5.76500 Y-5.27298
X5.76500 Y-5.26998
X5.76400 Y-5.26998
X5.76400 Y-5.26698
X5.76300 Y-5.26698
X5.76300 Y-5.26398
X5.76200 Y-5.26398
X5.76200 Y-5.26098
X5.76100 Y-5.26098
X5.76100 Y-5.25798
X5.76000 Y-5.25798
X5.76000 Y-5.25498
X5.75900 Y-5.25498
X5.75900 Y-5.25198
X5.75800 Y-5.25198
X5.75800 Y-5.24898
X5.75700 Y-5.24898
X5.75700 Y-5.24598
X5.75600 Y-5.24598
X5.75600 Y-5.24198
X5.75500 Y-5.24198
X5.75500 Y-5.23998
X5.75600 Y-5.23998
X5.75600 Y-5.23898
X5.75700 Y-5.23898
X5.75700 Y-5.23698
X5.75800 Y-5.23698
X5.75800 Y-5.23498
X5.76500 Y-5.23498
X5.76500 Y-5.23598
G04 P0 ( dwell for no time -- G64 should not smooth over this point )
G00 Z0.19685 ( retract )

G00 X5.30000 Y-5.24498 ( rapid move to begin. )
G01 Z-0.00591 F39.37008 ( plunge. )
G04 P0 ( dwell for no time -- G64 should not smooth over this point )
X5.30000 Y-5.24498
X5.30000 Y-5.24598
X5.30100 Y-5.24598
X5.30100 Y-5.24798
X5.30200 Y-5.24798
X5.30200 Y-5.25398
X5.30100 Y-5.25398
X5.30100 Y-5.25698
X5.30000 Y-5.25698
X5.30000 Y-5.25998
X5.29900 Y-5.25998
X5.29900 Y-5.26298
X5.29800 Y-5.26298
X5.29800 Y-5.26598
X5.29700 Y-5.26598
X5.29700 Y-5.26898
X5.29600 Y-5.26898
X5.29600 Y-5.27198
X5.29500 Y-5.27198
X5.29500 Y-5.27498
X5.29400 Y-5.27498
X5.29400 Y-5.27798
X5.29300 Y-5.27798
X5.29300 Y-5.28098
X5.29200 Y-5.28098
X5.29200 Y-5.28398
X5.29100 Y-5.28398
X5.29100 Y-5.28498
X5.30400 Y-5.28498
X5.30400 Y-5.26998
X5.30500 Y-5.26998
X5.30500 Y-5.26798
X5.30600 Y-5.26798
X5.30600 Y-5.26698
X5.30700 Y-5.26698
X5.30700 Y-5.26598
X5.31400 Y-5.26598
X5.31400 Y-5.26698
X5.31500 Y-5.26698
X5.31500 Y-5.26898
X5.31600 Y-5.26898
X5.31600 Y-5.27098
X5.31700 Y-5.27098
X5.31700 Y-5.28498
X5.32100 Y-5.28498
X5.32100 Y-5.28598
X5.32300 Y-5.28598
X5.32300 Y-5.28798
X5.32400 Y-5.28798
X5.32400 Y-5.28998
X5.32500 Y-5.28998
X5.32500 Y-5.29298
X5.32400 Y-5.29298
X5.32400 Y-5.29498
X5.32300 Y-5.29498
X5.32300 Y-5.29698
X5.32000 Y-5.29698
X5.32000 Y-5.29798
X5.31700 Y-5.29798
X5.31700 Y-5.31198
X5.31600 Y-5.31198
X5.31600 Y-5.31398
X5.31500 Y-5.31398
X5.31500 Y-5.31498
X5.31400 Y-5.31498
X5.31400 Y-5.31698
X5.30700 Y-5.31698
X5.30700 Y-5.31598
X5.30600 Y-5.31598
X5.30600 Y-5.31398
X5.30500 Y-5.31398
X5.30500 Y-5.31298
X5.30400 Y-5.31298
X5.30400 Y-5.29798
X5.28100 Y-5.29798
X5.28100 Y-5.29698
X5.27800 Y-5.29698
X5.27800 Y-5.29498
X5.27700 Y-5.29498
X5.27700 Y-5.29298
X5.27600 Y-5.29298
X5.27600 Y-5.28798
X5.27700 Y-5.28798
X5.27700 Y-5.28498
X5.27800 Y-5.28498
X5.27800 Y-5.28198
X5.27900 Y-5.28198
X5.27900 Y-5.27898
X5.28000 Y-5.27898
X5.28000 Y-5.27598
X5.28100 Y-5.27598
X5.28100 Y-5.27298
X5.28200 Y-5.27298
X5.28200 Y-5.26998
X5.28300 Y-5.26998
X5.28300 Y-5.26698
X5.28400 Y-5.26698
X5.28400 Y-5.26398
X5.28500 Y-5.26398
X5.28500 Y-5.26098
X5.28600 Y-5.26098
X5.28600 Y-5.25798
X5.28700 Y-5.25798
X5.28700 Y-5.25498
X5.28800 Y-5.25498
X5.28800 Y-5.25198
X5.28900 Y-5.25198
X5.28900 Y-5.24898
X5.29000 Y-5.24898
X5.29000 Y-5.24698
X5.29100 Y-5.24698
X5.29100 Y-5.24598
X5.29200 Y-5.24598
X5.29200 Y-5.24398
X5.30000 Y-5.24398
X5.30000 Y-5.24498
G04 P0 ( dwell for no time -- G64 should not smooth over this point )
G00 Z0.19685 ( retract )

G00 X5.16800 Y-5.24698 ( rapid move to begin. )
G01 Z-0.00591 F39.37008 ( plunge. )
G04 P0 ( dwell for no time -- G64 should not smooth over this point )
X5.16800 Y-5.24698
X5.16800 Y-5.24798
X5.16900 Y-5.24798
X5.16900 Y-5.24998
X5.17000 Y-5.24998
X5.17000 Y-5.25098
X5.17100 Y-5.25098
X5.17100 Y-5.25298
X5.17000 Y-5.25298
X5.17000 Y-5.25498
X5.16900 Y-5.25498
X5.16900 Y-5.25698
X5.16800 Y-5.25698
X5.16800 Y-5.25798
X5.16700 Y-5.25798
X5.16700 Y-5.25898
X5.16600 Y-5.25898
X5.16600 Y-5.25998
X5.16500 Y-5.25998
X5.16500 Y-5.26198
X5.16400 Y-5.26198
X5.16400 Y-5.26298
X5.16300 Y-5.26298
X5.16300 Y-5.26398
X5.16200 Y-5.26398
X5.16200 Y-5.26498
X5.16100 Y-5.26498
X5.16100 Y-5.26598
X5.16000 Y-5.26598
X5.16000 Y-5.26698
X5.15900 Y-5.26698
X5.15900 Y-5.26798
X5.15800 Y-5.26798
X5.15800 Y-5.26998
X5.16000 Y-5.26998
X5.16000 Y-5.27098
X5.16200 Y-5.27098
X5.16200 Y-5.27298
X5.16400 Y-5.27298
X5.16400 Y-5.27398
X5.16500 Y-5.27398
X5.16500 Y-5.27498
X5.16600 Y-5.27498
X5.16600 Y-5.27598
X5.16700 Y-5.27598
X5.16700 Y-5.27798
X5.16800 Y-5.27798
X5.16800 Y-5.27998
X5.16900 Y-5.27998
X5.16900 Y-5.28198
X5.17000 Y-5.28198
X5.17000 Y-5.28498
X5.17100 Y-5.28498
X5.17100 Y-5.29998
X5.17000 Y-5.29998
X5.17000 Y-5.30398
X5.16900 Y-5.30398
X5.16900 Y-5.30598
X5.16800 Y-5.30598
X5.16800 Y-5.30798
X5.16700 Y-5.30798
X5.16700 Y-5.30898
X5.16600 Y-5.30898
X5.16600 Y-5.31098
X5.16500 Y-5.31098
X5.16500 Y-5.31198
X5.16400 Y-5.31198
X5.16400 Y-5.31298
X5.16200 Y-5.31298
X5.16200 Y-5.31398
X5.16100 Y-5.31398
X5.16100 Y-5.31498
X5.15900 Y-5.31498
X5.15900 Y-5.31598
X5.15700 Y-5.31598
X5.15700 Y-5.31698
X5.15300 Y-5.31698
X5.15300 Y-5.31798
X5.13600 Y-5.31798
X5.13600 Y-5.31698
X5.13200 Y-5.31698
X5.13200 Y-5.31598
X5.13000 Y-5.31598
X5.13000 Y-5.31498
X5.12800 Y-5.31498
X5.12800 Y-5.31398
X5.12700 Y-5.31398
X5.12700 Y-5.31298
X5.12500 Y-5.31298
X5.12500 Y-5.31198
X5.12400 Y-5.31198
X5.12400 Y-5.31098
X5.12300 Y-5.31098
X5.12300 Y-5.30798
X5.12200 Y-5.30798
X5.12200 Y-5.30698
X5.12100 Y-5.30698
X5.12100 Y-5.30398
X5.12200 Y-5.30398
X5.12200 Y-5.30198
X5.12300 Y-5.30198
X5.12300 Y-5.30098
X5.12400 Y-5.30098
X5.12400 Y-5.29998
X5.13000 Y-5.29998
X5.13000 Y-5.30098
X5.13300 Y-5.30098
X5.13300 Y-5.30198
X5.13400 Y-5.30198
X5.13400 Y-5.30298
X5.13500 Y-5.30298
X5.13500 Y-5.30398
X5.13700 Y-5.30398
X5.13700 Y-5.30498
X5.15100 Y-5.30498
X5.15100 Y-5.30398
X5.15300 Y-5.30398
X5.15300 Y-5.30298
X5.15500 Y-5.30298
X5.15500 Y-5.30198
X5.15600 Y-5.30198
X5.15600 Y-5.29998
X5.15700 Y-5.29998
X5.15700 Y-5.29798
X5.15800 Y-5.29798
X5.15800 Y-5.28698
X5.15700 Y-5.28698
X5.15700 Y-5.28498
X5.15600 Y-5.28498
X5.15600 Y-5.28398
X5.15500 Y-5.28398
X5.15500 Y-5.28298
X5.15400 Y-5.28298
X5.15400 Y-5.28198
X5.15200 Y-5.28198
X5.15200 Y-5.28098
X5.14200 Y-5.28098
X5.14200 Y-5.27998
X5.14100 Y-5.27998
X5.14100 Y-5.27898
X5.14000 Y-5.27898
X5.14000 Y-5.27798
X5.13900 Y-5.27798
X5.13900 Y-5.27598
X5.13800 Y-5.27598
X5.13800 Y-5.27298
X5.13900 Y-5.27298
X5.13900 Y-5.26998
X5.14000 Y-5.26998
X5.14000 Y-5.26898
X5.14100 Y-5.26898
X5.14100 Y-5.26798
X5.14200 Y-5.26798
X5.14200 Y-5.26698
X5.14300 Y-5.26698
X5.14300 Y-5.26498
X5.14400 Y-5.26498
X5.14400 Y-5.26398
X5.14500 Y-5.26398
X5.14500 Y-5.26298
X5.14600 Y-5.26298
X5.14600 Y-5.26198
X5.14700 Y-5.26198
X5.14700 Y-5.26098
X5.14800 Y-5.26098
X5.14800 Y-5.25998
X5.14900 Y-5.25998
X5.14900 Y-5.25898
X5.15000 Y-5.25898
X5.15000 Y-5.25798
X5.12400 Y-5.25798
X5.12400 Y-5.25698
X5.12300 Y-5.25698
X5.12300 Y-5.25498
X5.12200 Y-5.25498
X5.12200 Y-5.25298
X5.12100 Y-5.25298
X5.12100 Y-5.25098
X5.12200 Y-5.25098
X5.12200 Y-5.24898
X5.12300 Y-5.24898
X5.12300 Y-5.24698
X5.12400 Y-5.24698
X5.12400 Y-5.24598
X5.16800 Y-5.24598
X5.16800 Y-5.24698
G04 P0 ( dwell for no time -- G64 should not smooth over this point )
G00 Z0.19685 ( retract )

G00 X5.18500 Y-5.24698 ( rapid move to begin. )
G01 Z-0.00591 F39.37008 ( plunge. )
G04 P0 ( dwell for no time -- G64 should not smooth over this point )
X5.18500 Y-5.24698
X5.18500 Y-5.24798
X5.18600 Y-5.24798
X5.18600 Y-5.24898
X5.18700 Y-5.24898
X5.18700 Y-5.25098
X5.18800 Y-5.25098
X5.18800 Y-5.25398
X5.18900 Y-5.25398
X5.18900 Y-5.25698
X5.19000 Y-5.25698
X5.19000 Y-5.25998
X5.19100 Y-5.25998
X5.19100 Y-5.26298
X5.19200 Y-5.26298
X5.19200 Y-5.26598
X5.19300 Y-5.26598
X5.19300 Y-5.26898
X5.19400 Y-5.26898
X5.19400 Y-5.27198
X5.19500 Y-5.27198
X5.19500 Y-5.27498
X5.19600 Y-5.27498
X5.19600 Y-5.27798
X5.19700 Y-5.27798
X5.19700 Y-5.28098
X5.19800 Y-5.28098
X5.19800 Y-5.28398
X5.19900 Y-5.28398
X5.19900 Y-5.28698
X5.20000 Y-5.28698
X5.20000 Y-5.28998
X5.20100 Y-5.28998
X5.20100 Y-5.28798
X5.20200 Y-5.28798
X5.20200 Y-5.28498
X5.20300 Y-5.28498
X5.20300 Y-5.28198
X5.20400 Y-5.28198
X5.20400 Y-5.27898
X5.20500 Y-5.27898
X5.20500 Y-5.27598
X5.20600 Y-5.27598
X5.20600 Y-5.27298
X5.20700 Y-5.27298
X5.20700 Y-5.26998
X5.20800 Y-5.26998
X5.20800 Y-5.26698
X5.20900 Y-5.26698
X5.20900 Y-5.26398
X5.21000 Y-5.26398
X5.21000 Y-5.26098
X5.21100 Y-5.26098
X5.21100 Y-5.25798
X5.21200 Y-5.25798
X5.21200 Y-5.25498
X5.21300 Y-5.25498
X5.21300 Y-5.25198
X5.21400 Y-5.25198
X5.21400 Y-5.24998
X5.21500 Y-5.24998
X5.21500 Y-5.24898
X5.21600 Y-5.24898
X5.21600 Y-5.24698
X5.21700 Y-5.24698
X5.21700 Y-5.24598
X5.22400 Y-5.24598
X5.22400 Y-5.24798
X5.22500 Y-5.24798
X5.22500 Y-5.25098
X5.22600 Y-5.25098
X5.22600 Y-5.25698
X5.22500 Y-5.25698
X5.22500 Y-5.25998
X5.22400 Y-5.25998
X5.22400 Y-5.26298
X5.22300 Y-5.26298
X5.22300 Y-5.26598
X5.22200 Y-5.26598
X5.22200 Y-5.26898
X5.22100 Y-5.26898
X5.22100 Y-5.27198
X5.22000 Y-5.27198
X5.22000 Y-5.27498
X5.21900 Y-5.27498
X5.21900 Y-5.27798
X5.21800 Y-5.27798
X5.21800 Y-5.28098
X5.21700 Y-5.28098
X5.21700 Y-5.28398
X5.21600 Y-5.28398
X5.21600 Y-5.28698
X5.21500 Y-5.28698
X5.21500 Y-5.28998
X5.21400 Y-5.28998
X5.21400 Y-5.29298
X5.21300 Y-5.29298
X5.21300 Y-5.29598
X5.21200 Y-5.29598
X5.21200 Y-5.29898
X5.21100 Y-5.29898
X5.21100 Y-5.30198
X5.21000 Y-5.30198
X5.21000 Y-5.30498
X5.20900 Y-5.30498
X5.20900 Y-5.30798
X5.20800 Y-5.30798
X5.20800 Y-5.31098
X5.20700 Y-5.31098
X5.20700 Y-5.31298
X5.20600 Y-5.31298
X5.20600 Y-5.31398
X5.20500 Y-5.31398
X5.20500 Y-5.31598
X5.20400 Y-5.31598
X5.20400 Y-5.31698
X5.19700 Y-5.31698
X5.19700 Y-5.31598
X5.19600 Y-5.31598
X5.19600 Y-5.31498
X5.19500 Y-5.31498
X5.19500 Y-5.31298
X5.19400 Y-5.31298
X5.19400 Y-5.30998
X5.19300 Y-5.30998
X5.19300 Y-5.30698
X5.19200 Y-5.30698
X5.19200 Y-5.30398
X5.19100 Y-5.30398
X5.19100 Y-5.30098
X5.19000 Y-5.30098
X5.19000 Y-5.29798
X5.18900 Y-5.29798
X5.18900 Y-5.29498
X5.18800 Y-5.29498
X5.18800 Y-5.29198
X5.18700 Y-5.29198
X5.18700 Y-5.28898
X5.18600 Y-5.28898
X5.18600 Y-5.28598
X5.18500 Y-5.28598
X5.18500 Y-5.28298
X5.18400 Y-5.28298
X5.18400 Y-5.27998
X5.18300 Y-5.27998
X5.18300 Y-5.27698
X5.18200 Y-5.27698
X5.18200 Y-5.27398
X5.18100 Y-5.27398
X5.18100 Y-5.27098
X5.18000 Y-5.27098
X5.18000 Y-5.26798
X5.17900 Y-5.26798
X5.17900 Y-5.26498
X5.17800 Y-5.26498
X5.17800 Y-5.26198
X5.17700 Y-5.26198
X5.17700 Y-5.25898
X5.17600 Y-5.25898
X5.17600 Y-5.25598
X5.17500 Y-5.25598
X5.17500 Y-5.24998
X5.17600 Y-5.24998
X5.17600 Y-5.24798
X5.17700 Y-5.24798
X5.17700 Y-5.24598
X5.18500 Y-5.24598
X5.18500 Y-5.24698
G04 P0 ( dwell for no time -- G64 should not smooth over this point )
G00 Z0.19685 ( retract )

G00 X5.33600 Y-5.24698 ( rapid move to begin. )
G01 Z-0.00591 F39.37008 ( plunge. )
G04 P0 ( dwell for no time -- G64 should not smooth over this point )
X5.33600 Y-5.24698
X5.33700 Y-5.24698
X5.33700 Y-5.24798
X5.33800 Y-5.24798
X5.33800 Y-5.24898
X5.33900 Y-5.24898
X5.33900 Y-5.25098
X5.34000 Y-5.25098
X5.34000 Y-5.25398
X5.34100 Y-5.25398
X5.34100 Y-5.25698
X5.34200 Y-5.25698
X5.34200 Y-5.25998
X5.34300 Y-5.25998
X5.34300 Y-5.26298
X5.34400 Y-5.26298
X5.34400 Y-5.26598
X5.34500 Y-5.26598
X5.34500 Y-5.26898
X5.34600 Y-5.26898
X5.34600 Y-5.27198
X5.34700 Y-5.27198
X5.34700 Y-5.27498
X5.34800 Y-5.27498
X5.34800 Y-5.27798
X5.34900 Y-5.27798
X5.34900 Y-5.28098
X5.35000 Y-5.28098
X5.35000 Y-5.28398
X5.35100 Y-5.28398
X5.35100 Y-5.28698
X5.35200 Y-5.28698
X5.35200 Y-5.28998
X5.35300 Y-5.28998
X5.35300 Y-5.28698
X5.35400 Y-5.28698
X5.35400 Y-5.28398
X5.35500 Y-5.28398
X5.35500 Y-5.28098
X5.35600 Y-5.28098
X5.35600 Y-5.27798
X5.35700 Y-5.27798
X5.35700 Y-5.27498
X5.35800 Y-5.27498
X5.35800 Y-5.27198
X5.35900 Y-5.27198
X5.35900 Y-5.26898
X5.36000 Y-5.26898
X5.36000 Y-5.26598
X5.36100 Y-5.26598
X5.36100 Y-5.26298
X5.36200 Y-5.26298
X5.36200 Y-5.25998
X5.36300 Y-5.25998
X5.36300 Y-5.25698
X5.36400 Y-5.25698
X5.36400 Y-5.25398
X5.36500 Y-5.25398
X5.36500 Y-5.25098
X5.36600 Y-5.25098
X5.36600 Y-5.24998
X5.36700 Y-5.24998
X5.36700 Y-5.24898
X5.36800 Y-5.24898
X5.36800 Y-5.24698
X5.36900 Y-5.24698
X5.36900 Y-5.24598
X5.37600 Y-5.24598
X5.37600 Y-5.24898
X5.37700 Y-5.24898
X5.37700 Y-5.25098
X5.37800 Y-5.25098
X5.37800 Y-5.25698
X5.37700 Y-5.25698
X5.37700 Y-5.25998
X5.37600 Y-5.25998
X5.37600 Y-5.26298
X5.37500 Y-5.26298
X5.37500 Y-5.26598
X5.37400 Y-5.26598
X5.37400 Y-5.26898
X5.37300 Y-5.26898
X5.37300 Y-5.27198
X5.37200 Y-5.27198
X5.37200 Y-5.27498
X5.37100 Y-5.27498
X5.37100 Y-5.27798
X5.37000 Y-5.27798
X5.37000 Y-5.28098
X5.36900 Y-5.28098
X5.36900 Y-5.28398
X5.36800 Y-5.28398
X5.36800 Y-5.28698
X5.36700 Y-5.28698
X5.36700 Y-5.28998
X5.36600 Y-5.28998
X5.36600 Y-5.29298
X5.36500 Y-5.29298
X5.36500 Y-5.29598
X5.36400 Y-5.29598
X5.36400 Y-5.29898
X5.36300 Y-5.29898
X5.36300 Y-5.30198
X5.36200 Y-5.30198
X5.36200 Y-5.30498
X5.36100 Y-5.30498
X5.36100 Y-5.30798
X5.36000 Y-5.30798
X5.36000 Y-5.31098
X5.35900 Y-5.31098
X5.35900 Y-5.31298
X5.35800 Y-5.31298
X5.35800 Y-5.31398
X5.35700 Y-5.31398
X5.35700 Y-5.31598
X5.35600 Y-5.31598
X5.35600 Y-5.31698
X5.34900 Y-5.31698
X5.34900 Y-5.31598
X5.34800 Y-5.31598
X5.34800 Y-5.31498
X5.34700 Y-5.31498
X5.34700 Y-5.31398
X5.34600 Y-5.31398
X5.34600 Y-5.31098
X5.34500 Y-5.31098
X5.34500 Y-5.30798
X5.34400 Y-5.30798
X5.34400 Y-5.30498
X5.34300 Y-5.30498
X5.34300 Y-5.30198
X5.34200 Y-5.30198
X5.34200 Y-5.29898
X5.34100 Y-5.29898
X5.34100 Y-5.29598
X5.34000 Y-5.29598
X5.34000 Y-5.29298
X5.33900 Y-5.29298
X5.33900 Y-5.28998
X5.33800 Y-5.28998
X5.33800 Y-5.28698
X5.33700 Y-5.28698
X5.33700 Y-5.28398
X5.33600 Y-5.28398
X5.33600 Y-5.28098
X5.33500 Y-5.28098
X5.33500 Y-5.27798
X5.33400 Y-5.27798
X5.33400 Y-5.27498
X5.33300 Y-5.27498
X5.33300 Y-5.27198
X5.33200 Y-5.27198
X5.33200 Y-5.26898
X5.33100 Y-5.26898
X5.33100 Y-5.26598
X5.33000 Y-5.26598
X5.33000 Y-5.26298
X5.32900 Y-5.26298
X5.32900 Y-5.25998
X5.32800 Y-5.25998
X5.32800 Y-5.25698
X5.32700 Y-5.25698
X5.32700 Y-5.25298
X5.32600 Y-5.25298
X5.32600 Y-5.25098
X5.32700 Y-5.25098
X5.32700 Y-5.24998
X5.32800 Y-5.24998
X5.32800 Y-5.24798
X5.32900 Y-5.24798
X5.32900 Y-5.24598
X5.33600 Y-5.24598
X5.33600 Y-5.24698
G04 P0 ( dwell for no time -- G64 should not smooth over this point )
G00 Z0.19685 ( retract )

G00 X3.88400 Y-5.33598 ( rapid move to begin. )
G01 Z-0.00591 F39.37008 ( plunge. )
G04 P0 ( dwell for no time -- G64 should not smooth over this point )
X3.88400 Y-5.33598
X3.88600 Y-5.33598
X3.88600 Y-5.33698
X3.88800 Y-5.33698
X3.88800 Y-5.33798
X3.89000 Y-5.33798
X3.89000 Y-5.33898
X3.89200 Y-5.33898
X3.89200 Y-5.33998
X3.89400 Y-5.33998
X3.89400 Y-5.34098
X3.89500 Y-5.34098
X3.89500 Y-5.34198
X3.89600 Y-5.34198
X3.89600 Y-5.34298
X3.89700 Y-5.34298
X3.89700 Y-5.34498
X3.89800 Y-5.34498
X3.89800 Y-5.34598
X3.89900 Y-5.34598
X3.89900 Y-5.34698
X3.90000 Y-5.34698
X3.90000 Y-5.34798
X3.90100 Y-5.34798
X3.90100 Y-5.34998
X3.90200 Y-5.34998
X3.90200 Y-5.35098
X3.90300 Y-5.35098
X3.90300 Y-5.35498
X3.90400 Y-5.35498
X3.90400 Y-5.35998
X3.90500 Y-5.35998
X3.90500 Y-5.36798
X3.90400 Y-5.36798
X3.90400 Y-5.37298
X3.90300 Y-5.37298
X3.90300 Y-5.37698
X3.90200 Y-5.37698
X3.90200 Y-5.37898
X3.90100 Y-5.37898
X3.90100 Y-5.37998
X3.90000 Y-5.37998
X3.90000 Y-5.38098
X3.89900 Y-5.38098
X3.89900 Y-5.38298
X3.89800 Y-5.38298
X3.89800 Y-5.38398
X3.89700 Y-5.38398
X3.89700 Y-5.38598
X3.89600 Y-5.38598
X3.89600 Y-5.38698
X3.89500 Y-5.38698
X3.89500 Y-5.38798
X3.89400 Y-5.38798
X3.89400 Y-5.38898
X3.89300 Y-5.38898
X3.89300 Y-5.38998
X3.89200 Y-5.38998
X3.89200 Y-5.39098
X3.89100 Y-5.39098
X3.89100 Y-5.39198
X3.89000 Y-5.39198
X3.89000 Y-5.39298
X3.88900 Y-5.39298
X3.88900 Y-5.39398
X3.88800 Y-5.39398
X3.88800 Y-5.39498
X3.88700 Y-5.39498
X3.88700 Y-5.39598
X3.88600 Y-5.39598
X3.88600 Y-5.39698
X3.88500 Y-5.39698
X3.88500 Y-5.39798
X3.88400 Y-5.39798
X3.88400 Y-5.39898
X3.88200 Y-5.39898
X3.88200 Y-5.39998
X3.88100 Y-5.39998
X3.88100 Y-5.40098
X3.87900 Y-5.40098
X3.87900 Y-5.40198
X3.87700 Y-5.40198
X3.87700 Y-5.40298
X3.87500 Y-5.40298
X3.87500 Y-5.40398
X3.87300 Y-5.40398
X3.87300 Y-5.40498
X3.87100 Y-5.40498
X3.87100 Y-5.40598
X3.86600 Y-5.40598
X3.86600 Y-5.40698
X3.24100 Y-5.40698
X3.24100 Y-5.40598
X3.23600 Y-5.40598
X3.23600 Y-5.40498
X3.23400 Y-5.40498
X3.23400 Y-5.40398
X3.23200 Y-5.40398
X3.23200 Y-5.40298
X3.23000 Y-5.40298
X3.23000 Y-5.40198
X3.22800 Y-5.40198
X3.22800 Y-5.40098
X3.22600 Y-5.40098
X3.22600 Y-5.39998
X3.22500 Y-5.39998
X3.22500 Y-5.39898
X3.22400 Y-5.39898
X3.22400 Y-5.39798
X3.22300 Y-5.39798
X3.22300 Y-5.39698
X3.22200 Y-5.39698
X3.22200 Y-5.39498
X3.22100 Y-5.39498
X3.22100 Y-5.39398
X3.22000 Y-5.39398
X3.22000 Y-5.39298
X3.21900 Y-5.39298
X3.21900 Y-5.39198
X3.21800 Y-5.39198
X3.21800 Y-5.38998
X3.21700 Y-5.38998
X3.21700 Y-5.38698
X3.21600 Y-5.38698
X3.21600 Y-5.38298
X3.21500 Y-5.38298
X3.21500 Y-5.37798
X3.21400 Y-5.37798
X3.21400 Y-5.37498
X3.21500 Y-5.37498
X3.21500 Y-5.37098
X3.21600 Y-5.37098
X3.21600 Y-5.36698
X3.21700 Y-5.36698
X3.21700 Y-5.36298
X3.21800 Y-5.36298
X3.21800 Y-5.36198
X3.21900 Y-5.36198
X3.21900 Y-5.36098
X3.22000 Y-5.36098
X3.22000 Y-5.35898
X3.22100 Y-5.35898
X3.22100 Y-5.35798
X3.22200 Y-5.35798
X3.22200 Y-5.35698
X3.22300 Y-5.35698
X3.22300 Y-5.35598
X3.22400 Y-5.35598
X3.22400 Y-5.35398
X3.22500 Y-5.35398
X3.22500 Y-5.35298
X3.22700 Y-5.35298
X3.22700 Y-5.35198
X3.22900 Y-5.35198
X3.22900 Y-5.35098
X3.23100 Y-5.35098
X3.23100 Y-5.34998
X3.23300 Y-5.34998
X3.23300 Y-5.34898
X3.23500 Y-5.34898
X3.23500 Y-5.34798
X3.23700 Y-5.34798
X3.23700 Y-5.34698
X3.85000 Y-5.34698
X3.85000 Y-5.34598
X3.85100 Y-5.34598
X3.85100 Y-5.34498
X3.85200 Y-5.34498
X3.85200 Y-5.34398
X3.85300 Y-5.34398
X3.85300 Y-5.34298
X3.85400 Y-5.34298
X3.85400 Y-5.34198
X3.85500 Y-5.34198
X3.85500 Y-5.34098
X3.85600 Y-5.34098
X3.85600 Y-5.33998
X3.85800 Y-5.33998
X3.85800 Y-5.33898
X3.86000 Y-5.33898
X3.86000 Y-5.33798
X3.86200 Y-5.33798
X3.86200 Y-5.33698
X3.86500 Y-5.33698
X3.86500 Y-5.33598
X3.86700 Y-5.33598
X3.86700 Y-5.33498
X3.88400 Y-5.33498
X3.88400 Y-5.33598
G04 P0 ( dwell for no time -- G64 should not smooth over this point )
G00 Z0.19685 ( retract )

G00 X3.43000 Y-5.43998 ( rapid move to begin. )
G01 Z-0.00591 F39.37008 ( plunge. )
G04 P0 ( dwell for no time -- G64 should not smooth over this point )
X3.43000 Y-5.43998
X3.43000 Y-5.44098
X3.43100 Y-5.44098
X3.43100 Y-5.44298
X3.43200 Y-5.44298
X3.43200 Y-5.44898
X3.43100 Y-5.44898
X3.43100 Y-5.44998
X3.43000 Y-5.44998
X3.43000 Y-5.45198
X3.42900 Y-5.45198
X3.42900 Y-5.45298
X3.42800 Y-5.45298
X3.42800 Y-5.45498
X3.42700 Y-5.45498
X3.42700 Y-5.45598
X3.42600 Y-5.45598
X3.42600 Y-5.45798
X3.42500 Y-5.45798
X3.42500 Y-5.45898
X3.42400 Y-5.45898
X3.42400 Y-5.46098
X3.42300 Y-5.46098
X3.42300 Y-5.46198
X3.42200 Y-5.46198
X3.42200 Y-5.46398
X3.42100 Y-5.46398
X3.42100 Y-5.46498
X3.42000 Y-5.46498
X3.42000 Y-5.46698
X3.41900 Y-5.46698
X3.41900 Y-5.46798
X3.41800 Y-5.46798
X3.41800 Y-5.46998
X3.41700 Y-5.46998
X3.41700 Y-5.47098
X3.41600 Y-5.47098
X3.41600 Y-5.47298
X3.41500 Y-5.47298
X3.41500 Y-5.47398
X3.41400 Y-5.47398
X3.41400 Y-5.47598
X3.41300 Y-5.47598
X3.41300 Y-5.47698
X3.41200 Y-5.47698
X3.41200 Y-5.47898
X3.41100 Y-5.47898
X3.41100 Y-5.47998
X3.41000 Y-5.47998
X3.41000 Y-5.48198
X3.40900 Y-5.48198
X3.40900 Y-5.48298
X3.40800 Y-5.48298
X3.40800 Y-5.48498
X3.40700 Y-5.48498
X3.40700 Y-5.48598
X3.40600 Y-5.48598
X3.40600 Y-5.48798
X3.40500 Y-5.48798
X3.40500 Y-5.48898
X3.40400 Y-5.48898
X3.40400 Y-5.49098
X3.40300 Y-5.49098
X3.40300 Y-5.49198
X3.40200 Y-5.49198
X3.40200 Y-5.49398
X3.40100 Y-5.49398
X3.40100 Y-5.49498
X3.40000 Y-5.49498
X3.40000 Y-5.49698
X3.39900 Y-5.49698
X3.39900 Y-5.49798
X3.39800 Y-5.49798
X3.39800 Y-5.49998
X3.39700 Y-5.49998
X3.39700 Y-5.50098
X3.39600 Y-5.50098
X3.39600 Y-5.50298
X3.39500 Y-5.50298
X3.39500 Y-5.50398
X3.39400 Y-5.50398
X3.39400 Y-5.50598
X3.39300 Y-5.50598
X3.39300 Y-5.50698
X3.39200 Y-5.50698
X3.39200 Y-5.50898
X3.39100 Y-5.50898
X3.39100 Y-5.50998
X3.39000 Y-5.50998
X3.39000 Y-5.51198
X3.38900 Y-5.51198
X3.38900 Y-5.51298
X3.38800 Y-5.51298
X3.38800 Y-5.51498
X3.38700 Y-5.51498
X3.38700 Y-5.51598
X3.38600 Y-5.51598
X3.38600 Y-5.51798
X3.38500 Y-5.51798
X3.38500 Y-5.51898
X3.38400 Y-5.51898
X3.38400 Y-5.52098
X3.38300 Y-5.52098
X3.38300 Y-5.52198
X3.38200 Y-5.52198
X3.38200 Y-5.52398
X3.38100 Y-5.52398
X3.38100 Y-5.52498
X3.38000 Y-5.52498
X3.38000 Y-5.52598
X3.37200 Y-5.52598
X3.37200 Y-5.52498
X3.37100 Y-5.52498
X3.37100 Y-5.52398
X3.37000 Y-5.52398
X3.37000 Y-5.52198
X3.36900 Y-5.52198
X3.36900 Y-5.51898
X3.37000 Y-5.51898
X3.37000 Y-5.51598
X3.37100 Y-5.51598
X3.37100 Y-5.51498
X3.37200 Y-5.51498
X3.37200 Y-5.51298
X3.37300 Y-5.51298
X3.37300 Y-5.51198
X3.37400 Y-5.51198
X3.37400 Y-5.50998
X3.37500 Y-5.50998
X3.37500 Y-5.50898
X3.37600 Y-5.50898
X3.37600 Y-5.50698
X3.37700 Y-5.50698
X3.37700 Y-5.50598
X3.37800 Y-5.50598
X3.37800 Y-5.50398
X3.37900 Y-5.50398
X3.37900 Y-5.50298
X3.38000 Y-5.50298
X3.38000 Y-5.50098
X3.38100 Y-5.50098
X3.38100 Y-5.49998
X3.38200 Y-5.49998
X3.38200 Y-5.49798
X3.38300 Y-5.49798
X3.38300 Y-5.49698
X3.38400 Y-5.49698
X3.38400 Y-5.49498
X3.38500 Y-5.49498
X3.38500 Y-5.49398
X3.38600 Y-5.49398
X3.38600 Y-5.49198
X3.38700 Y-5.49198
X3.38700 Y-5.49098
X3.38800 Y-5.49098
X3.38800 Y-5.48898
X3.38900 Y-5.48898
X3.38900 Y-5.48798
X3.39000 Y-5.48798
X3.39000 Y-5.48598
X3.39100 Y-5.48598
X3.39100 Y-5.48498
X3.39200 Y-5.48498
X3.39200 Y-5.48298
X3.39300 Y-5.48298
X3.39300 Y-5.48198
X3.39400 Y-5.48198
X3.39400 Y-5.47998
X3.39500 Y-5.47998
X3.39500 Y-5.47898
X3.39600 Y-5.47898
X3.39600 Y-5.47698
X3.39700 Y-5.47698
X3.39700 Y-5.47598
X3.39800 Y-5.47598
X3.39800 Y-5.47398
X3.39900 Y-5.47398
X3.39900 Y-5.47298
X3.40000 Y-5.47298
X3.40000 Y-5.47098
X3.40100 Y-5.47098
X3.40100 Y-5.46998
X3.40200 Y-5.46998
X3.40200 Y-5.46798
X3.40300 Y-5.46798
X3.40300 Y-5.46698
X3.40400 Y-5.46698
X3.40400 Y-5.46498
X3.40500 Y-5.46498
X3.40500 Y-5.46398
X3.40600 Y-5.46398
X3.40600 Y-5.46198
X3.40700 Y-5.46198
X3.40700 Y-5.46098
X3.40800 Y-5.46098
X3.40800 Y-5.45898
X3.40900 Y-5.45898
X3.40900 Y-5.45798
X3.41000 Y-5.45798
X3.41000 Y-5.45598
X3.41100 Y-5.45598
X3.41100 Y-5.45498
X3.41200 Y-5.45498
X3.41200 Y-5.45298
X3.41300 Y-5.45298
X3.41300 Y-5.45198
X3.41400 Y-5.45198
X3.41400 Y-5.44998
X3.41500 Y-5.44998
X3.41500 Y-5.44898
X3.41600 Y-5.44898
X3.41600 Y-5.44698
X3.41700 Y-5.44698
X3.41700 Y-5.44598
X3.41800 Y-5.44598
X3.41800 Y-5.44398
X3.41900 Y-5.44398
X3.41900 Y-5.44298
X3.42000 Y-5.44298
X3.42000 Y-5.44098
X3.42100 Y-5.44098
X3.42100 Y-5.43998
X3.42200 Y-5.43998
X3.42200 Y-5.43898
X3.43000 Y-5.43898
X3.43000 Y-5.43998
G04 P0 ( dwell for no time -- G64 should not smooth over this point )
G00 Z0.19685 ( retract )

G00 X3.60400 Y-5.43998 ( rapid move to begin. )
G01 Z-0.00591 F39.37008 ( plunge. )
G04 P0 ( dwell for no time -- G64 should not smooth over this point )
X3.60400 Y-5.43998
X3.60500 Y-5.43998
X3.60500 Y-5.44198
X3.60600 Y-5.44198
X3.60600 Y-5.44398
X3.60700 Y-5.44398
X3.60700 Y-5.44698
X3.60600 Y-5.44698
X3.60600 Y-5.44898
X3.60500 Y-5.44898
X3.60500 Y-5.45098
X3.60400 Y-5.45098
X3.60400 Y-5.45198
X3.60300 Y-5.45198
X3.60300 Y-5.45398
X3.60200 Y-5.45398
X3.60200 Y-5.45498
X3.60100 Y-5.45498
X3.60100 Y-5.45698
X3.60000 Y-5.45698
X3.60000 Y-5.45798
X3.59900 Y-5.45798
X3.59900 Y-5.45998
X3.59800 Y-5.45998
X3.59800 Y-5.46098
X3.59700 Y-5.46098
X3.59700 Y-5.46298
X3.59600 Y-5.46298
X3.59600 Y-5.46398
X3.59500 Y-5.46398
X3.59500 Y-5.46598
X3.59400 Y-5.46598
X3.59400 Y-5.46698
X3.59300 Y-5.46698
X3.59300 Y-5.46898
X3.59200 Y-5.46898
X3.59200 Y-5.46998
X3.59100 Y-5.46998
X3.59100 Y-5.47198
X3.59000 Y-5.47198
X3.59000 Y-5.47298
X3.58900 Y-5.47298
X3.58900 Y-5.47498
X3.58800 Y-5.47498
X3.58800 Y-5.47598
X3.58700 Y-5.47598
X3.58700 Y-5.47798
X3.58600 Y-5.47798
X3.58600 Y-5.47898
X3.58500 Y-5.47898
X3.58500 Y-5.48098
X3.58400 Y-5.48098
X3.58400 Y-5.48198
X3.58300 Y-5.48198
X3.58300 Y-5.48398
X3.58200 Y-5.48398
X3.58200 Y-5.48498
X3.58100 Y-5.48498
X3.58100 Y-5.48698
X3.58000 Y-5.48698
X3.58000 Y-5.48798
X3.57900 Y-5.48798
X3.57900 Y-5.48998
X3.57800 Y-5.48998
X3.57800 Y-5.49098
X3.57700 Y-5.49098
X3.57700 Y-5.49298
X3.57600 Y-5.49298
X3.57600 Y-5.49398
X3.57500 Y-5.49398
X3.57500 Y-5.49598
X3.57400 Y-5.49598
X3.57400 Y-5.49698
X3.57300 Y-5.49698
X3.57300 Y-5.49898
X3.57200 Y-5.49898
X3.57200 Y-5.49998
X3.57100 Y-5.49998
X3.57100 Y-5.50198
X3.57000 Y-5.50198
X3.57000 Y-5.50298
X3.56900 Y-5.50298
X3.56900 Y-5.50498
X3.56800 Y-5.50498
X3.56800 Y-5.50598
X3.56700 Y-5.50598
X3.56700 Y-5.50798
X3.56600 Y-5.50798
X3.56600 Y-5.50898
X3.56500 Y-5.50898
X3.56500 Y-5.51098
X3.56400 Y-5.51098
X3.56400 Y-5.51198
X3.56300 Y-5.51198
X3.56300 Y-5.51398
X3.56200 Y-5.51398
X3.56200 Y-5.51498
X3.56100 Y-5.51498
X3.56100 Y-5.51698
X3.56000 Y-5.51698
X3.56000 Y-5.51798
X3.55900 Y-5.51798
X3.55900 Y-5.51998
X3.55800 Y-5.51998
X3.55800 Y-5.52098
X3.55700 Y-5.52098
X3.55700 Y-5.52298
X3.55600 Y-5.52298
X3.55600 Y-5.52398
X3.55500 Y-5.52398
X3.55500 Y-5.52498
X3.55400 Y-5.52498
X3.55400 Y-5.52598
X3.54600 Y-5.52598
X3.54600 Y-5.52498
X3.54500 Y-5.52498
X3.54500 Y-5.52298
X3.54400 Y-5.52298
X3.54400 Y-5.51698
X3.54500 Y-5.51698
X3.54500 Y-5.51498
X3.54600 Y-5.51498
X3.54600 Y-5.51398
X3.54700 Y-5.51398
X3.54700 Y-5.51198
X3.54800 Y-5.51198
X3.54800 Y-5.51098
X3.54900 Y-5.51098
X3.54900 Y-5.50898
X3.55000 Y-5.50898
X3.55000 Y-5.50798
X3.55100 Y-5.50798
X3.55100 Y-5.50598
X3.55200 Y-5.50598
X3.55200 Y-5.50498
X3.55300 Y-5.50498
X3.55300 Y-5.50298
X3.55400 Y-5.50298
X3.55400 Y-5.50198
X3.55500 Y-5.50198
X3.55500 Y-5.49998
X3.55600 Y-5.49998
X3.55600 Y-5.49898
X3.55700 Y-5.49898
X3.55700 Y-5.49698
X3.55800 Y-5.49698
X3.55800 Y-5.49598
X3.55900 Y-5.49598
X3.55900 Y-5.49398
X3.56000 Y-5.49398
X3.56000 Y-5.49298
X3.56100 Y-5.49298
X3.56100 Y-5.49098
X3.56200 Y-5.49098
X3.56200 Y-5.48998
X3.56300 Y-5.48998
X3.56300 Y-5.48798
X3.56400 Y-5.48798
X3.56400 Y-5.48698
X3.56500 Y-5.48698
X3.56500 Y-5.48498
X3.56600 Y-5.48498
X3.56600 Y-5.48398
X3.56700 Y-5.48398
X3.56700 Y-5.48198
X3.56800 Y-5.48198
X3.56800 Y-5.48098
X3.56900 Y-5.48098
X3.56900 Y-5.47898
X3.57000 Y-5.47898
X3.57000 Y-5.47798
X3.57100 Y-5.47798
X3.57100 Y-5.47598
X3.57200 Y-5.47598
X3.57200 Y-5.47498
X3.57300 Y-5.47498
X3.57300 Y-5.47298
X3.57400 Y-5.47298
X3.57400 Y-5.47198
X3.57500 Y-5.47198
X3.57500 Y-5.46998
X3.57600 Y-5.46998
X3.57600 Y-5.46898
X3.57700 Y-5.46898
X3.57700 Y-5.46698
X3.57800 Y-5.46698
X3.57800 Y-5.46598
X3.57900 Y-5.46598
X3.57900 Y-5.46398
X3.58000 Y-5.46398
X3.58000 Y-5.46298
X3.58100 Y-5.46298
X3.58100 Y-5.46098
X3.58200 Y-5.46098
X3.58200 Y-5.45998
X3.58300 Y-5.45998
X3.58300 Y-5.45798
X3.58400 Y-5.45798
X3.58400 Y-5.45698
X3.58500 Y-5.45698
X3.58500 Y-5.45498
X3.58600 Y-5.45498
X3.58600 Y-5.45398
X3.58700 Y-5.45398
X3.58700 Y-5.45198
X3.58800 Y-5.45198
X3.58800 Y-5.45098
X3.58900 Y-5.45098
X3.58900 Y-5.44898
X3.59000 Y-5.44898
X3.59000 Y-5.44798
X3.59100 Y-5.44798
X3.59100 Y-5.44598
X3.59200 Y-5.44598
X3.59200 Y-5.44498
X3.59300 Y-5.44498
X3.59300 Y-5.44298
X3.59400 Y-5.44298
X3.59400 Y-5.44198
X3.59500 Y-5.44198
X3.59500 Y-5.44098
X3.59600 Y-5.44098
X3.59600 Y-5.43998
X3.59700 Y-5.43998
X3.59700 Y-5.43898
X3.60400 Y-5.43898
X3.60400 Y-5.43998
G04 P0 ( dwell for no time -- G64 should not smooth over this point )
G00 Z0.19685 ( retract )

G00 X3.29000 Y-5.44198 ( rapid move to begin. )
G01 Z-0.00591 F39.37008 ( plunge. )
G04 P0 ( dwell for no time -- G64 should not smooth over this point )
X3.29000 Y-5.44198
X3.29300 Y-5.44198
X3.29300 Y-5.44298
X3.29500 Y-5.44298
X3.29500 Y-5.44398
X3.29700 Y-5.44398
X3.29700 Y-5.44498
X3.29800 Y-5.44498
X3.29800 Y-5.44598
X3.29900 Y-5.44598
X3.29900 Y-5.44698
X3.30000 Y-5.44698
X3.30000 Y-5.44798
X3.30100 Y-5.44798
X3.30100 Y-5.44898
X3.30200 Y-5.44898
X3.30200 Y-5.44998
X3.30300 Y-5.44998
X3.30300 Y-5.45198
X3.30400 Y-5.45198
X3.30400 Y-5.45398
X3.30500 Y-5.45398
X3.30500 Y-5.45598
X3.30600 Y-5.45598
X3.30600 Y-5.45998
X3.30700 Y-5.45998
X3.30700 Y-5.46398
X3.30800 Y-5.46398
X3.30800 Y-5.46798
X3.30900 Y-5.46798
X3.30900 Y-5.48498
X3.30900 Y-5.48498
X3.30900 Y-5.48698
X3.30800 Y-5.48698
X3.30800 Y-5.49098
X3.30700 Y-5.49098
X3.30700 Y-5.49498
X3.30600 Y-5.49498
X3.30600 Y-5.49698
X3.30500 Y-5.49698
X3.30500 Y-5.49998
X3.30400 Y-5.49998
X3.30400 Y-5.50198
X3.30300 Y-5.50198
X3.30300 Y-5.50398
X3.30200 Y-5.50398
X3.30200 Y-5.50598
X3.30100 Y-5.50598
X3.30100 Y-5.50698
X3.30000 Y-5.50698
X3.30000 Y-5.50798
X3.29900 Y-5.50798
X3.29900 Y-5.50898
X3.29700 Y-5.50898
X3.29700 Y-5.50998
X3.29500 Y-5.50998
X3.29500 Y-5.51098
X3.29300 Y-5.51098
X3.29300 Y-5.51198
X3.29100 Y-5.51198
X3.29100 Y-5.51298
X3.28000 Y-5.51298
X3.28000 Y-5.51198
X3.27800 Y-5.51198
X3.27800 Y-5.51098
X3.27600 Y-5.51098
X3.27600 Y-5.50998
X3.27400 Y-5.50998
X3.27400 Y-5.50898
X3.27200 Y-5.50898
X3.27200 Y-5.50798
X3.27100 Y-5.50798
X3.27100 Y-5.50698
X3.27000 Y-5.50698
X3.27000 Y-5.50498
X3.26900 Y-5.50498
X3.26900 Y-5.50398
X3.26800 Y-5.50398
X3.26800 Y-5.50198
X3.26700 Y-5.50198
X3.26700 Y-5.49998
X3.26600 Y-5.49998
X3.26600 Y-5.49798
X3.26500 Y-5.49798
X3.26500 Y-5.49398
X3.26400 Y-5.49398
X3.26400 Y-5.48998
X3.26300 Y-5.48998
X3.26300 Y-5.48598
X3.26200 Y-5.48598
X3.26200 Y-5.46898
X3.26300 Y-5.46898
X3.26300 Y-5.46398
X3.26400 Y-5.46398
X3.26400 Y-5.45998
X3.26500 Y-5.45998
X3.26500 Y-5.45698
X3.26600 Y-5.45698
X3.26600 Y-5.45398
X3.26700 Y-5.45398
X3.26700 Y-5.45198
X3.26800 Y-5.45198
X3.26800 Y-5.44998
X3.26900 Y-5.44998
X3.26900 Y-5.44898
X3.27000 Y-5.44898
X3.27000 Y-5.44798
X3.27100 Y-5.44798
X3.27100 Y-5.44698
X3.27200 Y-5.44698
X3.27200 Y-5.44598
X3.27300 Y-5.44598
X3.27300 Y-5.44498
X3.27400 Y-5.44498
X3.27400 Y-5.44398
X3.27600 Y-5.44398
X3.27600 Y-5.44298
X3.27800 Y-5.44298
X3.27800 Y-5.44198
X3.28100 Y-5.44198
X3.28100 Y-5.44098
X3.29000 Y-5.44098
X3.29000 Y-5.44198
G04 P0 ( dwell for no time -- G64 should not smooth over this point )
G00 Z0.19685 ( retract )

G00 X3.34900 Y-5.44198 ( rapid move to begin. )
G01 Z-0.00591 F39.37008 ( plunge. )
G04 P0 ( dwell for no time -- G64 should not smooth over this point )
X3.34900 Y-5.44198
X3.35200 Y-5.44198
X3.35200 Y-5.44298
X3.35400 Y-5.44298
X3.35400 Y-5.44398
X3.35600 Y-5.44398
X3.35600 Y-5.44498
X3.35700 Y-5.44498
X3.35700 Y-5.44598
X3.35800 Y-5.44598
X3.35800 Y-5.44698
X3.35900 Y-5.44698
X3.35900 Y-5.44798
X3.36000 Y-5.44798
X3.36000 Y-5.44898
X3.36100 Y-5.44898
X3.36100 Y-5.44998
X3.36200 Y-5.44998
X3.36200 Y-5.45198
X3.36300 Y-5.45198
X3.36300 Y-5.45398
X3.36400 Y-5.45398
X3.36400 Y-5.45598
X3.36500 Y-5.45598
X3.36500 Y-5.48498
X3.36400 Y-5.48498
X3.36400 Y-5.48898
X3.36300 Y-5.48898
X3.36300 Y-5.49298
X3.36200 Y-5.49298
X3.36200 Y-5.49498
X3.36100 Y-5.49498
X3.36100 Y-5.49698
X3.36000 Y-5.49698
X3.36000 Y-5.49898
X3.35900 Y-5.49898
X3.35900 Y-5.49998
X3.35800 Y-5.49998
X3.35800 Y-5.50198
X3.35700 Y-5.50198
X3.35700 Y-5.50298
X3.35600 Y-5.50298
X3.35600 Y-5.50498
X3.35500 Y-5.50498
X3.35500 Y-5.50598
X3.35400 Y-5.50598
X3.35400 Y-5.50698
X3.35300 Y-5.50698
X3.35300 Y-5.50798
X3.35200 Y-5.50798
X3.35200 Y-5.50898
X3.35100 Y-5.50898
X3.35100 Y-5.50998
X3.34900 Y-5.50998
X3.34900 Y-5.51098
X3.34700 Y-5.51098
X3.34700 Y-5.51198
X3.34500 Y-5.51198
X3.34500 Y-5.51298
X3.32800 Y-5.51298
X3.32800 Y-5.51198
X3.32700 Y-5.51198
X3.32700 Y-5.51098
X3.32600 Y-5.51098
X3.32600 Y-5.50998
X3.32500 Y-5.50998
X3.32500 Y-5.50798
X3.32400 Y-5.50798
X3.32400 Y-5.50498
X3.32500 Y-5.50498
X3.32500 Y-5.50398
X3.32600 Y-5.50398
X3.32600 Y-5.50198
X3.32700 Y-5.50198
X3.32700 Y-5.50098
X3.32900 Y-5.50098
X3.32900 Y-5.49998
X3.34100 Y-5.49998
X3.34100 Y-5.49898
X3.34300 Y-5.49898
X3.34300 Y-5.49798
X3.34400 Y-5.49798
X3.34400 Y-5.49698
X3.34500 Y-5.49698
X3.34500 Y-5.49598
X3.34600 Y-5.49598
X3.34600 Y-5.49498
X3.34700 Y-5.49498
X3.34700 Y-5.49298
X3.34800 Y-5.49298
X3.34800 Y-5.49198
X3.34900 Y-5.49198
X3.34900 Y-5.48998
X3.34800 Y-5.48998
X3.34800 Y-5.49098
X3.33500 Y-5.49098
X3.33500 Y-5.48998
X3.33200 Y-5.48998
X3.33200 Y-5.48898
X3.33000 Y-5.48898
X3.33000 Y-5.48798
X3.32800 Y-5.48798
X3.32800 Y-5.48698
X3.32700 Y-5.48698
X3.32700 Y-5.48598
X3.32500 Y-5.48598
X3.32500 Y-5.48498
X3.32400 Y-5.48498
X3.32400 Y-5.48398
X3.32300 Y-5.48398
X3.32300 Y-5.48198
X3.32200 Y-5.48198
X3.32200 Y-5.48098
X3.32100 Y-5.48098
X3.32100 Y-5.47898
X3.32000 Y-5.47898
X3.32000 Y-5.47698
X3.31900 Y-5.47698
X3.31900 Y-5.45498
X3.32000 Y-5.45498
X3.32000 Y-5.45298
X3.32100 Y-5.45298
X3.32100 Y-5.45098
X3.32200 Y-5.45098
X3.32200 Y-5.44998
X3.32300 Y-5.44998
X3.32300 Y-5.44798
X3.32400 Y-5.44798
X3.32400 Y-5.44698
X3.32500 Y-5.44698
X3.32500 Y-5.44598
X3.32600 Y-5.44598
X3.32600 Y-5.44498
X3.32800 Y-5.44498
X3.32800 Y-5.44398
X3.33000 Y-5.44398
X3.33000 Y-5.44298
X3.33200 Y-5.44298
X3.33200 Y-5.44198
X3.33500 Y-5.44198
X3.33500 Y-5.44098
X3.34900 Y-5.44098
X3.34900 Y-5.44198
G04 P0 ( dwell for no time -- G64 should not smooth over this point )
G00 Z0.19685 ( retract )

G00 X3.46400 Y-5.44198 ( rapid move to begin. )
G01 Z-0.00591 F39.37008 ( plunge. )
G04 P0 ( dwell for no time -- G64 should not smooth over this point )
X3.46400 Y-5.44198
X3.46700 Y-5.44198
X3.46700 Y-5.44298
X3.46900 Y-5.44298
X3.46900 Y-5.44398
X3.47100 Y-5.44398
X3.47100 Y-5.44498
X3.47200 Y-5.44498
X3.47200 Y-5.44598
X3.47400 Y-5.44598
X3.47400 Y-5.44698
X3.47500 Y-5.44698
X3.47500 Y-5.44798
X3.47600 Y-5.44798
X3.47600 Y-5.44998
X3.47700 Y-5.44998
X3.47700 Y-5.45098
X3.47800 Y-5.45098
X3.47800 Y-5.45298
X3.47900 Y-5.45298
X3.47900 Y-5.45498
X3.48000 Y-5.45498
X3.48000 Y-5.45798
X3.48100 Y-5.45798
X3.48100 Y-5.46198
X3.48200 Y-5.46198
X3.48200 Y-5.46598
X3.48300 Y-5.46598
X3.48300 Y-5.48798
X3.48200 Y-5.48798
X3.48200 Y-5.49198
X3.48100 Y-5.49198
X3.48100 Y-5.49598
X3.48000 Y-5.49598
X3.48000 Y-5.49698
X3.48000 Y-5.49698
X3.48000 Y-5.49898
X3.47900 Y-5.49898
X3.47900 Y-5.50098
X3.47800 Y-5.50098
X3.47800 Y-5.50298
X3.47700 Y-5.50298
X3.47700 Y-5.50398
X3.47600 Y-5.50398
X3.47600 Y-5.50598
X3.47500 Y-5.50598
X3.47500 Y-5.50698
X3.47400 Y-5.50698
X3.47400 Y-5.50798
X3.47300 Y-5.50798
X3.47300 Y-5.50898
X3.47200 Y-5.50898
X3.47200 Y-5.50998
X3.47000 Y-5.50998
X3.47000 Y-5.51098
X3.46800 Y-5.51098
X3.46800 Y-5.51198
X3.46500 Y-5.51198
X3.46500 Y-5.51298
X3.45400 Y-5.51298
X3.45400 Y-5.51198
X3.45200 Y-5.51198
X3.45200 Y-5.51098
X3.45000 Y-5.51098
X3.45000 Y-5.50998
X3.44800 Y-5.50998
X3.44800 Y-5.50898
X3.44700 Y-5.50898
X3.44700 Y-5.50798
X3.44600 Y-5.50798
X3.44600 Y-5.50698
X3.44500 Y-5.50698
X3.44500 Y-5.50598
X3.44400 Y-5.50598
X3.44400 Y-5.50498
X3.44300 Y-5.50498
X3.44300 Y-5.50298
X3.44200 Y-5.50298
X3.44200 Y-5.50098
X3.44100 Y-5.50098
X3.44100 Y-5.49898
X3.44000 Y-5.49898
X3.44000 Y-5.49698
X3.43900 Y-5.49698
X3.43900 Y-5.49298
X3.43800 Y-5.49298
X3.43800 Y-5.48898
X3.43700 Y-5.48898
X3.43700 Y-5.46498
X3.43800 Y-5.46498
X3.43800 Y-5.46098
X3.43900 Y-5.46098
X3.43900 Y-5.45698
X3.44000 Y-5.45698
X3.44000 Y-5.45498
X3.44100 Y-5.45498
X3.44100 Y-5.45298
X3.44200 Y-5.45298
X3.44200 Y-5.45098
X3.44300 Y-5.45098
X3.44300 Y-5.44998
X3.44400 Y-5.44998
X3.44400 Y-5.44798
X3.44500 Y-5.44798
X3.44500 Y-5.44698
X3.44600 Y-5.44698
X3.44600 Y-5.44598
X3.44700 Y-5.44598
X3.44700 Y-5.44498
X3.44800 Y-5.44498
X3.44800 Y-5.44398
X3.45100 Y-5.44398
X3.45100 Y-5.44298
X3.45300 Y-5.44298
X3.45300 Y-5.44198
X3.45500 Y-5.44198
X3.45500 Y-5.44098
X3.46400 Y-5.44098
X3.46400 Y-5.44198
G04 P0 ( dwell for no time -- G64 should not smooth over this point )
G00 Z0.19685 ( retract )

G00 X3.52300 Y-5.44198 ( rapid move to begin. )
G01 Z-0.00591 F39.37008 ( plunge. )
G04 P0 ( dwell for no time -- G64 should not smooth over this point )
X3.52300 Y-5.44198
X3.52600 Y-5.44198
X3.52600 Y-5.44298
X3.52800 Y-5.44298
X3.52800 Y-5.44398
X3.53000 Y-5.44398
X3.53000 Y-5.44498
X3.53100 Y-5.44498
X3.53100 Y-5.44598
X3.53300 Y-5.44598
X3.53300 Y-5.44698
X3.53400 Y-5.44698
X3.53400 Y-5.44798
X3.53500 Y-5.44798
X3.53500 Y-5.44998
X3.53600 Y-5.44998
X3.53600 Y-5.45098
X3.53700 Y-5.45098
X3.53700 Y-5.45298
X3.53800 Y-5.45298
X3.53800 Y-5.45498
X3.53900 Y-5.45498
X3.53900 Y-5.46498
X3.53800 Y-5.46498
X3.53800 Y-5.46698
X3.53700 Y-5.46698
X3.53700 Y-5.46898
X3.53600 Y-5.46898
X3.53600 Y-5.46998
X3.53500 Y-5.46998
X3.53500 Y-5.47198
X3.53400 Y-5.47198
X3.53400 Y-5.47298
X3.53500 Y-5.47298
X3.53500 Y-5.47498
X3.53600 Y-5.47498
X3.53600 Y-5.47598
X3.53700 Y-5.47598
X3.53700 Y-5.47798
X3.53800 Y-5.47798
X3.53800 Y-5.47998
X3.53900 Y-5.47998
X3.53900 Y-5.49698
X3.53900 Y-5.49698
X3.53900 Y-5.49898
X3.53800 Y-5.49898
X3.53800 Y-5.50098
X3.53700 Y-5.50098
X3.53700 Y-5.50298
X3.53600 Y-5.50298
X3.53600 Y-5.50398
X3.53500 Y-5.50398
X3.53500 Y-5.50598
X3.53400 Y-5.50598
X3.53400 Y-5.50698
X3.53300 Y-5.50698
X3.53300 Y-5.50798
X3.53200 Y-5.50798
X3.53200 Y-5.50898
X3.53100 Y-5.50898
X3.53100 Y-5.50998
X3.52900 Y-5.50998
X3.52900 Y-5.51098
X3.52700 Y-5.51098
X3.52700 Y-5.51198
X3.52500 Y-5.51198
X3.52500 Y-5.51298
X3.50800 Y-5.51298
X3.50800 Y-5.51198
X3.50500 Y-5.51198
X3.50500 Y-5.51098
X3.50300 Y-5.51098
X3.50300 Y-5.50998
X3.50100 Y-5.50998
X3.50100 Y-5.50898
X3.50000 Y-5.50898
X3.50000 Y-5.50798
X3.49900 Y-5.50798
X3.49900 Y-5.50698
X3.49800 Y-5.50698
X3.49800 Y-5.50598
X3.49700 Y-5.50598
X3.49700 Y-5.50398
X3.49600 Y-5.50398
X3.49600 Y-5.50198
X3.49500 Y-5.50198
X3.49500 Y-5.49998
X3.49400 Y-5.49998
X3.49400 Y-5.49798
X3.49300 Y-5.49798
X3.49300 Y-5.48298
X3.49400 Y-5.48298
X3.49400 Y-5.47898
X3.49500 Y-5.47898
X3.49500 Y-5.47698
X3.49600 Y-5.47698
X3.49600 Y-5.47498
X3.49700 Y-5.47498
X3.49700 Y-5.47398
X3.49800 Y-5.47398
X3.49800 Y-5.47298
X3.49800 Y-5.47298
X3.49800 Y-5.47198
X3.49700 Y-5.47198
X3.49700 Y-5.47098
X3.49600 Y-5.47098
X3.49600 Y-5.46898
X3.49500 Y-5.46898
X3.49500 Y-5.46698
X3.49400 Y-5.46698
X3.49400 Y-5.46498
X3.49300 Y-5.46498
X3.49300 Y-5.45698
X3.49400 Y-5.45698
X3.49400 Y-5.45398
X3.49500 Y-5.45398
X3.49500 Y-5.45198
X3.49600 Y-5.45198
X3.49600 Y-5.44998
X3.49700 Y-5.44998
X3.49700 Y-5.44798
X3.49800 Y-5.44798
X3.49800 Y-5.44698
X3.49900 Y-5.44698
X3.49900 Y-5.44598
X3.50100 Y-5.44598
X3.50100 Y-5.44498
X3.50200 Y-5.44498
X3.50200 Y-5.44398
X3.50400 Y-5.44398
X3.50400 Y-5.44298
X3.50600 Y-5.44298
X3.50600 Y-5.44198
X3.50900 Y-5.44198
X3.50900 Y-5.44098
X3.52300 Y-5.44098
X3.52300 Y-5.44198
G04 P0 ( dwell for no time -- G64 should not smooth over this point )
G00 Z0.19685 ( retract )

G00 X3.64200 Y-5.44198 ( rapid move to begin. )
G01 Z-0.00591 F39.37008 ( plunge. )
G04 P0 ( dwell for no time -- G64 should not smooth over this point )
X3.64200 Y-5.44198
X3.64400 Y-5.44198
X3.64400 Y-5.44298
X3.64600 Y-5.44298
X3.64600 Y-5.44398
X3.64800 Y-5.44398
X3.64800 Y-5.44498
X3.64900 Y-5.44498
X3.64900 Y-5.44598
X3.65100 Y-5.44598
X3.65100 Y-5.44698
X3.65200 Y-5.44698
X3.65200 Y-5.44798
X3.65300 Y-5.44798
X3.65300 Y-5.44898
X3.65400 Y-5.44898
X3.65400 Y-5.45098
X3.65500 Y-5.45098
X3.65500 Y-5.45298
X3.65600 Y-5.45298
X3.65600 Y-5.45498
X3.65700 Y-5.45498
X3.65700 Y-5.45798
X3.65800 Y-5.45798
X3.65800 Y-5.46498
X3.65700 Y-5.46498
X3.65700 Y-5.46898
X3.65600 Y-5.46898
X3.65600 Y-5.47198
X3.65500 Y-5.47198
X3.65500 Y-5.47498
X3.65400 Y-5.47498
X3.65400 Y-5.47598
X3.65300 Y-5.47598
X3.65300 Y-5.47798
X3.65200 Y-5.47798
X3.65200 Y-5.47898
X3.65100 Y-5.47898
X3.65100 Y-5.47998
X3.65000 Y-5.47998
X3.65000 Y-5.48098
X3.64900 Y-5.48098
X3.64900 Y-5.48198
X3.64800 Y-5.48198
X3.64800 Y-5.48298
X3.64700 Y-5.48298
X3.64700 Y-5.48398
X3.64600 Y-5.48398
X3.64600 Y-5.48498
X3.64500 Y-5.48498
X3.64500 Y-5.48598
X3.64400 Y-5.48598
X3.64400 Y-5.48698
X3.64300 Y-5.48698
X3.64300 Y-5.48798
X3.64200 Y-5.48798
X3.64200 Y-5.48898
X3.64100 Y-5.48898
X3.64100 Y-5.48998
X3.64000 Y-5.48998
X3.64000 Y-5.49098
X3.63900 Y-5.49098
X3.63900 Y-5.49198
X3.63800 Y-5.49198
X3.63800 Y-5.49298
X3.63700 Y-5.49298
X3.63700 Y-5.49398
X3.63600 Y-5.49398
X3.63600 Y-5.49498
X3.63500 Y-5.49498
X3.63500 Y-5.49598
X3.63400 Y-5.49598
X3.63400 Y-5.49698
X3.63300 Y-5.49698
X3.63300 Y-5.49798
X3.63200 Y-5.49798
X3.63200 Y-5.49898
X3.63100 Y-5.49898
X3.63100 Y-5.49998
X3.65200 Y-5.49998
X3.65200 Y-5.50098
X3.65500 Y-5.50098
X3.65500 Y-5.50298
X3.65600 Y-5.50298
X3.65600 Y-5.50398
X3.65700 Y-5.50398
X3.65700 Y-5.50898
X3.65600 Y-5.50898
X3.65600 Y-5.51098
X3.65500 Y-5.51098
X3.65500 Y-5.51198
X3.65400 Y-5.51198
X3.65400 Y-5.51298
X3.61200 Y-5.51298
X3.61200 Y-5.51198
X3.61100 Y-5.51198
X3.61100 Y-5.51098
X3.61000 Y-5.51098
X3.61000 Y-5.50898
X3.60900 Y-5.50898
X3.60900 Y-5.50798
X3.60800 Y-5.50798
X3.60800 Y-5.50498
X3.60900 Y-5.50498
X3.60900 Y-5.50298
X3.61000 Y-5.50298
X3.61000 Y-5.50098
X3.61100 Y-5.50098
X3.61100 Y-5.49998
X3.61200 Y-5.49998
X3.61200 Y-5.49898
X3.61300 Y-5.49898
X3.61300 Y-5.49798
X3.61400 Y-5.49798
X3.61400 Y-5.49698
X3.61500 Y-5.49698
X3.61500 Y-5.49598
X3.61600 Y-5.49598
X3.61600 Y-5.49498
X3.61700 Y-5.49498
X3.61700 Y-5.49398
X3.61800 Y-5.49398
X3.61800 Y-5.49298
X3.61900 Y-5.49298
X3.61900 Y-5.49198
X3.62000 Y-5.49198
X3.62000 Y-5.49098
X3.62100 Y-5.49098
X3.62100 Y-5.48998
X3.62200 Y-5.48998
X3.62200 Y-5.48898
X3.62300 Y-5.48898
X3.62300 Y-5.48798
X3.62400 Y-5.48798
X3.62400 Y-5.48698
X3.62500 Y-5.48698
X3.62500 Y-5.48598
X3.62600 Y-5.48598
X3.62600 Y-5.48498
X3.62700 Y-5.48498
X3.62700 Y-5.48398
X3.62800 Y-5.48398
X3.62800 Y-5.48298
X3.62900 Y-5.48298
X3.62900 Y-5.48198
X3.63000 Y-5.48198
X3.63000 Y-5.48098
X3.63100 Y-5.48098
X3.63100 Y-5.47998
X3.63200 Y-5.47998
X3.63200 Y-5.47898
X3.63300 Y-5.47898
X3.63300 Y-5.47798
X3.63400 Y-5.47798
X3.63400 Y-5.47698
X3.63500 Y-5.47698
X3.63500 Y-5.47598
X3.63600 Y-5.47598
X3.63600 Y-5.47498
X3.63700 Y-5.47498
X3.63700 Y-5.47398
X3.63800 Y-5.47398
X3.63800 Y-5.47298
X3.63900 Y-5.47298
X3.63900 Y-5.47198
X3.64000 Y-5.47198
X3.64000 Y-5.47098
X3.64100 Y-5.47098
X3.64100 Y-5.46998
X3.64200 Y-5.46998
X3.64200 Y-5.46898
X3.64300 Y-5.46898
X3.64300 Y-5.46698
X3.64400 Y-5.46698
X3.64400 Y-5.46398
X3.64500 Y-5.46398
X3.64500 Y-5.45998
X3.64400 Y-5.45998
X3.64400 Y-5.45798
X3.64300 Y-5.45798
X3.64300 Y-5.45698
X3.64200 Y-5.45698
X3.64200 Y-5.45598
X3.64100 Y-5.45598
X3.64100 Y-5.45498
X3.63900 Y-5.45498
X3.63900 Y-5.45398
X3.62700 Y-5.45398
X3.62700 Y-5.45498
X3.62500 Y-5.45498
X3.62500 Y-5.45598
X3.62300 Y-5.45598
X3.62300 Y-5.45698
X3.62200 Y-5.45698
X3.62200 Y-5.45798
X3.62100 Y-5.45798
X3.62100 Y-5.45898
X3.61400 Y-5.45898
X3.61400 Y-5.45798
X3.61300 Y-5.45798
X3.61300 Y-5.45598
X3.61200 Y-5.45598
X3.61200 Y-5.45498
X3.61100 Y-5.45498
X3.61100 Y-5.45098
X3.61200 Y-5.45098
X3.61200 Y-5.44898
X3.61300 Y-5.44898
X3.61300 Y-5.44798
X3.61400 Y-5.44798
X3.61400 Y-5.44698
X3.61500 Y-5.44698
X3.61500 Y-5.44598
X3.61600 Y-5.44598
X3.61600 Y-5.44498
X3.61700 Y-5.44498
X3.61700 Y-5.44398
X3.61900 Y-5.44398
X3.61900 Y-5.44298
X3.62100 Y-5.44298
X3.62100 Y-5.44198
X3.62400 Y-5.44198
X3.62400 Y-5.44098
X3.64200 Y-5.44098
X3.64200 Y-5.44198
G04 P0 ( dwell for no time -- G64 should not smooth over this point )
G00 Z0.19685 ( retract )

G00 X3.69500 Y-5.44198 ( rapid move to begin. )
G01 Z-0.00591 F39.37008 ( plunge. )
G04 P0 ( dwell for no time -- G64 should not smooth over this point )
X3.69500 Y-5.44198
X3.69800 Y-5.44198
X3.69800 Y-5.44298
X3.70000 Y-5.44298
X3.70000 Y-5.44398
X3.70200 Y-5.44398
X3.70200 Y-5.44498
X3.70300 Y-5.44498
X3.70300 Y-5.44598
X3.70400 Y-5.44598
X3.70400 Y-5.44698
X3.70500 Y-5.44698
X3.70500 Y-5.44798
X3.70600 Y-5.44798
X3.70600 Y-5.44898
X3.70700 Y-5.44898
X3.70700 Y-5.44998
X3.70800 Y-5.44998
X3.70800 Y-5.45198
X3.70900 Y-5.45198
X3.70900 Y-5.45398
X3.71000 Y-5.45398
X3.71000 Y-5.45698
X3.71100 Y-5.45698
X3.71100 Y-5.45998
X3.71200 Y-5.45998
X3.71200 Y-5.46398
X3.71300 Y-5.46398
X3.71300 Y-5.46798
X3.71400 Y-5.46798
X3.71400 Y-5.48498
X3.71400 Y-5.48498
X3.71400 Y-5.48698
X3.71300 Y-5.48698
X3.71300 Y-5.49098
X3.71200 Y-5.49098
X3.71200 Y-5.49398
X3.71100 Y-5.49398
X3.71100 Y-5.49698
X3.71000 Y-5.49698
X3.71000 Y-5.49998
X3.70900 Y-5.49998
X3.70900 Y-5.50198
X3.70800 Y-5.50198
X3.70800 Y-5.50398
X3.70700 Y-5.50398
X3.70700 Y-5.50498
X3.70600 Y-5.50498
X3.70600 Y-5.50698
X3.70500 Y-5.50698
X3.70500 Y-5.50798
X3.70400 Y-5.50798
X3.70400 Y-5.50898
X3.70200 Y-5.50898
X3.70200 Y-5.50998
X3.70000 Y-5.50998
X3.70000 Y-5.51098
X3.69800 Y-5.51098
X3.69800 Y-5.51198
X3.69600 Y-5.51198
X3.69600 Y-5.51298
X3.68500 Y-5.51298
X3.68500 Y-5.51198
X3.68300 Y-5.51198
X3.68300 Y-5.51098
X3.68100 Y-5.51098
X3.68100 Y-5.50998
X3.67900 Y-5.50998
X3.67900 Y-5.50898
X3.67700 Y-5.50898
X3.67700 Y-5.50798
X3.67600 Y-5.50798
X3.67600 Y-5.50698
X3.67500 Y-5.50698
X3.67500 Y-5.50498
X3.67400 Y-5.50498
X3.67400 Y-5.50398
X3.67300 Y-5.50398
X3.67300 Y-5.50198
X3.67200 Y-5.50198
X3.67200 Y-5.49998
X3.67100 Y-5.49998
X3.67100 Y-5.49798
X3.67000 Y-5.49798
X3.67000 Y-5.49498
X3.66900 Y-5.49498
X3.66900 Y-5.49098
X3.66800 Y-5.49098
X3.66800 Y-5.48698
X3.66700 Y-5.48698
X3.66700 Y-5.46898
X3.66800 Y-5.46898
X3.66800 Y-5.46398
X3.66900 Y-5.46398
X3.66900 Y-5.45998
X3.67000 Y-5.45998
X3.67000 Y-5.45698
X3.67100 Y-5.45698
X3.67100 Y-5.45398
X3.67200 Y-5.45398
X3.67200 Y-5.45198
X3.67300 Y-5.45198
X3.67300 Y-5.44998
X3.67400 Y-5.44998
X3.67400 Y-5.44898
X3.67500 Y-5.44898
X3.67500 Y-5.44798
X3.67600 Y-5.44798
X3.67600 Y-5.44698
X3.67700 Y-5.44698
X3.67700 Y-5.44598
X3.67800 Y-5.44598
X3.67800 Y-5.44498
X3.67900 Y-5.44498
X3.67900 Y-5.44398
X3.68100 Y-5.44398
X3.68100 Y-5.44298
X3.68300 Y-5.44298
X3.68300 Y-5.44198
X3.68600 Y-5.44198
X3.68600 Y-5.44098
X3.69500 Y-5.44098
X3.69500 Y-5.44198
G04 P0 ( dwell for no time -- G64 should not smooth over this point )
G00 Z0.19685 ( retract )

G00 X3.82100 Y-5.44198 ( rapid move to begin. )
G01 Z-0.00591 F39.37008 ( plunge. )
G04 P0 ( dwell for no time -- G64 should not smooth over this point )
X3.82100 Y-5.44198
X3.82400 Y-5.44198
X3.82400 Y-5.44398
X3.82500 Y-5.44398
X3.82500 Y-5.44598
X3.82600 Y-5.44598
X3.82600 Y-5.44998
X3.82500 Y-5.44998
X3.82500 Y-5.45198
X3.82400 Y-5.45198
X3.82400 Y-5.45298
X3.82300 Y-5.45298
X3.82300 Y-5.45498
X3.82200 Y-5.45498
X3.82200 Y-5.45598
X3.82100 Y-5.45598
X3.82100 Y-5.45698
X3.82000 Y-5.45698
X3.82000 Y-5.45798
X3.81900 Y-5.45798
X3.81900 Y-5.45898
X3.81800 Y-5.45898
X3.81800 Y-5.45998
X3.81700 Y-5.45998
X3.81700 Y-5.46098
X3.81600 Y-5.46098
X3.81600 Y-5.46298
X3.81500 Y-5.46298
X3.81500 Y-5.46398
X3.81400 Y-5.46398
X3.81400 Y-5.46498
X3.81400 Y-5.46498
X3.81400 Y-5.46598
X3.81600 Y-5.46598
X3.81600 Y-5.46698
X3.81800 Y-5.46698
X3.81800 Y-5.46798
X3.81900 Y-5.46798
X3.81900 Y-5.46898
X3.82000 Y-5.46898
X3.82000 Y-5.46998
X3.82100 Y-5.46998
X3.82100 Y-5.47098
X3.82200 Y-5.47098
X3.82200 Y-5.47198
X3.82300 Y-5.47198
X3.82300 Y-5.47398
X3.82400 Y-5.47398
X3.82400 Y-5.47598
X3.82500 Y-5.47598
X3.82500 Y-5.47798
X3.82600 Y-5.47798
X3.82600 Y-5.49698
X3.82600 Y-5.49698
X3.82600 Y-5.49898
X3.82500 Y-5.49898
X3.82500 Y-5.50098
X3.82400 Y-5.50098
X3.82400 Y-5.50298
X3.82300 Y-5.50298
X3.82300 Y-5.50398
X3.82200 Y-5.50398
X3.82200 Y-5.50598
X3.82100 Y-5.50598
X3.82100 Y-5.50698
X3.82000 Y-5.50698
X3.82000 Y-5.50798
X3.81900 Y-5.50798
X3.81900 Y-5.50898
X3.81800 Y-5.50898
X3.81800 Y-5.50998
X3.81600 Y-5.50998
X3.81600 Y-5.51098
X3.81400 Y-5.51098
X3.81400 Y-5.51198
X3.81100 Y-5.51198
X3.81100 Y-5.51298
X3.78900 Y-5.51298
X3.78900 Y-5.51198
X3.78700 Y-5.51198
X3.78700 Y-5.51098
X3.78500 Y-5.51098
X3.78500 Y-5.50998
X3.78300 Y-5.50998
X3.78300 Y-5.50898
X3.78100 Y-5.50898
X3.78100 Y-5.50798
X3.78000 Y-5.50798
X3.78000 Y-5.50698
X3.77900 Y-5.50698
X3.77900 Y-5.50398
X3.77800 Y-5.50398
X3.77800 Y-5.50298
X3.77700 Y-5.50298
X3.77700 Y-5.49898
X3.77800 Y-5.49898
X3.77800 Y-5.49798
X3.77900 Y-5.49798
X3.77900 Y-5.49598
X3.78000 Y-5.49598
X3.78000 Y-5.49498
X3.78200 Y-5.49498
X3.78200 Y-5.49598
X3.78800 Y-5.49598
X3.78800 Y-5.49698
X3.78900 Y-5.49698
X3.78900 Y-5.49798
X3.79000 Y-5.49798
X3.79000 Y-5.49898
X3.79200 Y-5.49898
X3.79200 Y-5.49998
X3.80800 Y-5.49998
X3.80800 Y-5.49898
X3.81000 Y-5.49898
X3.81000 Y-5.49798
X3.81100 Y-5.49798
X3.81100 Y-5.49698
X3.81200 Y-5.49698
X3.81200 Y-5.49498
X3.81300 Y-5.49498
X3.81300 Y-5.48098
X3.81200 Y-5.48098
X3.81200 Y-5.47998
X3.81100 Y-5.47998
X3.81100 Y-5.47898
X3.81000 Y-5.47898
X3.81000 Y-5.47798
X3.80900 Y-5.47798
X3.80900 Y-5.47698
X3.80000 Y-5.47698
X3.80000 Y-5.47598
X3.79700 Y-5.47598
X3.79700 Y-5.47498
X3.79600 Y-5.47498
X3.79600 Y-5.47398
X3.79500 Y-5.47398
X3.79500 Y-5.47198
X3.79400 Y-5.47198
X3.79400 Y-5.46798
X3.79500 Y-5.46798
X3.79500 Y-5.46498
X3.79600 Y-5.46498
X3.79600 Y-5.46398
X3.79700 Y-5.46398
X3.79700 Y-5.46298
X3.79800 Y-5.46298
X3.79800 Y-5.46198
X3.79900 Y-5.46198
X3.79900 Y-5.46098
X3.80000 Y-5.46098
X3.80000 Y-5.45998
X3.80100 Y-5.45998
X3.80100 Y-5.45898
X3.80200 Y-5.45898
X3.80200 Y-5.45698
X3.80300 Y-5.45698
X3.80300 Y-5.45598
X3.80400 Y-5.45598
X3.80400 Y-5.45498
X3.80500 Y-5.45498
X3.80500 Y-5.45398
X3.78100 Y-5.45398
X3.78100 Y-5.45298
X3.77900 Y-5.45298
X3.77900 Y-5.45098
X3.77800 Y-5.45098
X3.77800 Y-5.44898
X3.77700 Y-5.44898
X3.77700 Y-5.44598
X3.77800 Y-5.44598
X3.77800 Y-5.44398
X3.77900 Y-5.44398
X3.77900 Y-5.44298
X3.78000 Y-5.44298
X3.78000 Y-5.44198
X3.78200 Y-5.44198
X3.78200 Y-5.44098
X3.82100 Y-5.44098
X3.82100 Y-5.44198
G04 P0 ( dwell for no time -- G64 should not smooth over this point )
G00 Z0.19685 ( retract )

G00 X3.75000 Y-5.44298 ( rapid move to begin. )
G01 Z-0.00591 F39.37008 ( plunge. )
G04 P0 ( dwell for no time -- G64 should not smooth over this point )
X3.75000 Y-5.44298
X3.75100 Y-5.44298
X3.75100 Y-5.44398
X3.75200 Y-5.44398
X3.75200 Y-5.44598
X3.75300 Y-5.44598
X3.75300 Y-5.49998
X3.76500 Y-5.49998
X3.76500 Y-5.50098
X3.76700 Y-5.50098
X3.76700 Y-5.50198
X3.76800 Y-5.50198
X3.76800 Y-5.50398
X3.76900 Y-5.50398
X3.76900 Y-5.50498
X3.77000 Y-5.50498
X3.77000 Y-5.50798
X3.76900 Y-5.50798
X3.76900 Y-5.50998
X3.76800 Y-5.50998
X3.76800 Y-5.51198
X3.76600 Y-5.51198
X3.76600 Y-5.51298
X3.72700 Y-5.51298
X3.72700 Y-5.51198
X3.72600 Y-5.51198
X3.72600 Y-5.51098
X3.72500 Y-5.51098
X3.72500 Y-5.50898
X3.72400 Y-5.50898
X3.72400 Y-5.50398
X3.72500 Y-5.50398
X3.72500 Y-5.50298
X3.72600 Y-5.50298
X3.72600 Y-5.50098
X3.72900 Y-5.50098
X3.72900 Y-5.49998
X3.74000 Y-5.49998
X3.74000 Y-5.46698
X3.73900 Y-5.46698
X3.73900 Y-5.46798
X3.73700 Y-5.46798
X3.73700 Y-5.46898
X3.73500 Y-5.46898
X3.73500 Y-5.46998
X3.72600 Y-5.46998
X3.72600 Y-5.46798
X3.72500 Y-5.46798
X3.72500 Y-5.46698
X3.72400 Y-5.46698
X3.72400 Y-5.46198
X3.72500 Y-5.46198
X3.72500 Y-5.46098
X3.72600 Y-5.46098
X3.72600 Y-5.45898
X3.72700 Y-5.45898
X3.72700 Y-5.45798
X3.72900 Y-5.45798
X3.72900 Y-5.45698
X3.73100 Y-5.45698
X3.73100 Y-5.45598
X3.73200 Y-5.45598
X3.73200 Y-5.45498
X3.73300 Y-5.45498
X3.73300 Y-5.45398
X3.73400 Y-5.45398
X3.73400 Y-5.45298
X3.73500 Y-5.45298
X3.73500 Y-5.45198
X3.73600 Y-5.45198
X3.73600 Y-5.45098
X3.73700 Y-5.45098
X3.73700 Y-5.44998
X3.73800 Y-5.44998
X3.73800 Y-5.44798
X3.73900 Y-5.44798
X3.73900 Y-5.44698
X3.74000 Y-5.44698
X3.74000 Y-5.44498
X3.74100 Y-5.44498
X3.74100 Y-5.44398
X3.74200 Y-5.44398
X3.74200 Y-5.44298
X3.74300 Y-5.44298
X3.74300 Y-5.44198
X3.75000 Y-5.44198
X3.75000 Y-5.44298
G04 P0 ( dwell for no time -- G64 should not smooth over this point )
G00 Z0.19685 ( retract )

G00 X3.12600 Y-5.53698 ( rapid move to begin. )
G01 Z-0.00591 F39.37008 ( plunge. )
G04 P0 ( dwell for no time -- G64 should not smooth over this point )
X3.12600 Y-5.53698
X3.12700 Y-5.53698
X3.12700 Y-5.53798
X3.12800 Y-5.53798
X3.12800 Y-5.53998
X3.12900 Y-5.53998
X3.12900 Y-5.54298
X3.13000 Y-5.54298
X3.13000 Y-5.54598
X3.13100 Y-5.54598
X3.13100 Y-5.54898
X3.13200 Y-5.54898
X3.13200 Y-5.55198
X3.13300 Y-5.55198
X3.13300 Y-5.55498
X3.13400 Y-5.55498
X3.13400 Y-5.55798
X3.13500 Y-5.55798
X3.13500 Y-5.56098
X3.13600 Y-5.56098
X3.13600 Y-5.56398
X3.13700 Y-5.56398
X3.13700 Y-5.56698
X3.13800 Y-5.56698
X3.13800 Y-5.56998
X3.13900 Y-5.56998
X3.13900 Y-5.57298
X3.14000 Y-5.57298
X3.14000 Y-5.57598
X3.14100 Y-5.57598
X3.14100 Y-5.57898
X3.14200 Y-5.57898
X3.14200 Y-5.57898
X3.14300 Y-5.57898
X3.14300 Y-5.57598
X3.14400 Y-5.57598
X3.14400 Y-5.57298
X3.14500 Y-5.57298
X3.14500 Y-5.56998
X3.14600 Y-5.56998
X3.14600 Y-5.56698
X3.14700 Y-5.56698
X3.14700 Y-5.56398
X3.14800 Y-5.56398
X3.14800 Y-5.56098
X3.14900 Y-5.56098
X3.14900 Y-5.55798
X3.15000 Y-5.55798
X3.15000 Y-5.55498
X3.15100 Y-5.55498
X3.15100 Y-5.55198
X3.15200 Y-5.55198
X3.15200 Y-5.54898
X3.15300 Y-5.54898
X3.15300 Y-5.54598
X3.15400 Y-5.54598
X3.15400 Y-5.54298
X3.15500 Y-5.54298
X3.15500 Y-5.53998
X3.15700 Y-5.53998
X3.15700 Y-5.53798
X3.15800 Y-5.53798
X3.15800 Y-5.53598
X3.16500 Y-5.53598
X3.16500 Y-5.53698
X3.16600 Y-5.53698
X3.16600 Y-5.53998
X3.16700 Y-5.53998
X3.16700 Y-5.54198
X3.16800 Y-5.54198
X3.16800 Y-5.54598
X3.16700 Y-5.54598
X3.16700 Y-5.54898
X3.16600 Y-5.54898
X3.16600 Y-5.55198
X3.16500 Y-5.55198
X3.16500 Y-5.55498
X3.16400 Y-5.55498
X3.16400 Y-5.55798
X3.16300 Y-5.55798
X3.16300 Y-5.56098
X3.16200 Y-5.56098
X3.16200 Y-5.56398
X3.16100 Y-5.56398
X3.16100 Y-5.56698
X3.16000 Y-5.56698
X3.16000 Y-5.56998
X3.15900 Y-5.56998
X3.15900 Y-5.57298
X3.15800 Y-5.57298
X3.15800 Y-5.57598
X3.15700 Y-5.57598
X3.15700 Y-5.57898
X3.15600 Y-5.57898
X3.15600 Y-5.58198
X3.15500 Y-5.58198
X3.15500 Y-5.58498
X3.15400 Y-5.58498
X3.15400 Y-5.58798
X3.15300 Y-5.58798
X3.15300 Y-5.59098
X3.15200 Y-5.59098
X3.15200 Y-5.59398
X3.15100 Y-5.59398
X3.15100 Y-5.59698
X3.15000 Y-5.59698
X3.15000 Y-5.59998
X3.14900 Y-5.59998
X3.14900 Y-5.60298
X3.14700 Y-5.60298
X3.14700 Y-5.60498
X3.14600 Y-5.60498
X3.14600 Y-5.60698
X3.13800 Y-5.60698
X3.13800 Y-5.60498
X3.13700 Y-5.60498
X3.13700 Y-5.60398
X3.13600 Y-5.60398
X3.13600 Y-5.60198
X3.13500 Y-5.60198
X3.13500 Y-5.59898
X3.13400 Y-5.59898
X3.13400 Y-5.59598
X3.13300 Y-5.59598
X3.13300 Y-5.59298
X3.13200 Y-5.59298
X3.13200 Y-5.58998
X3.13100 Y-5.58998
X3.13100 Y-5.58698
X3.13000 Y-5.58698
X3.13000 Y-5.58398
X3.12900 Y-5.58398
X3.12900 Y-5.58098
X3.12800 Y-5.58098
X3.12800 Y-5.57798
X3.12700 Y-5.57798
X3.12700 Y-5.57498
X3.12600 Y-5.57498
X3.12600 Y-5.57198
X3.12500 Y-5.57198
X3.12500 Y-5.56898
X3.12400 Y-5.56898
X3.12400 Y-5.56598
X3.12300 Y-5.56598
X3.12300 Y-5.56298
X3.12200 Y-5.56298
X3.12200 Y-5.55998
X3.12100 Y-5.55998
X3.12100 Y-5.55698
X3.12000 Y-5.55698
X3.12000 Y-5.55398
X3.11900 Y-5.55398
X3.11900 Y-5.55098
X3.11800 Y-5.55098
X3.11800 Y-5.54798
X3.11700 Y-5.54798
X3.11700 Y-5.54498
X3.11600 Y-5.54498
X3.11600 Y-5.54098
X3.11700 Y-5.54098
X3.11700 Y-5.53898
X3.11800 Y-5.53898
X3.11800 Y-5.53698
X3.11900 Y-5.53698
X3.11900 Y-5.53598
X3.12600 Y-5.53598
X3.12600 Y-5.53698
G04 P0 ( dwell for no time -- G64 should not smooth over this point )
G00 Z0.19685 ( retract )

G00 X3.23800 Y-5.53698 ( rapid move to begin. )
G01 Z-0.00591 F39.37008 ( plunge. )
G04 P0 ( dwell for no time -- G64 should not smooth over this point )
X3.23800 Y-5.53698
X3.23900 Y-5.53698
X3.23900 Y-5.53798
X3.24000 Y-5.53798
X3.24000 Y-5.53998
X3.24100 Y-5.53998
X3.24100 Y-5.59098
X3.24200 Y-5.59098
X3.24200 Y-5.59298
X3.24300 Y-5.59298
X3.24300 Y-5.59398
X3.24500 Y-5.59398
X3.24500 Y-5.59498
X3.24700 Y-5.59498
X3.24700 Y-5.59698
X3.24800 Y-5.59698
X3.24800 Y-5.59798
X3.24900 Y-5.59798
X3.24900 Y-5.59998
X3.25000 Y-5.59998
X3.25000 Y-5.60198
X3.24900 Y-5.60198
X3.24900 Y-5.60398
X3.24800 Y-5.60398
X3.24800 Y-5.60598
X3.24700 Y-5.60598
X3.24700 Y-5.60698
X3.23900 Y-5.60698
X3.23900 Y-5.60598
X3.23700 Y-5.60598
X3.23700 Y-5.60498
X3.23500 Y-5.60498
X3.23500 Y-5.60398
X3.23400 Y-5.60398
X3.23400 Y-5.60298
X3.23300 Y-5.60298
X3.23300 Y-5.60198
X3.23200 Y-5.60198
X3.23200 Y-5.60098
X3.23100 Y-5.60098
X3.23100 Y-5.59898
X3.23000 Y-5.59898
X3.23000 Y-5.59698
X3.22900 Y-5.59698
X3.22900 Y-5.53998
X3.23000 Y-5.53998
X3.23000 Y-5.53798
X3.23100 Y-5.53798
X3.23100 Y-5.53598
X3.23800 Y-5.53598
X3.23800 Y-5.53698
G04 P0 ( dwell for no time -- G64 should not smooth over this point )
G00 Z0.19685 ( retract )

G00 X3.26900 Y-5.53698 ( rapid move to begin. )
G01 Z-0.00591 F39.37008 ( plunge. )
G04 P0 ( dwell for no time -- G64 should not smooth over this point )
X3.26900 Y-5.53698
X3.27000 Y-5.53698
X3.27000 Y-5.53898
X3.27100 Y-5.53898
X3.27100 Y-5.53998
X3.27200 Y-5.53998
X3.27200 Y-5.55498
X3.28100 Y-5.55498
X3.28100 Y-5.55598
X3.28400 Y-5.55598
X3.28400 Y-5.55798
X3.28500 Y-5.55798
X3.28500 Y-5.55998
X3.28600 Y-5.55998
X3.28600 Y-5.56398
X3.28500 Y-5.56398
X3.28500 Y-5.56498
X3.28400 Y-5.56498
X3.28400 Y-5.56698
X3.28300 Y-5.56698
X3.28300 Y-5.56798
X3.27200 Y-5.56798
X3.27200 Y-5.59098
X3.27300 Y-5.59098
X3.27300 Y-5.59298
X3.27400 Y-5.59298
X3.27400 Y-5.59398
X3.27600 Y-5.59398
X3.27600 Y-5.59498
X3.28300 Y-5.59498
X3.28300 Y-5.59598
X3.28400 Y-5.59598
X3.28400 Y-5.59798
X3.28500 Y-5.59798
X3.28500 Y-5.59898
X3.28600 Y-5.59898
X3.28600 Y-5.60298
X3.28500 Y-5.60298
X3.28500 Y-5.60498
X3.28400 Y-5.60498
X3.28400 Y-5.60698
X3.28100 Y-5.60698
X3.28100 Y-5.60798
X3.27300 Y-5.60798
X3.27300 Y-5.60698
X3.27000 Y-5.60698
X3.27000 Y-5.60598
X3.26800 Y-5.60598
X3.26800 Y-5.60498
X3.26600 Y-5.60498
X3.26600 Y-5.60398
X3.26500 Y-5.60398
X3.26500 Y-5.60298
X3.26400 Y-5.60298
X3.26400 Y-5.60198
X3.26300 Y-5.60198
X3.26300 Y-5.60098
X3.26200 Y-5.60098
X3.26200 Y-5.59898
X3.26100 Y-5.59898
X3.26100 Y-5.59698
X3.26000 Y-5.59698
X3.26000 Y-5.59398
X3.25900 Y-5.59398
X3.25900 Y-5.56798
X3.25400 Y-5.56798
X3.25400 Y-5.56698
X3.25300 Y-5.56698
X3.25300 Y-5.56498
X3.25200 Y-5.56498
X3.25200 Y-5.56298
X3.25100 Y-5.56298
X3.25100 Y-5.55998
X3.25200 Y-5.55998
X3.25200 Y-5.55898
X3.25300 Y-5.55898
X3.25300 Y-5.55698
X3.25400 Y-5.55698
X3.25400 Y-5.55598
X3.25600 Y-5.55598
X3.25600 Y-5.55498
X3.25900 Y-5.55498
X3.25900 Y-5.54098
X3.26000 Y-5.54098
X3.26000 Y-5.53998
X3.26100 Y-5.53998
X3.26100 Y-5.53798
X3.26200 Y-5.53798
X3.26200 Y-5.53598
X3.26900 Y-5.53598
X3.26900 Y-5.53698
G04 P0 ( dwell for no time -- G64 should not smooth over this point )
G00 Z0.19685 ( retract )

G00 X3.52800 Y-5.53698 ( rapid move to begin. )
G01 Z-0.00591 F39.37008 ( plunge. )
G04 P0 ( dwell for no time -- G64 should not smooth over this point )
X3.52800 Y-5.53698
X3.53000 Y-5.53698
X3.53000 Y-5.53798
X3.53200 Y-5.53798
X3.53200 Y-5.53898
X3.53400 Y-5.53898
X3.53400 Y-5.53998
X3.53500 Y-5.53998
X3.53500 Y-5.54098
X3.53600 Y-5.54098
X3.53600 Y-5.54198
X3.53700 Y-5.54198
X3.53700 Y-5.54298
X3.53800 Y-5.54298
X3.53800 Y-5.54398
X3.53900 Y-5.54398
X3.53900 Y-5.54498
X3.54000 Y-5.54498
X3.54000 Y-5.54698
X3.54100 Y-5.54698
X3.54100 Y-5.54798
X3.54200 Y-5.54798
X3.54200 Y-5.54998
X3.54300 Y-5.54998
X3.54300 Y-5.55398
X3.54400 Y-5.55398
X3.54400 Y-5.55898
X3.54500 Y-5.55898
X3.54500 Y-5.58498
X3.54400 Y-5.58498
X3.54400 Y-5.58898
X3.54300 Y-5.58898
X3.54300 Y-5.59298
X3.54200 Y-5.59298
X3.54200 Y-5.59498
X3.54100 Y-5.59498
X3.54100 Y-5.59698
X3.54000 Y-5.59698
X3.54000 Y-5.59798
X3.54000 Y-5.59798
X3.54000 Y-5.59898
X3.54200 Y-5.59898
X3.54200 Y-5.59998
X3.54400 Y-5.59998
X3.54400 Y-5.60098
X3.54500 Y-5.60098
X3.54500 Y-5.60198
X3.54600 Y-5.60198
X3.54600 Y-5.60398
X3.54700 Y-5.60398
X3.54700 Y-5.60598
X3.54800 Y-5.60598
X3.54800 Y-5.60798
X3.54700 Y-5.60798
X3.54700 Y-5.60998
X3.54600 Y-5.60998
X3.54600 Y-5.61098
X3.54500 Y-5.61098
X3.54500 Y-5.61198
X3.54200 Y-5.61198
X3.54200 Y-5.61298
X3.53800 Y-5.61298
X3.53800 Y-5.61198
X3.53600 Y-5.61198
X3.53600 Y-5.61098
X3.53400 Y-5.61098
X3.53400 Y-5.60998
X3.53200 Y-5.60998
X3.53200 Y-5.60898
X3.53100 Y-5.60898
X3.53100 Y-5.60798
X3.53000 Y-5.60798
X3.53000 Y-5.60698
X3.52900 Y-5.60698
X3.52900 Y-5.60698
X3.52500 Y-5.60698
X3.52500 Y-5.60798
X3.51200 Y-5.60798
X3.51200 Y-5.60698
X3.50900 Y-5.60698
X3.50900 Y-5.60598
X3.50700 Y-5.60598
X3.50700 Y-5.60498
X3.50500 Y-5.60498
X3.50500 Y-5.60398
X3.50400 Y-5.60398
X3.50400 Y-5.60298
X3.50300 Y-5.60298
X3.50300 Y-5.60198
X3.50200 Y-5.60198
X3.50200 Y-5.60098
X3.50100 Y-5.60098
X3.50100 Y-5.59998
X3.50000 Y-5.59998
X3.50000 Y-5.59898
X3.49900 Y-5.59898
X3.49900 Y-5.59798
X3.49800 Y-5.59798
X3.49800 Y-5.59698
X3.49700 Y-5.59698
X3.49700 Y-5.59498
X3.49600 Y-5.59498
X3.49600 Y-5.59298
X3.49500 Y-5.59298
X3.49500 Y-5.58898
X3.49400 Y-5.58898
X3.49400 Y-5.58498
X3.49300 Y-5.58498
X3.49300 Y-5.55798
X3.49400 Y-5.55798
X3.49400 Y-5.55398
X3.49500 Y-5.55398
X3.49500 Y-5.54998
X3.49600 Y-5.54998
X3.49600 Y-5.54798
X3.49700 Y-5.54798
X3.49700 Y-5.54598
X3.49800 Y-5.54598
X3.49800 Y-5.54498
X3.49900 Y-5.54498
X3.49900 Y-5.54398
X3.50000 Y-5.54398
X3.50000 Y-5.54298
X3.50100 Y-5.54298
X3.50100 Y-5.54198
X3.50200 Y-5.54198
X3.50200 Y-5.54098
X3.50300 Y-5.54098
X3.50300 Y-5.53998
X3.50400 Y-5.53998
X3.50400 Y-5.53898
X3.50600 Y-5.53898
X3.50600 Y-5.53798
X3.50800 Y-5.53798
X3.50800 Y-5.53698
X3.51000 Y-5.53698
X3.51000 Y-5.53598
X3.52800 Y-5.53598
X3.52800 Y-5.53698
G04 P0 ( dwell for no time -- G64 should not smooth over this point )
G00 Z0.19685 ( retract )

G00 X3.70000 Y-5.53698 ( rapid move to begin. )
G01 Z-0.00591 F39.37008 ( plunge. )
G04 P0 ( dwell for no time -- G64 should not smooth over this point )
X3.70000 Y-5.53698
X3.70000 Y-5.53798
X3.70100 Y-5.53798
X3.70100 Y-5.53998
X3.70200 Y-5.53998
X3.70200 Y-5.54198
X3.70300 Y-5.54198
X3.70300 Y-5.60198
X3.70200 Y-5.60198
X3.70200 Y-5.60298
X3.70100 Y-5.60298
X3.70100 Y-5.60498
X3.70000 Y-5.60498
X3.70000 Y-5.60698
X3.69100 Y-5.60698
X3.69100 Y-5.60798
X3.67800 Y-5.60798
X3.67800 Y-5.60698
X3.67500 Y-5.60698
X3.67500 Y-5.60598
X3.67300 Y-5.60598
X3.67300 Y-5.60498
X3.67100 Y-5.60498
X3.67100 Y-5.60398
X3.67000 Y-5.60398
X3.67000 Y-5.60298
X3.66800 Y-5.60298
X3.66800 Y-5.60198
X3.66700 Y-5.60198
X3.66700 Y-5.60098
X3.66600 Y-5.60098
X3.66600 Y-5.59898
X3.66500 Y-5.59898
X3.66500 Y-5.59798
X3.66400 Y-5.59798
X3.66400 Y-5.59598
X3.66300 Y-5.59598
X3.66300 Y-5.59398
X3.66200 Y-5.59398
X3.66200 Y-5.56898
X3.66300 Y-5.56898
X3.66300 Y-5.56698
X3.66400 Y-5.56698
X3.66400 Y-5.56498
X3.66500 Y-5.56498
X3.66500 Y-5.56398
X3.66600 Y-5.56398
X3.66600 Y-5.56198
X3.66700 Y-5.56198
X3.66700 Y-5.56098
X3.66800 Y-5.56098
X3.66800 Y-5.55998
X3.66900 Y-5.55998
X3.66900 Y-5.55898
X3.67100 Y-5.55898
X3.67100 Y-5.55798
X3.67300 Y-5.55798
X3.67300 Y-5.55698
X3.67500 Y-5.55698
X3.67500 Y-5.55598
X3.67800 Y-5.55598
X3.67800 Y-5.55498
X3.69000 Y-5.55498
X3.69000 Y-5.53998
X3.69100 Y-5.53998
X3.69100 Y-5.53798
X3.69200 Y-5.53798
X3.69200 Y-5.53698
X3.69300 Y-5.53698
X3.69300 Y-5.53598
X3.70000 Y-5.53598
X3.70000 Y-5.53698
G04 P0 ( dwell for no time -- G64 should not smooth over this point )
G00 Z0.19685 ( retract )

G00 X3.87100 Y-5.53698 ( rapid move to begin. )
G01 Z-0.00591 F39.37008 ( plunge. )
G04 P0 ( dwell for no time -- G64 should not smooth over this point )
X3.87100 Y-5.53698
X3.87200 Y-5.53698
X3.87200 Y-5.53898
X3.87300 Y-5.53898
X3.87300 Y-5.54098
X3.87400 Y-5.54098
X3.87400 Y-5.59198
X3.87500 Y-5.59198
X3.87500 Y-5.59298
X3.87600 Y-5.59298
X3.87600 Y-5.59398
X3.87700 Y-5.59398
X3.87700 Y-5.59498
X3.87900 Y-5.59498
X3.87900 Y-5.59598
X3.88000 Y-5.59598
X3.88000 Y-5.59698
X3.88100 Y-5.59698
X3.88100 Y-5.59898
X3.88200 Y-5.59898
X3.88200 Y-5.60298
X3.88100 Y-5.60298
X3.88100 Y-5.60498
X3.88000 Y-5.60498
X3.88000 Y-5.60698
X3.87200 Y-5.60698
X3.87200 Y-5.60598
X3.87000 Y-5.60598
X3.87000 Y-5.60498
X3.86800 Y-5.60498
X3.86800 Y-5.60398
X3.86700 Y-5.60398
X3.86700 Y-5.60298
X3.86600 Y-5.60298
X3.86600 Y-5.60198
X3.86500 Y-5.60198
X3.86500 Y-5.60098
X3.86400 Y-5.60098
X3.86400 Y-5.59898
X3.86300 Y-5.59898
X3.86300 Y-5.59698
X3.86200 Y-5.59698
X3.86200 Y-5.59398
X3.86100 Y-5.59398
X3.86100 Y-5.54098
X3.86200 Y-5.54098
X3.86200 Y-5.53898
X3.86300 Y-5.53898
X3.86300 Y-5.53798
X3.86400 Y-5.53798
X3.86400 Y-5.53598
X3.87100 Y-5.53598
X3.87100 Y-5.53698
G04 P0 ( dwell for no time -- G64 should not smooth over this point )
G00 Z0.19685 ( retract )

G00 X3.19900 Y-5.55598 ( rapid move to begin. )
G01 Z-0.00591 F39.37008 ( plunge. )
G04 P0 ( dwell for no time -- G64 should not smooth over this point )
X3.19900 Y-5.55598
X3.20300 Y-5.55598
X3.20300 Y-5.55698
X3.20500 Y-5.55698
X3.20500 Y-5.55798
X3.20700 Y-5.55798
X3.20700 Y-5.55898
X3.20800 Y-5.55898
X3.20800 Y-5.55998
X3.20900 Y-5.55998
X3.20900 Y-5.56098
X3.21000 Y-5.56098
X3.21000 Y-5.56198
X3.21100 Y-5.56198
X3.21100 Y-5.56298
X3.21200 Y-5.56298
X3.21200 Y-5.56398
X3.21300 Y-5.56398
X3.21300 Y-5.56598
X3.21400 Y-5.56598
X3.21400 Y-5.56798
X3.21500 Y-5.56798
X3.21500 Y-5.56998
X3.21600 Y-5.56998
X3.21600 Y-5.59098
X3.21500 Y-5.59098
X3.21500 Y-5.59498
X3.21400 Y-5.59498
X3.21400 Y-5.59698
X3.21300 Y-5.59698
X3.21300 Y-5.59898
X3.21200 Y-5.59898
X3.21200 Y-5.59998
X3.21100 Y-5.59998
X3.21100 Y-5.60098
X3.21000 Y-5.60098
X3.21000 Y-5.60198
X3.20900 Y-5.60198
X3.20900 Y-5.60298
X3.20800 Y-5.60298
X3.20800 Y-5.60398
X3.20600 Y-5.60398
X3.20600 Y-5.60498
X3.20400 Y-5.60498
X3.20400 Y-5.60598
X3.20200 Y-5.60598
X3.20200 Y-5.60698
X3.19900 Y-5.60698
X3.19900 Y-5.60798
X3.18900 Y-5.60798
X3.18900 Y-5.60698
X3.18600 Y-5.60698
X3.18600 Y-5.60598
X3.18400 Y-5.60598
X3.18400 Y-5.60498
X3.18200 Y-5.60498
X3.18200 Y-5.60398
X3.18100 Y-5.60398
X3.18100 Y-5.60298
X3.17900 Y-5.60298
X3.17900 Y-5.60198
X3.17800 Y-5.60198
X3.17800 Y-5.60098
X3.17700 Y-5.60098
X3.17700 Y-5.59898
X3.17600 Y-5.59898
X3.17600 Y-5.59798
X3.17500 Y-5.59798
X3.17500 Y-5.59598
X3.17400 Y-5.59598
X3.17400 Y-5.59398
X3.17300 Y-5.59398
X3.17300 Y-5.59098
X3.17200 Y-5.59098
X3.17200 Y-5.57198
X3.17300 Y-5.57198
X3.17300 Y-5.56898
X3.17400 Y-5.56898
X3.17400 Y-5.56698
X3.17500 Y-5.56698
X3.17500 Y-5.56498
X3.17600 Y-5.56498
X3.17600 Y-5.56398
X3.17700 Y-5.56398
X3.17700 Y-5.56198
X3.17800 Y-5.56198
X3.17800 Y-5.56098
X3.17900 Y-5.56098
X3.17900 Y-5.55998
X3.18000 Y-5.55998
X3.18000 Y-5.55898
X3.18200 Y-5.55898
X3.18200 Y-5.55798
X3.18400 Y-5.55798
X3.18400 Y-5.55698
X3.18600 Y-5.55698
X3.18600 Y-5.55598
X3.18900 Y-5.55598
X3.18900 Y-5.55498
X3.19900 Y-5.55498
X3.19900 Y-5.55598
G04 P0 ( dwell for no time -- G64 should not smooth over this point )
G00 Z0.19685 ( retract )

G00 X3.31700 Y-5.55598 ( rapid move to begin. )
G01 Z-0.00591 F39.37008 ( plunge. )
G04 P0 ( dwell for no time -- G64 should not smooth over this point )
X3.31700 Y-5.55598
X3.32100 Y-5.55598
X3.32100 Y-5.55698
X3.32300 Y-5.55698
X3.32300 Y-5.55798
X3.32500 Y-5.55798
X3.32500 Y-5.55898
X3.32600 Y-5.55898
X3.32600 Y-5.55998
X3.32700 Y-5.55998
X3.32700 Y-5.56098
X3.32800 Y-5.56098
X3.32800 Y-5.56298
X3.32900 Y-5.56298
X3.32900 Y-5.56498
X3.33000 Y-5.56498
X3.33000 Y-5.56698
X3.33100 Y-5.56698
X3.33100 Y-5.60298
X3.33000 Y-5.60298
X3.33000 Y-5.60498
X3.32900 Y-5.60498
X3.32900 Y-5.60698
X3.32000 Y-5.60698
X3.32000 Y-5.60798
X3.30400 Y-5.60798
X3.30400 Y-5.60698
X3.30100 Y-5.60698
X3.30100 Y-5.60598
X3.29900 Y-5.60598
X3.29900 Y-5.60498
X3.29700 Y-5.60498
X3.29700 Y-5.60398
X3.29600 Y-5.60398
X3.29600 Y-5.60298
X3.29500 Y-5.60298
X3.29500 Y-5.60198
X3.29400 Y-5.60198
X3.29400 Y-5.60098
X3.29300 Y-5.60098
X3.29300 Y-5.59898
X3.29200 Y-5.59898
X3.29200 Y-5.59698
X3.29100 Y-5.59698
X3.29100 Y-5.59398
X3.29000 Y-5.59398
X3.29000 Y-5.58598
X3.29100 Y-5.58598
X3.29100 Y-5.58298
X3.29200 Y-5.58298
X3.29200 Y-5.58098
X3.29300 Y-5.58098
X3.29300 Y-5.57898
X3.29500 Y-5.57898
X3.29500 Y-5.57698
X3.29600 Y-5.57698
X3.29600 Y-5.57598
X3.29700 Y-5.57598
X3.29700 Y-5.57498
X3.29900 Y-5.57498
X3.29900 Y-5.57398
X3.30100 Y-5.57398
X3.30100 Y-5.57298
X3.30400 Y-5.57298
X3.30400 Y-5.57198
X3.31800 Y-5.57198
X3.31800 Y-5.56998
X3.31700 Y-5.56998
X3.31700 Y-5.56898
X3.31500 Y-5.56898
X3.31500 Y-5.56798
X3.30600 Y-5.56798
X3.30600 Y-5.56898
X3.30400 Y-5.56898
X3.30400 Y-5.56998
X3.29600 Y-5.56998
X3.29600 Y-5.56898
X3.29500 Y-5.56898
X3.29500 Y-5.56698
X3.29400 Y-5.56698
X3.29400 Y-5.56598
X3.29300 Y-5.56598
X3.29300 Y-5.56398
X3.29400 Y-5.56398
X3.29400 Y-5.56198
X3.29500 Y-5.56198
X3.29500 Y-5.55998
X3.29600 Y-5.55998
X3.29600 Y-5.55898
X3.29700 Y-5.55898
X3.29700 Y-5.55798
X3.29900 Y-5.55798
X3.29900 Y-5.55698
X3.30100 Y-5.55698
X3.30100 Y-5.55598
X3.30400 Y-5.55598
X3.30400 Y-5.55498
X3.31700 Y-5.55498
X3.31700 Y-5.55598
G04 P0 ( dwell for no time -- G64 should not smooth over this point )
G00 Z0.19685 ( retract )

G00 X3.37400 Y-5.55598 ( rapid move to begin. )
G01 Z-0.00591 F39.37008 ( plunge. )
G04 P0 ( dwell for no time -- G64 should not smooth over this point )
X3.37400 Y-5.55598
X3.38200 Y-5.55598
X3.38200 Y-5.55698
X3.38300 Y-5.55698
X3.38300 Y-5.55898
X3.38400 Y-5.55898
X3.38400 Y-5.56098
X3.38500 Y-5.56098
X3.38500 Y-5.60998
X3.38400 Y-5.60998
X3.38400 Y-5.61398
X3.38300 Y-5.61398
X3.38300 Y-5.61598
X3.38200 Y-5.61598
X3.38200 Y-5.61798
X3.38100 Y-5.61798
X3.38100 Y-5.61898
X3.38000 Y-5.61898
X3.38000 Y-5.62098
X3.37900 Y-5.62098
X3.37900 Y-5.62198
X3.37800 Y-5.62198
X3.37800 Y-5.62298
X3.37600 Y-5.62298
X3.37600 Y-5.62398
X3.37400 Y-5.62398
X3.37400 Y-5.62498
X3.37200 Y-5.62498
X3.37200 Y-5.62598
X3.37000 Y-5.62598
X3.37000 Y-5.62698
X3.35500 Y-5.62698
X3.35500 Y-5.62598
X3.35300 Y-5.62598
X3.35300 Y-5.62498
X3.35100 Y-5.62498
X3.35100 Y-5.62398
X3.34900 Y-5.62398
X3.34900 Y-5.62198
X3.34800 Y-5.62198
X3.34800 Y-5.61998
X3.34700 Y-5.61998
X3.34700 Y-5.61598
X3.34800 Y-5.61598
X3.34800 Y-5.61398
X3.34900 Y-5.61398
X3.34900 Y-5.61198
