( pcb2gcode 1.1.4 )

G94     ( Inches per minute feed rate. )
G20     ( Units == INCHES.             )
G90     ( Absolute coordinates.        )
S10000  ( RPM spindle speed.           )
M3      ( Spindle on clockwise.        )

G64 P0.00500 ( set maximum deviation from commanded toolpath )

G04 P0 ( dwell for no time -- G64 should not smooth over this point )
G00 Z0.19685 ( retract )

G00 X-6.29400 Y-3.67880 ( rapid move to begin. )
G01 Z0.00000 F39.37008 ( plunge. )
G04 P0 ( dwell for no time -- G64 should not smooth over this point )
X-6.29400 Y-3.67880
X-6.29500 Y-3.67880
X-6.29500 Y-5.89480
X-6.29400 Y-5.89480
X-6.29400 Y-5.89580
X-2.97200 Y-5.89580
X-2.97200 Y-5.89480
X-2.97100 Y-5.89480
X-2.97100 Y-5.89280
X-2.97200 Y-5.89280
X-2.97200 Y-5.89180
X-2.97300 Y-5.89180
X-2.97300 Y-5.89080
X-6.29000 Y-5.89080
X-6.29000 Y-3.68480
X-3.04400 Y-3.68480
X-3.04400 Y-5.88580
X-3.04300 Y-5.88580
X-3.04300 Y-5.88680
X-3.04000 Y-5.88680
X-3.04000 Y-5.88580
X-3.03900 Y-5.88580
X-3.03900 Y-3.68280
X-3.03800 Y-3.68280
X-3.03800 Y-3.68080
X-3.03900 Y-3.68080
X-3.03900 Y-3.67980
X-3.04000 Y-3.67980
X-3.04000 Y-3.67880
X-3.04300 Y-3.67880
X-3.04300 Y-3.67980
X-6.29100 Y-3.67980
X-6.29100 Y-3.67880
X-6.29200 Y-3.67880
X-6.29200 Y-3.67780
X-6.29400 Y-3.67780
X-6.29400 Y-3.67880
G01 Z-0.03937 F39.37008 ( plunge. )
G04 P0 ( dwell for no time -- G64 should not smooth over this point )
X-6.29400 Y-3.67880
X-6.29500 Y-3.67880
X-6.29500 Y-5.89480
X-6.29400 Y-5.89480
X-6.29400 Y-5.89580
X-2.97200 Y-5.89580
X-2.97200 Y-5.89480
X-2.97100 Y-5.89480
X-2.97100 Y-5.89280
X-2.97200 Y-5.89280
X-2.97200 Y-5.89180
X-2.97300 Y-5.89180
X-2.97300 Y-5.89080
X-6.29000 Y-5.89080
X-6.29000 Y-3.68480
X-3.04400 Y-3.68480
X-3.04400 Y-5.88580
X-3.04300 Y-5.88580
X-3.04300 Y-5.88680
X-3.04000 Y-5.88680
X-3.04000 Y-5.88580
X-3.03900 Y-5.88580
X-3.03900 Y-3.68280
X-3.03800 Y-3.68280
X-3.03800 Y-3.68080
X-3.03900 Y-3.68080
X-3.03900 Y-3.67980
X-3.04000 Y-3.67980
X-3.04000 Y-3.67880
X-3.04300 Y-3.67880
X-3.04300 Y-3.67980
X-6.29100 Y-3.67980
X-6.29100 Y-3.67880
X-6.29200 Y-3.67880
X-6.29200 Y-3.67780
X-6.29400 Y-3.67780
X-6.29400 Y-3.67880
G01 Z-0.07874 F39.37008 ( plunge. )
G04 P0 ( dwell for no time -- G64 should not smooth over this point )
X-6.29400 Y-3.67880
X-6.29500 Y-3.67880
X-6.29500 Y-5.89480
X-6.29400 Y-5.89480
X-6.29400 Y-5.89580
X-2.97200 Y-5.89580
X-2.97200 Y-5.89480
X-2.97100 Y-5.89480
X-2.97100 Y-5.89280
X-2.97200 Y-5.89280
X-2.97200 Y-5.89180
X-2.97300 Y-5.89180
X-2.97300 Y-5.89080
X-6.29000 Y-5.89080
X-6.29000 Y-3.68480
X-3.04400 Y-3.68480
X-3.04400 Y-5.88580
X-3.04300 Y-5.88580
X-3.04300 Y-5.88680
X-3.04000 Y-5.88680
X-3.04000 Y-5.88580
X-3.03900 Y-5.88580
X-3.03900 Y-3.68280
X-3.03800 Y-3.68280
X-3.03800 Y-3.68080
X-3.03900 Y-3.68080
X-3.03900 Y-3.67980
X-3.04000 Y-3.67980
X-3.04000 Y-3.67880
X-3.04300 Y-3.67880
X-3.04300 Y-3.67980
X-6.29100 Y-3.67980
X-6.29100 Y-3.67880
X-6.29200 Y-3.67880
X-6.29200 Y-3.67780
X-6.29400 Y-3.67780
X-6.29400 Y-3.67880

G04 P0 ( dwell for no time -- G64 should not smooth over this point )
G00 Z0.78740 ( retract )

M9 ( Coolant off. )
M2 ( Program end. )

